!!!COM: Bach, Johann Sebastian
!!!OPR: Six Concerts Avec plusieurs ... le prince regnant d'Anhalt-Coethen
!!!OTL: Brandenburgische Konzerte G
!!!XEN: Brandenburg Concerto No. 3 in G major.
!!!OMV: Movement 1.
!!!SCT: BWV 1048
!!!YEC: Copyright 1994, Center for Computer Assisted Research in the Humanities
!!!YEM: Rights to all derivative electronic formats reserved.
!!!YEM: Refer to licensing agreement for further details.
!! For the following instrumentation: Violino I, II & III, Viola I, II & III,
!!    Violoncello I, II & III, Violone & Cembalo.
!! [Allegro]
**kern	**kern	**kern	**kern	**kern	**kern	**kern	**kern	**kern	**kern
*IGcont	*ICstr	*ICstr	*ICstr	*ICstr	*ICstr	*ICstr	*ICstr	*ICstr	*ICstr
*Icemba	*Icello	*Icello	*Icello	*Iviola	*Iviola	*Iviola	*Ivioln	*Ivioln	*Ivioln
*Icbass	*	*	*	*	*	*	*	*	*
!Contin	!cello3	!cello2	!cello1	!viola3	!viola2	!viola1	!v'lin3	!v'lin2	!v'lin1
*k[f#]	*k[f#]	*k[f#]	*k[f#]	*k[f#]	*k[f#]	*k[f#]	*k[f#]	*k[f#]	*k[f#]
*G:	*G:	*G:	*G:	*G:	*G:	*G:	*G:	*G:	*G:
*M2/2	*M2/2	*M2/2	*M2/2	*M2/2	*M2/2	*M2/2	*M2/2	*M2/2	*M2/2
*MM56	*MM56	*MM56	*MM56	*MM56	*MM56	*MM56	*MM56	*MM56	*MM56
*clefF4	*clefF4	*clefF4	*clefF4	*clefC3	*clefC3	*clefC3	*clefG2	*clefG2	*clefG2
8GG/	8GG/	8GG/	8GG/	8G/	8G/	8G/	16g/LL	16g/LL	16g/LL
.	.	.	.	.	.	.	16f#/JJ	16f#/JJ	16f#/JJ
=1	=1	=1	=1	=1	=1	=1	=1	=1	=1
8GG/L	8GG/L	8GG/L	8GG/L	8B/L	8B/L	8B/L	8g/L	8g/L	8g/L
8G/	8G/	8G/	8G/	8d/	8d/	8d/	16d/LL	16d/LL	16d/LL
.	.	.	.	.	.	.	16c/JJ	16c/JJ	16c/JJ
8G/	8G/	8G/	8G/	8B/	8B/	8B/	8d/L	8d/L	8d/L
8GG/J	8GG/J	8GG/J	8GG/J	8G/J	8G/J	8G/J	16g/LL	16g/LL	16g/LL
.	.	.	.	.	.	.	16f#/JJ	16f#/JJ	16f#/JJ
8GG/L	8GG/L	8GG/L	8GG/L	8B/L	8B/L	8B/L	8g/L	8g/L	8g/L
8G/	8G/	8G/	8G/	8d/	8d/	8d/	16B/LL	16B/LL	16B/LL
.	.	.	.	.	.	.	16A/JJ	16A/JJ	16A/JJ
8G/	8G/	8G/	8G/	8B/	8B/	8B/	8B/L	8B/L	8B/L
8GG/J	8GG/J	8GG/J	8GG/J	8G/J	8G/J	8G/J	16g/LL	16g/LL	16g/LL
.	.	.	.	.	.	.	16f#/JJ	16f#/JJ	16f#/JJ
=2	=2	=2	=2	=2	=2	=2	=2	=2	=2
8GG/L	8GG/L	8GG/L	8GG/L	8B\L	8B\L	8B\L	8g/L	8g/L	8g/L
16G/LL	16G/LL	16G/LL	16G/LL	8d\J	8d\J	8d\J	16G/LL	16G/LL	16G/LL
16F#/JJ	16F#/JJ	16F#/JJ	16F#/JJ	.	.	.	16A/JJ	16A/JJ	16A/JJ
8E\L	8E\L	8E\L	8E\L	16g\LL	16g\LL	16g\LL	8B/L	8B/L	8B/L
.	.	.	.	16b\	16b\	16b\	.	.	.
8A\J	8A\J	8A\J	8A\J	16a\	16a\	16a\	8c#/J	8c#/J	8c#/J
.	.	.	.	16g\JJ	16g\JJ	16g\JJ	.	.	.
8D\L	8D\L	8D\L	8D\L	8f#\L	8f#\L	8f#\L	(16d/LL	(16d/LL	(16d/LL
.	.	.	.	.	.	.	16c#/	16c#/	16c#/
16d\LL	16d\LL	16d\LL	16d\LL	8d\J	8d\J	8d\J	16d/)	16d/)	16d/)
16c#\JJ	16c#\JJ	16c#\JJ	16c#\JJ	.	.	.	16e/JJ	16e/JJ	16e/JJ
8d\L	8d\L	8d\L	8d\L	8r	8r	8r	16d/LL	16d/LL	16d/LL
.	.	.	.	.	.	.	16f#/	16f#/	16f#/
8D\J	8D\J	8D\J	8D\J	8b\	8b\	8b\	16d/	16d/	16d/
.	.	.	.	.	.	.	16g/JJ	16g/JJ	16g/JJ
=3	=3	=3	=3	=3	=3	=3	=3	=3	=3
8D\L	8D\L	8D\L	8D\L	8f#\L	8f#\L	8f#\L	(16d/LL	(16d/LL	(16d/LL
.	.	.	.	.	.	.	16c#/	16c#/	16c#/
16d\LL	16d\LL	16d\LL	16d\LL	8d\J	8d\J	8d\J	16d/)	16d/)	16d/)
16c#\JJ	16c#\JJ	16c#\JJ	16c#\JJ	.	.	.	16e/JJ	16e/JJ	16e/JJ
8d\L	8d\L	8d\L	8d\L	8r	8r	8r	16d/LL	16d/LL	16d/LL
.	.	.	.	.	.	.	16a/	16a/	16a/
8D\J	8D\J	8D\J	8D\J	8g\	8g\	8g\	16d/	16d/	16d/
.	.	.	.	.	.	.	16b/JJ	16b/JJ	16b/JJ
8D\L	8D\L	8D\L	8D\L	8f#\L	8f#\L	8f#\L	(16d/LL	(16d/LL	(16d/LL
.	.	.	.	.	.	.	16c#/	16c#/	16c#/
16d\LL	16d\LL	16d\LL	16d\LL	8d\J	8d\J	8d\J	16d/)	16d/)	16d/)
16c#\JJ	16c#\JJ	16c#\JJ	16c#\JJ	.	.	.	16e/JJ	16e/JJ	16e/JJ
8d\L	8d\L	8d\L	8d\L	8r	8r	8r	16d/LL	16d/LL	16d/LL
.	.	.	.	.	.	.	16cc/	16cc/	16cc/
8F#\J	8F#\J	8F#\J	8F#\J	8a\	8a\	8a\	16d/	16d/	16d/
.	.	.	.	.	.	.	16dd/JJ	16dd/JJ	16dd/JJ
=4	=4	=4	=4	=4	=4	=4	=4	=4	=4
8G\L	8G\L	8G\L	8G\L	8d/L	8d/L	8d/L	8b/L	8b/L	8b/L
8E\	8E\	8E\	8E\	16c/LL	16c/LL	16c/LL	16a/LL	16a/LL	16a/LL
.	.	.	.	16B/JJ	16B/JJ	16B/JJ	16g/JJ	16g/JJ	16g/JJ
8C\	8C\	8C\	8C\	8c/L	8c/L	8c/L	8a/L	8a/L	8a/L
8D\J	8D\J	8D\J	8D\J	16B/LL	16B/LL	16B/LL	16g/LL	16g/LL	16g/LL
.	.	.	.	16A/JJ	16A/JJ	16A/JJ	16f#/JJ	16f#/JJ	16f#/JJ
8E/L	8E/L	8E/L	8E/L	8G\L	8G\L	8G\L	8g/L	8g/L	8g/L
16D/LL	16D/LL	16D/LL	16D/LL	8g\	8g\	8g\	16f#/LL	16f#/LL	16f#/LL
16C/JJ	16C/JJ	16C/JJ	16C/JJ	.	.	.	16e/JJ	16e/JJ	16e/JJ
8BB/L	8BB/L	8BB/L	8BB/L	8g\	8g\	8g\	16d/LL	16d/LL	16d/LL
.	.	.	.	.	.	.	16g/	16g/	16g/
16AA/LL	16AA/LL	16AA/LL	16AA/LL	8G\J	8G\J	8G\J	16d/	16d/	16d/
16GG/JJ	16GG/JJ	16GG/JJ	16GG/JJ	.	.	.	16g/JJ	16g/JJ	16g/JJ
=5	=5	=5	=5	=5	=5	=5	=5	=5	=5
8C/L	8C/L	8C/L	8C/L	8G\L	8G\L	8G\L	8e/L	8e/L	8e/L
16BB/LL	16BB/LL	16BB/LL	16BB/LL	8g\	8g\	8g\	16d/LL	16d/LL	16d/LL
16AA/JJ	16AA/JJ	16AA/JJ	16AA/JJ	.	.	.	16c/JJ	16c/JJ	16c/JJ
8GG/L	8GG/L	8GG/L	8GG/L	8g\	8g\	8g\	16B/LL	16B/LL	16B/LL
.	.	.	.	.	.	.	16g/	16g/	16g/
16G/LL	16G/LL	16G/LL	16G/LL	8G\J	8G\J	8G\J	16B/	16B/	16B/
16F#/JJ	16F#/JJ	16F#/JJ	16F#/JJ	.	.	.	16g/JJ	16g/JJ	16g/JJ
8E/L	8E/L	8E/L	8E/L	8G\L	8G\L	8G\L	8c/L	8c/L	8c/L
16D/LL	16D/LL	16D/LL	16D/LL	8g\	8g\	8g\	16B/LL	16B/LL	16B/LL
16C/JJ	16C/JJ	16C/JJ	16C/JJ	.	.	.	16A/JJ	16A/JJ	16A/JJ
8BB/L	8BB/L	8BB/L	8BB/L	8g\	8g\	8g\	16G/LL	16G/LL	16G/LL
.	.	.	.	.	.	.	16g/	16g/	16g/
8C#/J	8C#/J	8C#/J	8C#/J	8G\J	8G\J	8G\J	16A/	16A/	16A/
.	.	.	.	.	.	.	16g/JJ	16g/JJ	16g/JJ
=6	=6	=6	=6	=6	=6	=6	=6	=6	=6
8D/L	8D/L	8D/L	8D/L	8G\L	8G\L	8G\L	16B/LL	16B/LL	16B/LL
.	.	.	.	.	.	.	16g/	16g/	16g/
8DD/J	8DD/J	8DD/J	8DD/J	8g\	8g\	8g\	16c#/	16c#/	16c#/
.	.	.	.	.	.	.	16g/JJ	16g/JJ	16g/JJ
8DD/L	8DD/L	8DD/L	8DD/L	8f#\	8f#\	8f#\	16d/LL	16d/LL	16d/LL
.	.	.	.	.	.	.	16f#/	16f#/	16f#/
16D/LL	16D/LL	16D/LL	16D/LL	8g\J	8g\J	8g\J	16d/	16d/	16d/
16E/JJ	16E/JJ	16E/JJ	16E/JJ	.	.	.	16g/JJ	16g/JJ	16g/JJ
8F#\L	8F#\L	8F#\L	8F#\L	8a\L	8a\L	8a\L	16d/LL	16d/LL	16d/LL
.	.	.	.	.	.	.	16a/	16a/	16a/
8G\	8G\	8G\	8G\	8b\	8b\	8b\	16d/	16d/	16d/
.	.	.	.	.	.	.	16b/JJ	16b/JJ	16b/JJ
8A\	8A\	8A\	8A\	8cc\	8cc\	8cc\	16d/LL	16d/LL	16d/LL
.	.	.	.	.	.	.	16cc/	16cc/	16cc/
8F#\J	8F#\J	8F#\J	8F#\J	8dd\J	8dd\J	8dd\J	16d/	16d/	16d/
.	.	.	.	.	.	.	16dd/JJ	16dd/JJ	16dd/JJ
=7	=7	=7	=7	=7	=7	=7	=7	=7	=7
8G\L	8G\L	8G\L	8G\L	8b\L	8b\L	8b\L	8b/L	8b/L	8b/L
8c\	8c\	8c\	8c\	16a\LL	16a\LL	16a\LL	16a/LL	16a/LL	16a/LL
.	.	.	.	16g\JJ	16g\JJ	16g\JJ	16g/JJ	16g/JJ	16g/JJ
8d\	8d\	8d\	8d\	8d\L	8d\L	8d\L	8d/L	8d/L	8d/L
8D\J	8D\J	8D\J	8D\J	8f#\J	8f#\J	8f#\J	8f#/J	8f#/J	8f#/J
8G\L	8G\L	8G\L	8G\L	8g\L	8g\L	8g\L	8g/L	8g/L	8g/L
16F#\LL	16F#\LL	16F#\LL	16F#\LL	16f#\LL	16f#\LL	16f#\LL	16f#/LL	16f#/LL	16f#/LL
16E\JJ	16E\JJ	16E\JJ	16E\JJ	16e\JJ	16e\JJ	16e\JJ	16e/JJ	16e/JJ	16e/JJ
16D/LL	16D/LL	16D/LL	16D/LL	16d\LL	16d\LL	16d\LL	16d/LL	16d/LL	16d/LL
16C/	16C/	16C/	16C/	16c\	16c\	16c\	16c/	16c/	16c/
16BB/	16BB/	16BB/	16BB/	16B\	16B\	16B\	16B/	16B/	16B/
16AA/JJ	16AA/JJ	16AA/JJ	16AA/JJ	16A\JJ	16A\JJ	16A\JJ	16A/JJ	16A/JJ	16A/JJ
=8	=8	=8	=8	=8	=8	=8	=8	=8	=8
8BB/L	8BB/L	8BB/L	8BB/L	8B/L	8B/L	8B/L	8B/L	8B/L	8B/L
16AA/LL	16AA/LL	16AA/LL	16AA/LL	16A/LL	16A/LL	16A/LL	16A/LL	16A/LL	16A/LL
16GG/JJ	16GG/JJ	16GG/JJ	16GG/JJ	16G/JJ	16G/JJ	16G/JJ	16G/JJ	16G/JJ	16G/JJ
8D/L	8D/L	8D/L	8D/L	8d/L	8d/L	8d/L	8d/L	8d/L	8d/L
8DD/J	8DD/J	8DD/J	8DD/J	8D/J	8D/J	8D/J	8d/J	8d/J	8d/J
4GG/	4GG/	4GG/	4GG/	8G/L	8G/L	8G/L	4G/	4G/	4G/
.	.	.	.	8d/J	8d/J	8d/J	.	.	.
4r	8r	8r	8r	4g\	4g\	4g\	8r	8r	8r
.	8D/	8D/	8D/	.	.	.	16b/LL	16dd\LL	16gg\LL
.	.	.	.	.	.	.	16a/JJ	16cc\JJ	16ff#\JJ
=9	=9	=9	=9	=9	=9	=9	=9	=9	=9
4GG/	4GG/	4GG/	4GG/	4r	4r	4r	8b/L	8dd\L	8gg\L
.	.	.	.	.	.	.	16g/LL	16b\LL	16dd\LL
.	.	.	.	.	.	.	16f#/JJ	16a\JJ	16cc\JJ
4r	4r	4r	4r	8r	8r	8r	8g/	8b\	8dd\
.	.	.	.	16d\LL	16g\LL	16b\LL	8r	8r	8r
.	.	.	.	16c\JJ	16f#\JJ	16a\JJ	.	.	.
2r	4r	4r	4r	8d/L	8g\L	8b\L	2r	2r	2r
.	.	.	.	16B/LL	16d\LL	16g\LL	.	.	.
.	.	.	.	16A/JJ	16c\JJ	16f#\JJ	.	.	.
.	8r	8r	8r	8B/	8d\	8g\	.	.	.
.	16G\LL	16B\LL	16d\LL	8r	8r	8r	.	.	.
.	16F#\JJ	16A\JJ	16c\JJ	.	.	.	.	.	.
=10	=10	=10	=10	=10	=10	=10	=10	=10	=10
8r	8G/L	8G\L	16B\LL	8r	8r	8r	8r	8r	8r
.	.	.	16c\	.	.	.	.	.	.
16GG/LL	16GG/LL	8D\	16B\	16B/LL	16B/LL	16B/LL	8dd\	8dd\	8dd\
16AA/JJ	16AA/JJ	.	16A\JJ	16c/JJ	16c/JJ	16c/JJ	.	.	.
8BB/L	8BB/L	8BB\	8G\L	8d\L	8d\L	8d\L	16gg\LL	16gg\LL	16gg\LL
.	.	.	.	.	.	.	16bb\	16bb\	16bb\
8C#/J	8C#/J	8C#\J	8C#\J	8e\J	8e\J	8e\J	16aa\	16aa\	16aa\
.	.	.	.	.	.	.	16gg\JJ	16gg\JJ	16gg\JJ
4D\	4D\	4D\	4D\	8A/	8A/	8A/	4ff#\	4ff#\	16ff#\LL
.	.	.	.	.	.	.	.	.	16aa\
.	.	.	.	16f#\LL	16a\LL	16dd\LL	.	.	16dd\
.	.	.	.	16e\JJ	16g\JJ	16cc#\JJ	.	.	16ee\JJ
8r	8r	8r	8r	8d\J	8a\J	8dd\J	8r	8r	16ff#\LL
.	.	.	.	.	.	.	.	.	16gg\
8A\	8A\	8A\	8A\	8r	8r	8r	8cc#\	8ee\	16aa\
.	.	.	.	.	.	.	.	.	16gg\JJ
=11	=11	=11	=11	=11	=11	=11	=11	=11	=11
4d\	4d\	4d\	4d\	8r	8r	8r	4dd\	16ff#\LL	8ff#\L
.	.	.	.	.	.	.	.	16aa\	.
.	.	.	.	16f#\LL	16a\LL	16dd\LL	.	16dd\	8ddd\J
.	.	.	.	16e\JJ	16g\JJ	16cc#\JJ	.	16ee\JJ	.
8r	8r	8r	8r	8d\	8a\	8dd\	8r	16ff#\LL	8r
.	.	.	.	.	.	.	.	16gg\	.
8A\	8A\	8A\	8A\	8r	8r	8r	8ee\	16aa\	8ccc#\
.	.	.	.	.	.	.	.	16gg\JJ	.
4D\	4D\	4D\	4D\	8r	8r	8r	16ff#\LL	8ff#\L	8ddd\L
.	.	.	.	.	.	.	16aa\	.	.
.	.	.	.	16f#\LL	16a\LL	16dd\LL	16dd\	8ddd\J	8aa\
.	.	.	.	16e\JJ	16g\JJ	16cc#\JJ	16ee\JJ	.	.
8r	8r	8r	8r	8d\J	8a\J	8dd\J	16ff#\LL	8r	8dd\
.	.	.	.	.	.	.	16gg\	.	.
8AA/	8AA/	8AA/	8AA/	8a\	8a\	8a\	16aa\	8ccc#\	8ee\J
.	.	.	.	.	.	.	16gg\JJ	.	.
=12	=12	=12	=12	=12	=12	=12	=12	=12	=12
8DD/L	8DD/L	8DD/L	8DD/L	8a\L	8a\L	8a\L	8ff#\L	8ddd\L	8ff#\L
8BB/	8BB/	8BB/	8BB/	16g\LL	16g\LL	16g\LL	16ee\LL	16ee\LL	16ee\LL
.	.	.	.	16f#\JJ	16f#\JJ	16f#\JJ	16dd\JJ	16dd\JJ	16dd\JJ
8GG/	8GG/	8GG/	8GG/	8g\L	8g\L	8g\L	8ee\L	8ee\L	8ee\L
8AA/J	8AA/J	8AA/J	8AA/J	16f#\LL	16f#\LL	16f#\LL	16dd\LL	16dd\LL	16dd\LL
.	.	.	.	16e\JJ	16e\JJ	16e\JJ	16cc#\JJ	16cc#\JJ	16cc#\JJ
8BB/L	8BB/L	8BB/L	8BB/L	8d\L	8d\L	8d\L	8dd\L	8dd\L	8dd\L
16AA/LL	16AA/LL	16AA/LL	16AA/LL	8dd\	8dd\	8dd\	16cc#\LL	16cc#\LL	16cc#\LL
16GG/JJ	16GG/JJ	16GG/JJ	16GG/JJ	.	.	.	16b\JJ	16b\JJ	16b\JJ
8FF#/L	8FF#/L	8FF#/L	8FF#/L	8dd\	8dd\	8dd\	16a\LL	16a\LL	16a\LL
.	.	.	.	.	.	.	16dd\	16dd\	16dd\
16EE/LL	16EE/LL	16EE/LL	16EE/LL	8d\J	8d\J	8d\J	16a\	16a\	16a\
16DD/JJ	16DD/JJ	16DD/JJ	16DD/JJ	.	.	.	16dd\JJ	16dd\JJ	16dd\JJ
=13	=13	=13	=13	=13	=13	=13	=13	=13	=13
8GG/L	8GG/L	8GG/L	8GG/L	8d\L	8d\L	8d\L	8b/L	8b/L	8b/L
16FF#/LL	16FF#/LL	16FF#/LL	16FF#/LL	8dd\	8dd\	8dd\	16a/LL	16a/LL	16a/LL
16EE/JJ	16EE/JJ	16EE/JJ	16EE/JJ	.	.	.	16g/JJ	16g/JJ	16g/JJ
8DD/	8DD/	8DD/	8DD/	8dd\	8dd\	8dd\	16f#/LL	16f#/LL	16f#/LL
.	.	.	.	.	.	.	16dd/	16dd/	16dd/
16d\LL	16d\LL	16d\LL	16d\LL	8d\J	8d\J	8d\J	16f#/	16f#/	16f#/
16c#\JJ	16c#\JJ	16c#\JJ	16c#\JJ	.	.	.	16dd/JJ	16dd/JJ	16dd/JJ
8B\L	8B\L	8B\L	8B\L	8d\L	8d\L	8d\L	8g/L	8g/L	8g/L
16A\LL	16A\LL	16A\LL	16A\LL	8dd\	8dd\	8dd\	16f#/LL	16f#/LL	16f#/LL
16G\JJ	16G\JJ	16G\JJ	16G\JJ	.	.	.	16e/JJ	16e/JJ	16e/JJ
8F#\L	8F#\L	8F#\L	8F#\L	8dd\	8dd\	8dd\	16d/LL	16d/LL	16d/LL
.	.	.	.	.	.	.	16dd/	16dd/	16dd/
8G#\J	8G#\J	8G#\J	8G#\J	8d\J	8d\J	8d\J	16e/	16e/	16e/
.	.	.	.	.	.	.	16dd/JJ	16dd/JJ	16dd/JJ
=14	=14	=14	=14	=14	=14	=14	=14	=14	=14
8A\L	8A\L	8A\L	8A\L	8d\L	8d\L	8d\L	16f#/LL	16f#/LL	16f#/LL
.	.	.	.	.	.	.	16dd/	16dd/	16dd/
8AA\J	8AA\J	8AA\J	8AA\J	8dd\	8dd\	8dd\	16g#/	16g#/	16g#/
.	.	.	.	.	.	.	16dd/JJ	16dd/JJ	16dd/JJ
8AA\L	8AA\L	8AA\L	8AA\L	8cc#\	8cc#\	8cc#\	16a/LL	16a/LL	16a/LL
.	.	.	.	.	.	.	16cc#/	16cc#/	16cc#/
16A\LL	16A\LL	16A\LL	16A\LL	8b\J	8b\J	8b\J	16a/	16a/	16a/
16B\JJ	16B\JJ	16B\JJ	16B\JJ	.	.	.	16dd/JJ	16dd/JJ	16dd/JJ
8c#\L	8c#\L	8c#\L	8c#\L	8a\L	8a\L	8a\L	16a\LL	16a\LL	16a\LL
.	.	.	.	.	.	.	16ee\	16ee\	16ee\
8d\	8d\	8d\	8d\	8d\	8d\	8d\	16a\	16a\	16a\
.	.	.	.	.	.	.	16ff#\JJ	16ff#\JJ	16ff#\JJ
8e\	8e\	8e\	8e\	8c#\	8c#\	8c#\	16a\LL	16a\LL	16a\LL
.	.	.	.	.	.	.	16gg\	16gg\	16gg\
8c#\J	8c#\J	8c#\J	8c#\J	8e\J	8e\J	8e\J	16a\	16a\	16a\
.	.	.	.	.	.	.	16aa\JJ	16aa\JJ	16aa\JJ
=15	=15	=15	=15	=15	=15	=15	=15	=15	=15
8d\L	8d\L	8d\L	8d\L	8d\L	8d\L	8d\L	8ff#\L	8ff#\L	8ff#\L
8G\	8G\	8G\	8G\	16e\LL	16e\LL	16e\LL	16ee\LL	16ee\LL	16ee\LL
.	.	.	.	16f#\JJ	16f#\JJ	16f#\JJ	16dd\JJ	16dd\JJ	16dd\JJ
8A\	8A\	8A\	8A\	8e\L	8e\L	8e\L	8a\L	8a\L	8a\L
8AA\J	8AA\J	8AA\J	8AA\J	8a\J	8a\J	8a\J	8cc#\J	8cc#\J	8cc#\J
8DD/L	8DD/L	8D\L	8D\L	4f#\	4f#\	4f#\	4dd\	4dd\	4dd\
16D/LL	16D/LL	16d\LL	16d\LL	.	.	.	.	.	.
16C/JJ	16C/JJ	16c\JJ	16c\JJ	.	.	.	.	.	.
16BB/LL	16BB/LL	16B\LL	16B\LL	4r	4r	4r	8r	8r	8r
16C/	16C/	16c\	16c\	.	.	.	.	.	.
16BB/	16BB/	16B\	16B\	.	.	.	16g/LL	16dd\LL	16gg\LL
16AA/JJ	16AA/JJ	16A\JJ	16A\JJ	.	.	.	16a/JJ	16cc\JJ	16ff#\JJ
=16	=16	=16	=16	=16	=16	=16	=16	=16	=16
4GG/	4GG/	4G\	4G\	4r	4r	4r	8b/L	8dd\L	8gg\L
.	.	.	.	.	.	.	16g/LL	16b\LL	16dd\LL
.	.	.	.	.	.	.	16f#/JJ	16a\JJ	16cc\JJ
4r	4r	4r	4r	8r	8r	8r	8g/	8b\	8dd\
.	.	.	.	16d\LL	16g\LL	16b\LL	8r	8r	8r
.	.	.	.	16c\JJ	16f#\JJ	16a\JJ	.	.	.
2r	4r	4r	4r	8d/L	8g\L	8b\L	2r	2r	2r
.	.	.	.	16B/LL	16d\LL	16g\LL	.	.	.
.	.	.	.	16A/JJ	16c\JJ	16f#\JJ	.	.	.
.	8r	8r	8r	8B/	8d\	8g\	.	.	.
.	16B\LL	16d\LL	16G\LL	8r	8r	8r	.	.	.
.	16A\JJ	16c\JJ	16F#\JJ	.	.	.	.	.	.
=17	=17	=17	=17	=17	=17	=17	=17	=17	=17
8r	8G\L	16B\LL	8G/L	8r	8r	8r	8r	8r	8r
.	.	16c\	.	.	.	.	.	.	.
16GG/LL	8D\	16B\	16GG/LL	8d\	8d\	8d\	16b\LL	16b\LL	16b\LL
16AA/JJ	.	16A\JJ	16AA/JJ	.	.	.	16cc\JJ	16cc\JJ	16cc\JJ
8BB/L	8BB\	8G\L	8BB/L	16g\LL	16g\LL	16g\LL	8dd\L	8dd\L	8dd\L
.	.	.	.	16b\	16b\	16b\	.	.	.
8C#/J	8C#\J	8C#\J	8C#/J	16a\	16a\	16a\	8ee\J	8ee\J	8ee\J
.	.	.	.	16g\JJ	16g\JJ	16g\JJ	.	.	.
4D\	4D\	4D\	4D\	4f#\	4f#\	16f#\LL	8a/	8a/	8a/
.	.	.	.	.	.	16a\	.	.	.
.	.	.	.	.	.	16d\	16ff#\LL	16aa\LL	16ddd\LL
.	.	.	.	.	.	16e\JJ	16ee\JJ	16gg\JJ	16ccc#\JJ
8r	8r	8r	8r	8r	8r	16f#\LL	8dd\J	8aa\J	8ddd\J
.	.	.	.	.	.	16g\	.	.	.
8A\	8A\	8A\	8A\	8c#\	8e\	16a\	8r	8r	8r
.	.	.	.	.	.	16g\JJ	.	.	.
=18	=18	=18	=18	=18	=18	=18	=18	=18	=18
4d\	4d\	4d\	4d\	4d\	16f#\LL	8f#\L	8r	8r	8r
.	.	.	.	.	16a\	.	.	.	.
.	.	.	.	.	16d\	8dd\J	16ff#\LL	16aa\LL	16ddd\LL
.	.	.	.	.	16e\JJ	.	16ee\JJ	16gg\JJ	16ccc#\JJ
8r	8r	8r	8r	8r	16f#\LL	8r	8dd\J	8aa\J	8ddd\J
.	.	.	.	.	16g\	.	.	.	.
8A\	8A\	8A\	8A\	8e\	16a\	8cc#\	8r	8r	8r
.	.	.	.	.	16g\JJ	.	.	.	.
4D\	4D\	4D\	4D\	16f#\LL	8f#\L	8dd\L	8r	8r	8r
.	.	.	.	16a\	.	.	.	.	.
.	.	.	.	16d\	8dd\J	8a\J	16ff#\LL	16aa\LL	16ddd\LL
.	.	.	.	16e\JJ	.	.	16ee\JJ	16gg\JJ	16ccc#\JJ
8r	8r	8r	8r	16f#\LL	8r	8d\L	8dd\J	8aa\J	8ddd\J
.	.	.	.	16g\	.	.	.	.	.
8AA/	8AA/	8AA/	8AA/	16a\	16dd\LL	16dd\LL	8r	8r	8r
.	.	.	.	16g\JJ	16cc#\JJ	16cc#\JJ	.	.	.
=19	=19	=19	=19	=19	=19	=19	=19	=19	=19
8DD/L	8DD/L	8DD/L	8DD/L	8f#\L	8dd\L	8dd\L	8r	8r	8r
8D/	8D/	8D/	8D/	16a\LL	16a\LL	16a\LL	8dd\L	8dd\L	8dd\L
.	.	.	.	16g\JJ	16g\JJ	16g\JJ	.	.	.
8D/	8D/	8D/	8D/	8a\L	8a\L	8a\L	8ff#\	8ff#\	8ff#\
8DD/J	8DD/J	8DD/J	8DD/J	16dd\LL	16dd\LL	16dd\LL	8aa\J	8aa\J	8aa\J
.	.	.	.	16cc#\JJ	16cc#\JJ	16cc#\JJ	.	.	.
8DD/L	8DD/L	8DD/L	8DD/L	8dd\L	8dd\L	8dd\L	8ff#\L	8ff#\L	8ff#\L
8D/	8D/	8D/	8D/	16f#\LL	16f#\LL	16f#\LL	8dd\	8dd\	8dd\
.	.	.	.	16e\JJ	16e\JJ	16e\JJ	.	.	.
8D/	8D/	8D/	8D/	8f#\L	8f#\L	8f#\L	8ff#\	8ff#\	8ff#\
8DD/J	8DD/J	8DD/J	8DD/J	16dd\LL	16dd\LL	16dd\LL	8aa\J	8aa\J	8aa\J
.	.	.	.	16cc#\JJ	16cc#\JJ	16cc#\JJ	.	.	.
=20	=20	=20	=20	=20	=20	=20	=20	=20	=20
8DD/L	8DD/L	8DD/L	8DD/L	8dd\L	8dd\L	8dd\L	8ff#\L	8ff#\L	8ff#\L
16D/LL	16D/LL	16D/LL	16D/LL	16d\LL	16d\LL	16d\LL	8a\J	8a\J	8a\J
16C#/JJ	16C#/JJ	16C#/JJ	16C#/JJ	16e\JJ	16e\JJ	16e\JJ	.	.	.
8BB/L	8BB/L	8BB/L	8BB/L	8f#\L	8f#\L	8f#\L	16dd\LL	16dd\LL	16dd\LL
.	.	.	.	.	.	.	16ff#\	16ff#\	16ff#\
8E/J	8E/J	8E/J	8E/J	8g#\J	8g#\J	8g#\J	16ee\	16ee\	16ee\
.	.	.	.	.	.	.	16dd\JJ	16dd\JJ	16dd\JJ
4AA/	4AA/	4AA/	4AA/	8a\	8a\	8a\	4cc#\	16cc#\LL	4cc#\
.	.	.	.	.	.	.	.	16ee\	.
.	.	.	.	16e\LL	16a\LL	16cc#\LL	.	16a\	.
.	.	.	.	16d\JJ	16g#\JJ	16b\JJ	.	16b\JJ	.
8r	8r	8r	8r	8e\J	8a\J	8a\J	8r	16cc#\LL	8r
.	.	.	.	.	.	.	.	16dd\	.
8AA/	8AA/	8AA/	8AA/	8r	8r	8r	8a/	16ee\	8cc#\
.	.	.	.	.	.	.	.	16ff#\JJ	.
=21	=21	=21	=21	=21	=21	=21	=21	=21	=21
4E\	4E\	4E\	4E\	8r	8r	8r	16g/LL	4gg\	4b\
.	.	.	.	.	.	.	16b/	.	.
.	.	.	.	16e\LL	16g\LL	16b\LL	16e/	.	.
.	.	.	.	16d#\JJ	16f#\JJ	16a\JJ	16f#/JJ	.	.
8r	8r	8r	8r	8e\J	8e\J	8b\J	16g/LL	8r	8r
.	.	.	.	.	.	.	16a/	.	.
8E\	8E\	8E\	8E\	8r	8r	8r	16b/	8gg\	8ee\
.	.	.	.	.	.	.	16cc#/JJ	.	.
4BB/	4BB/	4BB/	4BB/	8r	8r	8r	4dd\	4ff#\	16dd\LL
.	.	.	.	.	.	.	.	.	16ff#\
.	.	.	.	16d\LL	16f#\LL	16b\LL	.	.	16b\
.	.	.	.	16c#\JJ	16e\JJ	16a\JJ	.	.	16cc#\JJ
8r	8r	8r	8r	8B\J	8f#\J	8b\J	8r	8r	16dd\LL
.	.	.	.	.	.	.	.	.	16ee\
8BB/	8BB/	8BB/	8BB/	8r	8r	8r	8dd\	8ff#\	16ff#\
.	.	.	.	.	.	.	.	.	16gg\JJ
=22	=22	=22	=22	=22	=22	=22	=22	=22	=22
8F#\	8F#\	8F#\	8F#\	8r	8r	8r	8cc#\L	8ff#\L	8aa\L
16B\LL	16B\LL	16B\LL	16B\LL	16f#\LL	16b\LL	16dd\LL	8dd\J	8ff#\J	8aa\J
16A\JJ	16A\JJ	16A\JJ	16A\JJ	16g\JJ	16cc#\JJ	16cc#\JJ	.	.	.
8B\L	8B\L	8B\L	8B\L	8f#\L	8b\L	8dd\L	8dd\L	8ff#\L	8aa\L
16E\LL	16E\LL	16E\LL	16E\LL	8g\J	8b\J	8dd\J	16b\LL	16ee\LL	16gg\LL
16D\JJ	16D\JJ	16D\JJ	16D\JJ	.	.	.	16cc#\JJ	16ff#\JJ	16ff#\JJ
8E\L	8E\L	8E\L	8E\L	8g\L	8b\L	8dd\L	8b\L	8ee\L	8gg\L
16A\LL	16A\LL	16A\LL	16A\LL	16e\LL	16a\LL	16cc#\LL	8cc#\J	8ee\J	8gg\J
16G\JJ	16G\JJ	16G\JJ	16G\JJ	16f#\JJ	16b\JJ	16b\JJ	.	.	.
8A\L	8A\L	8A\L	8A\L	8e\L	8a\L	8cc#\L	8cc#\L	8ee\L	8gg\L
16D\LL	16D\LL	16D\LL	16D\LL	16f#\LL	16a\LL	16dd\LL	16a\LL	16dd\LL	16ff#\LL
16C#\JJ	16C#\JJ	16C#\JJ	16C#\JJ	16g\JJ	16g\JJ	16g\JJ	16b\JJ	16ee\JJ	16ee\JJ
=23	=23	=23	=23	=23	=23	=23	=23	=23	=23
8D\L	8D\L	8D\L	8D\L	8f#\L	8a\L	8d\L	8a/L	8dd/L	8ff#\L
8G\	8G\	8G\	8G\	8B\	8e\	16e\LL	16g/LL	8b/	16ee\LL
.	.	.	.	.	.	16f#\JJ	16f#/JJ	.	16dd\JJ
8A\	8A\	8A\	8A\	8c#\	8e\	8g\L	8e/L	8a/	8a\L
8AA\J	8AA\J	8AA\J	8AA\J	8c#\J	8e\J	8g\J	8e/J	8a/J	8cc#\J
8D\	8D\	8D\	8D\	(8A/L	(8d\L	(8f#\L	4f#/	4a/	(16dd\LL
.	.	.	.	.	.	.	.	.	16cc#\
16d\LL	16d\LL	16d\LL	16d\LL	8A/	8d\	8f#\	.	.	16dd\)
16c#\JJ	16c#\JJ	16c#\JJ	16c#\JJ	.	.	.	.	.	16ee\JJ
8d\J	8d\J	8d\J	8d\J	8A/	8d\	8f#\	8r	8r	16dd\LL
.	.	.	.	.	.	.	.	.	16ff#\
8r	8r	8r	8r	8B/J)	8d\J)	8g\J)	16dd\LL	16dd\LL	16dd\
.	.	.	.	.	.	.	16cc#\JJ	16cc#\JJ	16gg\JJ
=24	=24	=24	=24	=24	=24	=24	=24	=24	=24
8r	8r	8r	8r	(8F#/L	(8d\L	(8a\L	8dd\	8dd\	(16dd\LL
.	.	.	.	.	.	.	.	.	16cc#\
16d\LL	16d\LL	16d\LL	16d\LL	8F#/	8d\	8a\	8r	8r	16dd\)
16c#\JJ	16c#\JJ	16c#\JJ	16c#\JJ	.	.	.	.	.	16ee\JJ
8d\J	8d\J	8d\J	8d\J	8F#/	8d\	8a\	8r	8r	16dd\LL
.	.	.	.	.	.	.	.	.	16aa\
8r	8r	8r	8r	8G/J)	8d\J)	8b\J)	16dd\LL	16dd\LL	16dd\
.	.	.	.	.	.	.	16cc#\JJ	16cc#\JJ	16bb\JJ
8r	8r	8r	8r	8A/	8d\	(16d\LL	8dd\L	(8dd\L	(16ff#\LL
.	.	.	.	.	.	16c#\	.	.	16ee\
16D\LL	16D\LL	16D\LL	16D\LL	8r	8r	16d\)	(8a\	8dd\	16ff#\)
16C#\JJ	16C#\JJ	16C#\JJ	16C#\JJ	.	.	16e\JJ	.	.	16gg\JJ
8D\J	8D\J	8D\J	8D\J	8r	8r	16d\LL	8a\	8dd\	16ff#\LL
.	.	.	.	.	.	16f#\	.	.	16a\
8r	8r	8r	8r	16d\LL	16d\LL	16d\	8b\J)	8dd\J)	16gg\
.	.	.	.	16c#\JJ	16c#\JJ	16g\JJ	.	.	16b\JJ
=25	=25	=25	=25	=25	=25	=25	=25	=25	=25
8r	8r	8r	8r	8d\	8d\	(16d\LL	(8a/L	(8dd\L	(16ff#\LL
.	.	.	.	.	.	16c#\	.	.	16ee\
16D\LL	16D\LL	16D\LL	16D\LL	8r	8r	16d\)	8a/	8dd\	16ff#\)
16C#\JJ	16C#\JJ	16C#\JJ	16C#\JJ	.	.	16e\JJ	.	.	16gg\JJ
8D\J	8D\J	8D\J	8D\J	8r	8r	16d\LL	8a/	8dd\	16ff#\LL
.	.	.	.	.	.	16a\	.	.	16cc\
8r	8r	8r	8r	16d\LL	16d\LL	16d\	8b/J)	8dd\J)	16gg\
.	.	.	.	16c#\JJ	16c#\JJ	16b\JJ	.	.	16b\JJ
8r	8r	8r	8r	8d\J	8d\J	(16cc\LL	8d/	8dd\	(16a/LL
.	.	.	.	.	.	16b\	.	.	16g/
16d\LL	16d\LL	16d\LL	16d\LL	8A/L	8d\L	16cc\)	8d/L	8dd\L	16a/)
16c\JJ	16c\JJ	16c\JJ	16c\JJ	.	.	16dd\JJ	.	.	16b/JJ
8d\L	8d\L	8d\L	8d\L	8A/	8d\	16cc\LL	8d/	8dd\	16a\LL
.	.	.	.	.	.	16b\	.	.	16gg\
8D\J	8D\J	8D\J	8D\J	8d/J	8f#\J	16cc\	8dd/J	8a\J	16a\
.	.	.	.	.	.	16a\JJ	.	.	16ff#\JJ
=26	=26	=26	=26	=26	=26	=26	=26	=26	=26
8GG/	8GG/	8GG/	8GG/	(8d\L	(8d\L	(8b\L	4dd\	(16g/LL	4gg\
.	.	.	.	.	.	.	.	16f#/	.
16G\LL	16G\LL	16G\LL	16G\LL	8d\	8g\	8b\	.	16g/)	.
16F#\JJ	16F#\JJ	16F#\JJ	16F#\JJ	.	.	.	.	16a/JJ	.
8G\J	8G\J	8G\J	8G\J	8d\	8g\	8b\	8r	16g/LL	8r
.	.	.	.	.	.	.	.	16b/	.
8r	8r	8r	8r	8e\J)	8g\J)	8cc\J)	16g/LL	16g/	16g/LL
.	.	.	.	.	.	.	16f#/JJ	16cc/JJ	16f#/JJ
8r	8r	8r	8r	(8B/L	(8g\L	(8dd\L	8g/J	(16g/LL	8g/
.	.	.	.	.	.	.	.	16f#/	.
16G\LL	16G\LL	16G\LL	16G\LL	8B/	8g\	8dd\	8r	16g/)	8r
16F#\JJ	16F#\JJ	16F#\JJ	16F#\JJ	.	.	.	.	16a/JJ	.
8G\J	8G\J	8G\J	8G\J	8B/	8g\	8dd\	8r	16g/LL	8r
.	.	.	.	.	.	.	.	16dd/	.
8r	8r	8r	8r	8c/J)	8g\J)	8ee\J)	16g/LL	16g/	16g/LL
.	.	.	.	.	.	.	16f#/JJ	16ee/JJ	16f#/JJ
=27	=27	=27	=27	=27	=27	=27	=27	=27	=27
8r	8r	8r	8r	8d\	(16G/LL	8dd\	8g/L	(16b/LL	(8g/L
.	.	.	.	.	16F#/	.	.	16a/	.
16GG/LL	16GG/LL	16GG/LL	16GG/LL	8r	16G/)	8r	(8d/	16b/)	8g/
16FF#/JJ	16FF#/JJ	16FF#/JJ	16FF#/JJ	.	16A/JJ	.	.	16cc/JJ	.
8GG/J	8GG/J	8GG/J	8GG/J	8r	16G/LL	8r	8d/	16b/LL	8g/
.	.	.	.	.	16B/	.	.	16d/	.
8r	8r	8r	8r	16G/LL	16G/	16G/LL	8e/J)	16cc/	8g/J)
.	.	.	.	16F#/JJ	16c/JJ	16F#/JJ	.	16e/JJ	.
8r	8r	8r	8r	8G/J	(16G/LL	8G/J	(8d/L	(16b/LL	(8g/L
.	.	.	.	.	16F#/	.	.	16a/	.
16GG/LL	16GG/LL	16GG/LL	16GG/LL	8r	16G/)	8r	8d/	16b/)	8g/
16FF#/JJ	16FF#/JJ	16FF#/JJ	16FF#/JJ	.	16A/JJ	.	.	16cc/JJ	.
8GG/J	8GG/J	8GG/J	8GG/J	8r	16G/LL	8r	8d/	16b/LL	8g/
.	.	.	.	.	16d/	.	.	16f/	.
8r	8r	8r	8r	16G/LL	16G/	16G/LL	8e/J)	16cc/	8g/J)
.	.	.	.	16F#/JJ	16e/JJ	16F#/JJ	.	16e/JJ	.
=28	=28	=28	=28	=28	=28	=28	=28	=28	=28
8r	8r	8r	8r	8G/	(16f\LL	8G/	8G/	(16d/LL	8g/
.	.	.	.	.	16e\	.	.	16c/	.
16G\LL	16G\LL	16G\LL	16G\LL	8D/L	16f\)	8G/L	8G/L	16d/)	8g/L
16F\JJ	16F\JJ	16F\JJ	16F\JJ	.	16g\JJ	.	.	16e/JJ	.
8G/L	8G/L	8G/L	8G/L	8D/	16f\LL	8G/	8G/	16d/LL	8g/
.	.	.	.	.	16e\	.	.	16cc/	.
8GG/J	8GG/J	8GG/J	8GG/J	8G/J	16f\	8B/J	8G/J	16d/	8d/J
.	.	.	.	.	16d\JJ	.	.	16b/JJ	.
4C/	4C/	4C/	4C/	16G/LL	16e\LL	16G/LL	16G/LL	16cc/LL	16c/LL
.	.	.	.	16B/	16B\	16B/	16g/	16g/	16g/
.	.	.	.	16c/	16c\	16c/	16a/	16a/	16a/
.	.	.	.	16d/JJ	16d\JJ	16d/JJ	16b/JJ	16b/JJ	16b/JJ
16r	16r	16r	16r	16e\LL	16e\LL	16e\LL	8cc\	8cc\	8cc\
16BB/LL	16BB/LL	16BB/LL	16BB/LL	16d\	16d\	16d\	.	.	.
16C/	16C/	16C/	16C/	16e\	16e\	16e\	8r	8r	8r
16D/JJ	16D/JJ	16D/JJ	16D/JJ	16f\JJ	16f\JJ	16f\JJ	.	.	.
=29	=29	=29	=29	=29	=29	=29	=29	=29	=29
8E\L	8E\L	8E\L	8E\L	8g\L	8g\L	8g\L	8r	8r	8r
16A\LL	16A\LL	16A\LL	16A\LL	8c\J	8e\J	8g\J	16ee\LL	16aa\LL	16ccc\LL
16G\JJ	16G\JJ	16G\JJ	16G\JJ	.	.	.	16ff\JJ	16bb\JJ	16bb\JJ
8A\L	8A\L	8A\L	8A\L	8c/L	8e\L	8g\L	8ee\L	8aa\L	8ccc\L
16D\LL	16D\LL	16D\LL	16D\LL	16A/LL	16d\LL	16f\LL	8ff\J	8aa\J	8ccc\J
16C\JJ	16C\JJ	16C\JJ	16C\JJ	16B/JJ	16e\JJ	16e\JJ	.	.	.
8D\L	8D\L	8D\L	8D\L	8A/L	8d\L	8f\L	8ff\L	8aa\L	8ccc\L
16G\LL	16G\LL	16G\LL	16G\LL	8B/J	8d\J	8f\J	16dd\LL	16gg\LL	16bb\LL
16F\JJ	16F\JJ	16F\JJ	16F\JJ	.	.	.	16ee\JJ	16aa\JJ	16aa\JJ
8G\L	8G\L	8G\L	8G\L	8B/L	8d\L	8f\L	8dd\L	8gg\L	8bb\L
16C\LL	16C\LL	16C\LL	16C\LL	16G/LL	16c\LL	16e\LL	8ee\J	8gg\J	8bb\J
16BB\JJ	16BB\JJ	16BB\JJ	16BB\JJ	16A/JJ	16d\JJ	16d\JJ	.	.	.
=30	=30	=30	=30	=30	=30	=30	=30	=30	=30
8C\L	8C\L	8C\L	8C\L	8G/L	8c\L	8e\L	8ee\L	8gg\L	8bb-\L
16F\LL	16F\LL	16F\LL	16F\LL	8A/	8c\	8e\J	16cc\LL	16ff\LL	16aa\LL
16E\JJ	16E\JJ	16E\JJ	16E\JJ	.	.	.	16dd\JJ	16gg\JJ	16gg\JJ
[4F\	[4F\	[4F\	[4F\	8A/	8c\	8e\L	8cc\L	8ff\L	16aa\LL
.	.	.	.	.	.	.	.	.	16gg\
.	.	.	.	8A/J	8d\J	16d\LL	8dd\J	8a\J	16ff\
.	.	.	.	.	.	16c\JJ	.	.	16ee\JJ
16F\LL]	16F\LL]	16F\LL]	16F\LL]	8D/L	8d\L	16B/LL	8g/L	8b\L	16dd\LL
16G\	16G\	16G\	16G\	.	.	16G/	.	.	16b\
16F\	16F\	16F\	16F\	8G/	8d\	16B/	8g/	8b\J	16g\
16E\JJ	16E\JJ	16E\JJ	16E\JJ	.	.	16c/JJ	.	.	16a\JJ
16D/LL	16D/LL	16D/LL	16D/LL	8G/	8d\	16d\LL	8g/	16b\LL	16b\LL
16C/	16C/	16C/	16C/	.	.	16e\	.	16a\	16cc\
16BB/	16BB/	16BB/	16BB/	8G/J	8d\J	16f\	8g/J	16b\	16dd\
16AA/JJ	16AA/JJ	16AA/JJ	16AA/JJ	.	.	16g\JJ	.	16cc\JJ	16ee\JJ
=31	=31	=31	=31	=31	=31	=31	=31	=31	=31
8GG/L	8GG/L	8GG/L	8GG/L	8G/L	8d\L	16a\LL	8d/L	8dd/L	(16ff\LL
.	.	.	.	.	.	16b\	.	.	32gg\LLL
.	.	.	.	.	.	.	.	.	32ff\
8C/	8C/	8C/	8C/	8G/	8e\	16cc\	8c/	8g/	32ee\
.	.	.	.	.	.	.	.	.	32ff\JJJ
.	.	.	.	.	.	16dd\JJ	.	.	16gg\JJ)
8G/	8G/	8G/	8G/	8G/	8f\	8.bt\L	8d/	8g/	8.ddT\L
8GG/J	8GG/J	8GG/J	8GG/J	8G/J	8f\J	.	8d/J	8g/J	.
.	.	.	.	.	.	16cc\Jk	.	.	16cc\Jk
4CC/	4CC/	4C/	4C/	4G/	4e\	4cc\	(16e/LL	(16g/LL	(16cc\LL
.	.	.	.	.	.	.	16d/	16f/	16b\
.	.	.	.	.	.	.	16e/)	16g/)	16cc\)
.	.	.	.	.	.	.	16f/JJ	16a/JJ	16dd\JJ
8r	8r	8r	8r	8r	8r	8r	16e/LL	16g/LL	16cc\LL
.	.	.	.	.	.	.	16g/	16cc/	16ee\
16c\LL	16c\LL	16c\LL	16c\LL	8c/	8c\	8c\	16f/	16b/	16dd\
16B\JJ	16B\JJ	16B\JJ	16B\JJ	.	.	.	16a/JJ	16dd/JJ	16ff\JJ
=32	=32	=32	=32	=32	=32	=32	=32	=32	=32
8c\L	8c\L	8c\L	8c\L	8e\L	8e\L	8e\L	(16g/LL	(16cc\LL	(16ee\LL
.	.	.	.	.	.	.	16f/	16b\	16dd\
16G\LL	16G\LL	16G\LL	16G\LL	8g\	8g\	8g\	16g/)	16cc\)	16ee\)
16F\JJ	16F\JJ	16F\JJ	16F\JJ	.	.	.	16a/JJ	16dd\JJ	16ff\JJ
8G\L	8G\L	8G\L	8G\L	8e\	8e\	8e\	16g/LL	16cc\LL	16ee\LL
.	.	.	.	.	.	.	16cc/	16ee\	16gg\
16c\LL	16c\LL	16c\LL	16c\LL	8c\J	8c\J	8c\J	16g/	16dd\	16ff\
16B\JJ	16B\JJ	16B\JJ	16B\JJ	.	.	.	16dd/JJ	16ff\JJ	16aa\JJ
8c\L	8c\L	8c\L	8c\L	8e\L	8e\L	8e\L	16g/LL	(16ee\LL	(16gg\LL
.	.	.	.	.	.	.	16cc/	16dd\	16ff\
16E\LL	16E\LL	16E\LL	16E\LL	8g\	8g\	8g\	16g/	16ee\)	16gg\)
16D\JJ	16D\JJ	16D\JJ	16D\JJ	.	.	.	16b/JJ	16ff\JJ	16aa\JJ
8E\L	8E\L	8E\L	8E\L	8e\	8e\	8e\	16g/LL	16ee\LL	16gg\LL
.	.	.	.	.	.	.	16cc/	16ff\	16aa\
16c\LL	16c\LL	16c\LL	16c\LL	8c\J	8c\J	8c\J	16g/	16ee\	16gg\
16B\JJ	16B\JJ	16B\JJ	16B\JJ	.	.	.	16b/JJ	16dd\JJ	16ff\JJ
=33	=33	=33	=33	=33	=33	=33	=33	=33	=33
8c\L	8c\L	8c\L	8c\L	8g\L	8g\L	8g\L	16g/LL	16cc\LL	16ee\LL
.	.	.	.	.	.	.	16a/	16dd\	16ff\
16C\LL	16C\LL	16C\LL	16C\LL	16g\LL	16g\LL	16g\LL	16g/	16cc\	16ee\
16D\JJ	16D\JJ	16D\JJ	16D\JJ	16g\JJ	16g\JJ	16g\JJ	16f/JJ	16b\JJ	16dd\JJ
8E\L	8E\L	8E\L	8E\L	8g\	8g\	8g\	8g/L	8cc\L	16cc\LL
.	.	.	.	.	.	.	.	.	16ee\
8F#\J	8F#\J	8F#\J	8F#\J	8r	8r	8r	8d/J	8a\J	16dd\
.	.	.	.	.	.	.	.	.	16cc\JJ
8G/L	8G/L	8G/L	8G/L	(16B/LL	(16d\LL	(16g\LL	8d/L	8g/L	8b/L
.	.	.	.	16A/	16c\	16f#\	.	.	.
8GG/J	8GG/J	8GG/J	8GG/J	16B/)	16d\)	16g\)	8B/J	8d/J	8g/J
.	.	.	.	16c/JJ	16e\JJ	16a\JJ	.	.	.
8r	8r	8r	8r	16B\LL	16d\LL	16g\LL	8r	8r	8r
.	.	.	.	16d\	16g\	16b\	.	.	.
16G\LL	16G\LL	16G\LL	16G\LL	16c\	16f#\	16a\	8G/	8G/	8G/
16F#\JJ	16F#\JJ	16F#\JJ	16F#\JJ	16e\JJ	16a\JJ	16cc\JJ	.	.	.
=34	=34	=34	=34	=34	=34	=34	=34	=34	=34
8G\L	8G\L	8G\L	8G\L	(16d\LL	(16g\LL	(16b\LL	8B/L	8B/L	8B/L
.	.	.	.	16c\	16f#\	16a\	.	.	.
16D\LL	16D\LL	16D\LL	16D\LL	16d\)	16g\)	16b\)	8d/	8d/	8d/
16C\JJ	16C\JJ	16C\JJ	16C\JJ	16e\JJ	16a\JJ	16cc\JJ	.	.	.
8D\L	8D\L	8D\L	8D\L	16d\LL	16g\LL	16b\LL	8B/	8B/	8B/
.	.	.	.	16g\	16b\	16dd\	.	.	.
16G\LL	16G\LL	16G\LL	16G\LL	16d\	16a\	16cc\	8G/J	8G/J	8G/J
16F#\JJ	16F#\JJ	16F#\JJ	16F#\JJ	16a\JJ	16cc\JJ	16ee\JJ	.	.	.
8G\L	8G\L	8G\L	8G\L	16d\LL	(16b\LL	(16dd\LL	8B/L	8B/L	8B/L
.	.	.	.	16g\	16a\	16cc\	.	.	.
16BB\LL	16BB\LL	16BB\LL	16BB\LL	16d\	16b\)	16dd\)	8d/	8d/	8d/
16AA\JJ	16AA\JJ	16AA\JJ	16AA\JJ	16f#\JJ	16cc\JJ	16ee\JJ	.	.	.
8BB\L	8BB\L	8BB\L	8BB\L	16d\LL	16b\LL	16dd\LL	8B/	8B/	8B/
.	.	.	.	16g\	16cc\	16ee\	.	.	.
16G\LL	16G\LL	16G\LL	16G\LL	16d\	16b\	16dd\	8G/J	8G/J	8G/J
16F#\JJ	16F#\JJ	16F#\JJ	16F#\JJ	16f#\JJ	16a\JJ	16cc\JJ	.	.	.
=35	=35	=35	=35	=35	=35	=35	=35	=35	=35
8G/L	8G/L	8G/L	8G/L	(16d\LL	(16g\LL	(16b\LL	8d/L	8d/L	8d/L
.	.	.	.	16e\	16a\	16cc\	.	.	.
16GG/LL	16GG/LL	16GG/LL	16GG/LL	16d\)	16g\)	16b\)	16d/LL	16d/LL	16d/LL
16AA/JJ	16AA/JJ	16AA/JJ	16AA/JJ	16c\JJ	16f#\JJ	16a\JJ	16d/JJ	16d/JJ	16d/JJ
8BB/L	8BB/L	8BB/L	8BB/L	8d/L	8g\L	16g\LL	8d/	8d/	8d/
.	.	.	.	.	.	16b\	.	.	.
8C#/J	8C#/J	8C#/J	8C#/J	8A/J	8e\J	16a\	8r	8r	8r
.	.	.	.	.	.	16g\JJ	.	.	.
(8D\L	(16D\LL	(16D\LL	(16D\LL	4A/	4d\	4f#\	8r	8r	8r
.	16C#\	16C#\	16C#\	.	.	.	.	.	.
8D\	16D\)	16D\)	16D\)	.	.	.	16f#/LL	16a/LL	16dd\LL
.	16E\JJ	16E\JJ	16E\JJ	.	.	.	16e/JJ	16g/JJ	16cc#\JJ
8D\	16D\LL	16D\LL	16D\LL	8r	8r	8r	8f#/J	8a/J	8dd\J
.	16F#\	16F#\	16F#\	.	.	.	.	.	.
8D\J)	16D\	16D\	16D\	8G/	8c#\	8e\	8r	8r	8r
.	16G\JJ	16G\JJ	16G\JJ	.	.	.	.	.	.
=36	=36	=36	=36	=36	=36	=36	=36	=36	=36
(8D\L	(16D\LL	(16D\LL	(16D\LL	8A/	8d\	8f#\	8r	8r	8r
.	16C#\	16C#\	16C#\	.	.	.	.	.	.
8D\	16D\)	16D\)	16D\)	8r	8r	8r	16f#/LL	16a/LL	16dd\LL
.	16E\JJ	16E\JJ	16E\JJ	.	.	.	16e/JJ	16g/JJ	16cc#\JJ
8D\	16D\LL	16D\LL	16D\LL	8r	8r	8r	8f#/J	8a/J	8dd\J
.	16A\	16A\	16A\	.	.	.	.	.	.
8D\J)	16D\	16D\	16D\	8B/	8e\	8g\	8r	8r	8r
.	16B\JJ	16B\JJ	16B\JJ	.	.	.	.	.	.
(8D\L	(16D\LL	(16D\LL	(16D\LL	8c\	8f#\	8a\	8r	8r	8r
.	16C#\	16C#\	16C#\	.	.	.	.	.	.
8D\	16D\)	16D\)	16D\)	8r	8r	8r	16f#/LL	16a/LL	16cc\LL
.	16E\JJ	16E\JJ	16E\JJ	.	.	.	16g/JJ	16g/JJ	16b\JJ
8D\)	16D\LL	16D\LL	16D\LL	8r	8r	8r	8f#/L	8a/L	8cc\L
.	16c\	16c\	16c\	.	.	.	.	.	.
8d\J	16D\	16D\	16D\	8d\	8A/	8f#\	8d/J	16g/LL	16b\LL
.	16d\JJ	16d\JJ	16d\JJ	.	.	.	.	16f#/JJ	16a\JJ
=37	=37	=37	=37	=37	=37	=37	=37	=37	=37
8B\L	8B\L	8B\L	8B\L	8G/L	8B/L	8d\L	8d/L	8g/L	8dd\L
16A\LL	16A\LL	16A\LL	16A\LL	8G/	8B/J	8d\	8d/	8g/J	16cc\LL
16G\JJ	16G\JJ	16G\JJ	16G\JJ	.	.	.	.	.	16b\JJ
8A\L	8A\L	8A\L	8A\L	8C/	8A/L	8a\	8c/	8f#/L	8cc\L
16G\LL	16G\LL	16G\LL	16G\LL	8A/J	16B/LL	8d\J	8d/J	16g/LL	16b\LL
16F#\JJ	16F#\JJ	16F#\JJ	16F#\JJ	.	16c/JJ	.	.	16a/JJ	16a\JJ
(8G\L	8G\L	8G\L	8G\L	8D/L	8B\L	8g\L	8d/	8g/	8b/L
8G\	16D\LL	16G\LL	16B\LL	8g/	8b\	8dd\	8r	8r	8g/J
.	16C\JJ	16F#\JJ	16A\JJ	.	.	.	.	.	.
8G\	8D\L	8G\L	8B\L	8d/	8g\	8b\	8r	8r	8r
8G\J)	16G\LL	16B\LL	16d\LL	8B/J	8d\J	8g\J	8d/	8d/	8d/
.	16F#\JJ	16A\JJ	16c\JJ	.	.	.	.	.	.
=38	=38	=38	=38	=38	=38	=38	=38	=38	=38
(8G\L	8G\	8B\	8d\	8r	8r	8r	8B/L	8B/L	8B/L
8G\	8r	8r	8r	16B/LL	16d\LL	16g\LL	8G/J	8G/J	8G/J
.	.	.	.	16A/JJ	16c\JJ	16f#\JJ	.	.	.
8G\	4r	4r	4r	8B\L	8d\L	8g\L	4r	4r	4r
8G\J)	.	.	.	16d\LL	16g\LL	16b\LL	.	.	.
.	.	.	.	16c\JJ	16f#\JJ	16a\JJ	.	.	.
(8G\L	4r	4r	4r	8d\	8g\	8b\	8r	8r	8r
8G\	.	.	.	8r	8r	8r	16g/LL	16b/LL	16dd\LL
.	.	.	.	.	.	.	16f#/JJ	16a/JJ	16cc\JJ
8G\	8r	8r	8r	4r	4r	4r	8g/L	8b\L	8dd\L
8G\J)	8G\	8G\	8G\	.	.	.	16b/LL	16dd\LL	16gg\LL
.	.	.	.	.	.	.	16a/JJ	16cc\JJ	16ff#\JJ
=39	=39	=39	=39	=39	=39	=39	=39	=39	=39
8G/L	8G/L	8G/L	8G/L	4r	4r	4r	8b/L	8dd\L	8gg\L
8GG/	8GG/	8GG/	8GG/	.	.	.	16g/LL	16b\LL	16dd\LL
.	.	.	.	.	.	.	16f#/JJ	16a\JJ	16cc\JJ
8GG/	8GG/	8GG/	8GG/	8r	8r	8r	8g/	8b\	8dd\
8G/J	8G/J	8G/J	8G/J	16B/LL	16d\LL	16g\LL	8r	8r	8r
.	.	.	.	16A/JJ	16c\JJ	16f#\JJ	.	.	.
8G/L	8G/L	8G/L	8G/L	8B/L	8d/L	8g\L	4r	4r	4r
8GG/J	8GG/J	8GG/J	8GG/J	16D/LL	16G/LL	16B\LL	.	.	.
.	.	.	.	16C/JJ	16F#/JJ	16A\JJ	.	.	.
8GG/L	8GG/L	8GG/L	8GG/L	8D\L	8G\L	8B\L	8r	8r	8r
16G/LL	16G/LL	16G/LL	16G/LL	16g\LL	16g\LL	16g\LL	16gg\LL	16gg\LL	16gg\LL
16F#/JJ	16F#/JJ	16F#/JJ	16F#/JJ	16f#\JJ	16f#\JJ	16f#\JJ	16ff#\JJ	16ff#\JJ	16ff#\JJ
=40	=40	=40	=40	=40	=40	=40	=40	=40	=40
8G/L	8G/L	8G/L	8G/L	8g\L	8g\L	8g\L	8gg\L	8gg\L	8gg\L
16GG/LL	16GG/LL	16GG/LL	16GG/LL	16G\LL	16G\LL	16G\LL	16g\LL	16g\LL	16g\LL
16AA/JJ	16AA/JJ	16AA/JJ	16AA/JJ	16A\JJ	16A\JJ	16A\JJ	16a\JJ	16a\JJ	16a\JJ
8BB/L	8BB/L	8BB/L	8BB/L	8B\L	8B\L	8B\L	8b\L	8b\L	8b\L
8C#/J	8C#/J	8C#/J	8C#/J	8c#\J	8c#\J	8c#\J	8cc#\J	8cc#\J	8cc#\J
8D/L	8D/L	8D/L	8D/L	8d\	8d\	8d\	(16f#/LL	(16a/LL	(16dd\LL
.	.	.	.	.	.	.	16e/	16g/	16cc#\
8DD/J	8DD/J	8DD/J	8DD/J	16f#\LL	16a\LL	16dd\LL	16f#/)	16a/)	16dd\)
.	.	.	.	16e\JJ	16g\JJ	16cc#\JJ	16g/JJ	16b/JJ	16ee\JJ
8DD/	8DD/	8DD/	8DD/	8f#\J	8a\J	8dd\J	16f#/LL	16a\LL	16dd\LL
.	.	.	.	.	.	.	16a/	16cc\	16ff#\
16d\LL	16d\LL	16d\LL	16d\LL	8r	8r	8r	16g/	16b\	16dd\
16c#\JJ	16c#\JJ	16c#\JJ	16c#\JJ	.	.	.	16b/JJ	16dd\JJ	16gg\JJ
=41	=41	=41	=41	=41	=41	=41	=41	=41	=41
8d\L	8d\L	8d\L	8d\L	8r	8r	8r	(16f#/LL	(16a/LL	(16dd\LL
.	.	.	.	.	.	.	16e/	16g/	16cc#\
8D\J	8D\J	8D\J	8D\J	16F#/LL	16A/LL	16d\LL	16f#/)	16a/)	16dd\)
.	.	.	.	16E/JJ	16G/JJ	16c#\JJ	16g/JJ	16b/JJ	16ee\JJ
8DD/L	8DD/L	8DD/L	8DD/L	8F#/J	8A/J	8d\J	16f#/LL	16a\LL	16dd\LL
.	.	.	.	.	.	.	16d/	16ff#\	16aa\
16D/LL	16D/LL	16D/LL	16D/LL	8r	8r	8r	16g/	16b\	16dd\
16C#/JJ	16C#/JJ	16C#/JJ	16C#/JJ	.	.	.	16e/JJ	16gg\JJ	16bb\JJ
8D/L	8D/L	8D/L	8D/L	8r	8r	8r	(16f#/LL	(16a/LL	(16dd\LL
.	.	.	.	.	.	.	16e/	16g/	16cc#\
8DD/	8DD/	8DD/	8DD/	8d/L	8f#\L	8a\L	16f#/)	16a/)	16dd\)
.	.	.	.	.	.	.	16g/JJ	16b/JJ	16ee\JJ
8DD/	8DD/	8DD/	8DD/	8A/	8d\	8f#\	16f#\LL	16a\LL	16dd\LL
.	.	.	.	.	.	.	16a\	16gg\	16ccc\
8F#/J	8F#/J	8F#/J	8F#/J	8F#/J	8A\J	8d\J	16dd\	16ff#\	16dd\
.	.	.	.	.	.	.	16ff#\JJ	16aa\JJ	16ddd\JJ
=42	=42	=42	=42	=42	=42	=42	=42	=42	=42
8G\L	8G\L	8G\L	8G\L	8D/L	8d\L	8g\L	8bb\L	8bb\L	8bb\L
8E\	8E\	8E\	8E\	8G/	8e\	16a\LL	16aa\LL	16aa\LL	16aa\LL
.	.	.	.	.	.	16b\JJ	16gg\JJ	16gg\JJ	16gg\JJ
8C\	8C\	8C\	8C\	8c/	8e\	8cc\L	8aa\L	8aa\L	8aa\L
8D\J	8D\J	8D\J	8D\J	8c/J	8d\J	16b\LL	16gg\LL	16gg\LL	16gg\LL
.	.	.	.	.	.	16a\JJ	16ff#\JJ	16ff#\JJ	16ff#\JJ
8E/L	8E/L	8E/L	8E/L	8B/L	8g\L	8g\L	8gg\L	8gg\L	8gg\L
16D/LL	16D/LL	16D/LL	16D/LL	8G/	8G\	8G\	16ff#\LL	16ff#\LL	16ff#\LL
16C/JJ	16C/JJ	16C/JJ	16C/JJ	.	.	.	16ee\JJ	16ee\JJ	16ee\JJ
8BB/L	8BB/L	8BB/L	8BB/L	8G/	8G\	8G\	16dd\LL	16dd\LL	16dd\LL
.	.	.	.	.	.	.	16gg\	16gg\	16gg\
16AA/LL	16AA/LL	16AA/LL	16AA/LL	8g/J	8g\J	8g\J	16dd\	16dd\	16dd\
16GG/JJ	16GG/JJ	16GG/JJ	16GG/JJ	.	.	.	16gg\JJ	16gg\JJ	16gg\JJ
=43	=43	=43	=43	=43	=43	=43	=43	=43	=43
8C/L	8C/L	8C/L	8C/L	8g\L	8g\L	8g\L	8ee\L	8ee\L	8ee\L
16BB/LL	16BB/LL	16BB/LL	16BB/LL	8G\	8G\	8G\	16dd\LL	16dd\LL	16dd\LL
16AA/JJ	16AA/JJ	16AA/JJ	16AA/JJ	.	.	.	16cc\JJ	16cc\JJ	16cc\JJ
8GG/L	8GG/L	8GG/L	8GG/L	8G\	8G\	8G\	16b\LL	16b\LL	16b\LL
.	.	.	.	.	.	.	16gg\	16gg\	16gg\
16G/LL	16G/LL	16G/LL	16G/LL	8g\J	8g\J	8g\J	16b\	16b\	16b\
16F#/JJ	16F#/JJ	16F#/JJ	16F#/JJ	.	.	.	16gg\JJ	16gg\JJ	16gg\JJ
8E/L	8E/L	8E/L	8E/L	8g\L	8g\L	8g\L	8cc\L	8cc\L	8cc\L
16D/LL	16D/LL	16D/LL	16D/LL	8G\	8G\	8G\	16b\LL	16b\LL	16b\LL
16C/JJ	16C/JJ	16C/JJ	16C/JJ	.	.	.	16a\JJ	16a\JJ	16a\JJ
8BB/L	8BB/L	8BB/L	8BB/L	8G\	8G\	8G\	8g/L	8g/L	16g\LL
.	.	.	.	.	.	.	.	.	16gg\
8C#/J	8C#/J	8C#/J	8C#/J	8e\J	8e\J	8e\J	8a/J	8a/J	16a\
.	.	.	.	.	.	.	.	.	16gg\JJ
=44	=44	=44	=44	=44	=44	=44	=44	=44	=44
8D/L	8D/L	8D/L	8D/L	8d\L	8d\L	8d\L	8b\L	8b\L	16b\LL
.	.	.	.	.	.	.	.	.	16gg\
8DD/J	8DD/J	8DD/J	8DD/J	8e\J	8e\J	8e\J	8cc#\J	8cc#\J	16cc#\
.	.	.	.	.	.	.	.	.	16gg\JJ
8DD/L	8DD/L	8DD/L	8DD/L	8f#\L	8f#\L	8f#\L	8dd/L	8dd/L	16dd\LL
.	.	.	.	.	.	.	.	.	16ff#\
16D/LL	16D/LL	16D/LL	16D/LL	16d\LL	16d\LL	16d\LL	16d/LL	16d/LL	16dd\
16E/JJ	16E/JJ	16E/JJ	16E/JJ	16e\JJ	16e\JJ	16e\JJ	16e/JJ	16e/JJ	16gg\JJ
8F#\L	8F#\L	8F#\L	8F#\L	8f#\L	8f#\L	8f#\L	8f#/L	8f#/L	16dd\LL
.	.	.	.	.	.	.	.	.	16aa\
8G\	8G\	8G\	8G\	8g\	8g\	8g\	8g/	8g/	16dd\
.	.	.	.	.	.	.	.	.	16bb\JJ
8A\	8A\	8A\	8A\	8a\	8a\	8a\	8a/	8a/	16dd\LL
.	.	.	.	.	.	.	.	.	16ccc\
8D\J	8D\J	8D\J	8D\J	8A\J	8f#\J	8a\J	8dd/J	8ff#/J	16dd\
.	.	.	.	.	.	.	.	.	16ddd\JJ
=45	=45	=45	=45	=45	=45	=45	=45	=45	=45
8G/L	8G/L	8G/L	8G/L	8B\L	8d\L	8g\L	8dd\L	8gg\L	8bb\L
8C/	8C/	8C/	8C/	8c\	8e\	8a\	16cc\LL	8ee\	16aa\LL
.	.	.	.	.	.	.	16b\JJ	.	16gg\JJ
8D/	8D/	8D/	8D/	8c\	8f#\	8a\	8a\L	8dd\	8dd\L
8DD/J	8DD/J	8DD/J	8DD/J	8c\J	8d\J	8a\J	8ff#\J	8ff#\J	8ff#\J
4EE/	4EE/	4EE/	4EE/	16B\LL	8g\L	8g\L	8gg\L	8gg\L	8gg\L
.	.	.	.	16g\	.	.	.	.	.
.	.	.	.	16f#\	16f#\LL	16f#\LL	16ff#\LL	16ff#\LL	16ff#\LL
.	.	.	.	16e\JJ	16e\JJ	16e\JJ	16ee\JJ	16ee\JJ	16ee\JJ
8r	8r	8r	8r	16d/LL	16d/LL	16d/LL	16dd\LL	16dd\LL	16dd\LL
.	.	.	.	16c/	16c/	16c/	16cc\	16cc\	16cc\
8FF#/	8FF#/	8FF#/	8FF#/	16B/	16B/	16B/	16b\	16b\	16b\
.	.	.	.	16A/JJ	16A/JJ	16A/JJ	16a\JJ	16a\JJ	16a\JJ
=46	=46	=46	=46	=46	=46	=46	=46	=46	=46
8GG/L	8GG/L	8GG/L	8GG/L	8B/L	8B/L	8B/L	8b/L	8b/L	8b/L
8CC/	8CC/	8CC/	8CC/	16A/LL	16A/LL	16A/LL	16a/LL	16a/LL	16a/LL
.	.	.	.	16G/JJ	16G/JJ	16G/JJ	16g/JJ	16g/JJ	16g/JJ
8DD/	8DD/	8DD/	8DD/	8d/L	8d/L	8d/L	8dd/L	8dd/L	8dd/L
8D/J	8D/J	8D/J	8D/J	8D/J	8D/J	8D/J	8d/J	8d/J	8d/J
8G\L	8G\L	8G\L	8G\L	8g\L	8g\L	8g\L	4g/	4g/	4g/
16F#\LL	16F#\LL	16F#\LL	16F#\LL	16f#\LL	16f#\LL	16f#\LL	.	.	.
16E\JJ	16E\JJ	16E\JJ	16E\JJ	16e\JJ	16e\JJ	16e\JJ	.	.	.
16D/LL	16D/LL	16D/LL	16D/LL	16d/LL	16d/LL	16d/LL	4r	4r	16r
16C/	16C/	16C/	16C/	16c/	16c/	16c/	.	.	16g/LL
16BB/	16BB/	16BB/	16BB/	16B/	16B/	16B/	.	.	16d/
16AA/JJ	16AA/JJ	16AA/JJ	16AA/JJ	16A/JJ	16A/JJ	16A/JJ	.	.	16e/JJ
=47	=47	=47	=47	=47	=47	=47	=47	=47	=47
4GG/	4GG/	4GG/	4GG/	(8G/L	(8G/L	(8G/L	(16b/LL	(16dd\LL	(16f/LL
.	.	.	.	.	.	.	16a/JJ	16cc\JJ	16e/
.	.	.	.	8G/	8G/	8G/	8b/J)	8dd\J)	16f/)
.	.	.	.	.	.	.	.	.	16dd/JJ
4r	4r	4r	4r	8G/	8G/	8G/	4r	4r	16b/LL
.	.	.	.	.	.	.	.	.	16f/
.	.	.	.	8G/J)	8G/J)	8G/J)	.	.	16d/
.	.	.	.	.	.	.	.	.	16G/JJ
4GG/	4GG/	4GG/	4GG/	(8G/L	(8G/L	(8G/L	(16b/LL	(16dd\LL	(16f/LL
.	.	.	.	.	.	.	16a/JJ	16cc\JJ	16e/
.	.	.	.	8G/	8G/	8G/	8b/J)	8dd\J)	16f/)
.	.	.	.	.	.	.	.	.	16dd/JJ
4r	4r	4r	4r	8G/	8G/	8G/	4r	4r	16b/LL
.	.	.	.	.	.	.	.	.	16f/
.	.	.	.	8G/J)	8G/J)	8G/J)	.	.	16d/
.	.	.	.	.	.	.	.	.	16G/JJ
=48	=48	=48	=48	=48	=48	=48	=48	=48	=48
4GG/	4GG/	4GG/	4GG/	(8G/L	(8G/L	(8G/L	(16g/LL	(16cc\LL	(16e/LL
.	.	.	.	.	.	.	16f#/JJ	16b\JJ	16d/
.	.	.	.	8G/	8G/	8G/	8g/J)	8cc\J)	16e/)
.	.	.	.	.	.	.	.	.	16cc/JJ
4r	4r	4r	4r	8G/	8G/	8G/	4r	4r	16g/LL
.	.	.	.	.	.	.	.	.	16e/
.	.	.	.	8G/J)	8G/J)	8G/J)	.	.	16c/
.	.	.	.	.	.	.	.	.	16G/JJ
4GG/	4GG/	4GG/	4GG/	(8G/L	(8G/L	(8G/L	(16g/LL	(16cc\LL	(16e/LL
.	.	.	.	.	.	.	16f#/JJ	16b\JJ	16d/
.	.	.	.	8G/	8G/	8G/	8g/J)	8cc\J)	16e/)
.	.	.	.	.	.	.	.	.	16cc/JJ
4r	4r	4r	4r	8G/	8G/	8G/	4r	4r	16g/LL
.	.	.	.	.	.	.	.	.	16e/
.	.	.	.	8G/J)	8G/J)	8G/J)	.	.	16c/
.	.	.	.	.	.	.	.	.	16G/JJ
=49	=49	=49	=49	=49	=49	=49	=49	=49	=49
4GG/	4GG/	4GG/	4GG/	(8G/L	(8G/L	(8G/L	(16c/LL	(16a/LL	(16f#/LL
.	.	.	.	.	.	.	16B/JJ	16g/JJ	16e/
.	.	.	.	8G/	8G/	8G/	8c/J)	8a/J)	16f#/)
.	.	.	.	.	.	.	.	.	16cc/JJ
4r	4r	4r	4r	8G/	8G/	8G/	4r	4r	16a/LL
.	.	.	.	.	.	.	.	.	16f#/
.	.	.	.	8G/J)	8G/J)	8G/J)	.	.	16c/
.	.	.	.	.	.	.	.	.	16A/JJ
4GG/	4GG/	4GG/	4GG/	(8G/L	(8G/L	(8G/L	(16c/LL	(16a/LL	(16f#/LL
.	.	.	.	.	.	.	16B/JJ	16g/JJ	16e/
.	.	.	.	8G/	8G/	8G/	8c/J)	8a/J)	16f#/)
.	.	.	.	.	.	.	.	.	16cc/JJ
4r	4r	4r	4r	8G/	8G/	8G/	4r	4r	16a/LL
.	.	.	.	.	.	.	.	.	16f#/
.	.	.	.	8G/J)	8G/J)	8G/J)	.	.	16c/
.	.	.	.	.	.	.	.	.	16A/JJ
=50	=50	=50	=50	=50	=50	=50	=50	=50	=50
8G\L	8G\L	8G\L	8G\L	(8G/L	(8G/L	(8G/L	16B/LL	16g/LL	16B/LL
.	.	.	.	.	.	.	16A/	16f#/	16d/
8F#\	8F#\	8F#\	8F#\	8G/	8G/	8G/	16B/	16g/	16e/
.	.	.	.	.	.	.	16c#/JJ	16a/JJ	16f#/JJ
8E\	8E\	8E\	8E\	8G/)	8G/)	8G/)	16d/LL	16b/LL	16g/LL
.	.	.	.	.	.	.	16c#/	16a/	16a/
8A\J	8A\J	8A\J	8A\J	8A/J	8A/J	8A/J	16d/	16g/	16b/
.	.	.	.	.	.	.	16e/JJ	16a/JJ	16cc#/JJ
8D/L	8D/L	8D/L	8D/L	16A\LL	16A\LL	16A\LL	4f#/	4f#/	8dd/L
.	.	.	.	16dd\	16dd\	16dd\	.	.	.
16C#/LL	16C#/LL	16C#/LL	16C#/LL	16cc#\	16cc#\	16cc#\	.	.	8d/J
16BB/JJ	16BB/JJ	16BB/JJ	16BB/JJ	16b\JJ	16b\JJ	16b\JJ	.	.	.
16AA/LL	16AA/LL	16AA/LL	16AA/LL	16a\LL	16a\LL	16a\LL	4r	16r	4r
16GG/	16GG/	16GG/	16GG/	16g\	16g\	16g\	.	16dd\LL	.
16FF#/	16FF#/	16FF#/	16FF#/	16f#\	16f#\	16f#\	.	16a\	.
16EE/JJ	16EE/JJ	16EE/JJ	16EE/JJ	16e\JJ	16e\JJ	16e\JJ	.	16b\JJ	.
=51	=51	=51	=51	=51	=51	=51	=51	=51	=51
4DD#/	4DD#/	4DD#/	4DD#/	(8d#\L	(8d#\L	(8d#\L	(16a/LL	(16cc\LL	(16ff#\LL
.	.	.	.	.	.	.	16g/JJ	16b\	16ee\JJ
.	.	.	.	8d#\	8d#\	8d#\	8a/J)	16cc\)	8ff#\J)
.	.	.	.	.	.	.	.	16aa\JJ	.
4r	4r	4r	4r	8d#\	8d#\	8d#\	4r	16ff#\LL	4r
.	.	.	.	.	.	.	.	16dd#\	.
.	.	.	.	8d#\J)	8d#\J)	8d#\J)	.	16cc\	.
.	.	.	.	.	.	.	.	16a\JJ	.
4FF#/	4FF#/	4FF#/	4FF#/	(8f#\L	(8f#\L	(8f#\L	(16f#/LL	(16cc\LL	(16aa\LL
.	.	.	.	.	.	.	16e/JJ	16b\	16gg\JJ
.	.	.	.	8f#\	8f#\	8f#\	8f#/J)	16cc\)	8aa\J)
.	.	.	.	.	.	.	.	16aa\JJ	.
4r	4r	4r	4r	8f#\	8f#\	8f#\	4r	16ff#\LL	4r
.	.	.	.	.	.	.	.	16dd#\	.
.	.	.	.	8f#\J)	8f#\J)	8f#\J)	.	16cc\	.
.	.	.	.	.	.	.	.	16a\JJ	.
=52	=52	=52	=52	=52	=52	=52	=52	=52	=52
4AA/	4AA/	4AA/	4AA/	(8a\L	(8a\L	(8a\L	(16f#/LL	(16b\LL	(16dd#\LL
.	.	.	.	.	.	.	16e/JJ	16a\	16cc#\JJ
.	.	.	.	8a\	8a\	8a\	8f#/J)	16b\)	8dd#\J)
.	.	.	.	.	.	.	.	16aa\JJ	.
4r	4r	4r	4r	8a\	8a\	8a\	4r	16ff#\LL	4r
.	.	.	.	.	.	.	.	16dd#\	.
.	.	.	.	8a\J)	8a\J)	8a\J)	.	16b\	.
.	.	.	.	.	.	.	.	16f#\JJ	.
4A\	4A\	4A\	4A\	(8a\L	(8a\L	(8a\L	(16f#/LL	(16b\LL	(16dd#\LL
.	.	.	.	.	.	.	16e/JJ	16a\	16cc#\JJ
.	.	.	.	8a\	8a\	8a\	8f#/J)	16b\)	8dd#\J)
.	.	.	.	.	.	.	.	16aa\JJ	.
4r	4r	4r	4r	8a\	8a\	8a\	4r	16ff#\LL	4r
.	.	.	.	.	.	.	.	16dd#\	.
.	.	.	.	8a\J)	8a\J)	8a\J)	.	16b\	.
.	.	.	.	.	.	.	.	16f#\JJ	.
=53	=53	=53	=53	=53	=53	=53	=53	=53	=53
4D#\	4D#\	4D#\	4D#\	(8d#\L	(8d#\L	(8d#\L	(16cc\LL	(16a\LL	(16ff#\LL
.	.	.	.	.	.	.	16b\JJ	16g\	16ee\JJ
.	.	.	.	8d#\	8d#\	8d#\	8cc\J)	16a\)	8ff#\J)
.	.	.	.	.	.	.	.	16ff#\JJ	.
4r	4r	4r	4r	8d#\	8d#\	8d#\	4r	16dd#/LL	4r
.	.	.	.	.	.	.	.	16b/	.
.	.	.	.	8d#\J)	8d#\J)	8d#\J)	.	16a/	.
.	.	.	.	.	.	.	.	16f#/JJ	.
4BB/	4BB/	4BB/	4BB/	(8B/L	(8B/L	(8B/L	(16dd#\LL	(16a\LL	(16ff#\LL
.	.	.	.	.	.	.	16cc#\JJ	16g\	16ee\JJ
.	.	.	.	8B/	8B/	8B/	8dd#\J)	16a\)	8ff#\J)
.	.	.	.	.	.	.	.	16ff#\JJ	.
4r	4r	4r	4r	8B/J)	8B/J)	8B/J)	8r	16dd#/LL	8r
.	.	.	.	.	.	.	.	16b/	.
.	.	.	.	8B/	8B/	8B/	16b/LL	16a/	16ee\LL
.	.	.	.	.	.	.	16a/JJ	16f#/JJ	16dd#\JJ
=54	=54	=54	=54	=54	=54	=54	=54	=54	=54
(8E\L	4E\	4E\	4E\	4B/	4B/	4B/	8b/L	8g/L	8ee\L
8E\	.	.	.	.	.	.	16e/LL	16g/LL	16b\LL
.	.	.	.	.	.	.	16d#/JJ	16f#/JJ	16a\JJ
8E\	4r	4r	4r	8r	8r	8r	8e/	8g/	8b\
8E\J)	.	.	.	16B/LL	16e\LL	16g\LL	8r	8r	8r
.	.	.	.	16A/JJ	16d#\JJ	16f#\JJ	.	.	.
(8E\L	4r	4r	4r	8B/L	8e/L	8g\L	2r	2r	2r
8E\	.	.	.	16G/LL	16B/LL	16e\LL	.	.	.
.	.	.	.	16F#/JJ	16A/JJ	16d#\JJ	.	.	.
8E\J)	8r	8r	8r	8G/	8B/	8e\	.	.	.
16E\LL	16B\LL	16E\LL	16G\LL	8r	8r	8r	.	.	.
16D#\JJ	16A\JJ	16D#\JJ	16F#\JJ	.	.	.	.	.	.
=55	=55	=55	=55	=55	=55	=55	=55	=55	=55
8E/L	8G/L	8E/L	8E/L	8r	8r	8r	8r	8r	8r
16EE/LL	16EE/LL	16EE/LL	16EE/LL	16E/LL	16E/LL	16E/LL	16e/LL	16e/LL	16e/LL
16FF#/JJ	16FF#/JJ	16FF#/JJ	16FF#/JJ	16F#/JJ	16F#/JJ	16F#/JJ	16f#/JJ	16f#/JJ	16f#/JJ
8GG/L	8GG/L	8GG/L	8GG/L	8G/L	8G/L	8G/L	8g/L	8g/L	8g/L
8AA/J	8AA/J	8AA/J	8AA/J	8A/J	8A/J	8A/J	8a/J	8a/J	8a/J
(8BB/L	(16BB/LL	(16BB/LL	(16BB/LL	4B/	4B/	4B/	8b/L	8b/L	8b\L
.	16AA#/	16AA#/	16AA#/	.	.	.	.	.	.
8BB/	16BB/)	16BB/)	16BB/)	.	.	.	16f#/LL	16a/LL	16dd#\LL
.	16C#/JJ	16C#/JJ	16C#/JJ	.	.	.	16e/JJ	16g/JJ	16cc#\JJ
8BB/	16BB/LL	16BB/LL	16BB/LL	4r	4r	4r	8f#/L	8a\L	8dd#\L
.	16D#/	16D#/	16D#/	.	.	.	.	.	.
8BB/J)	16BB/	16BB/	16BB/	.	.	.	16a/LL	16dd#\LL	16ff#\LL
.	16E/JJ	16E/JJ	16E/JJ	.	.	.	16g/JJ	16cc#\JJ	16ee\JJ
=56	=56	=56	=56	=56	=56	=56	=56	=56	=56
(8BB/L	(16BB/LL	(16BB/LL	(16BB/LL	8r	8r	8r	8a/	8dd#\	8ff#\
.	16AA#/	16AA#/	16AA#/	.	.	.	.	.	.
8BB/	16BB/)	16BB/)	16BB/)	16d#\LL	16f#\LL	16a\LL	8r	8r	8r
.	16C#/JJ	16C#/JJ	16C#/JJ	16e\JJ	16e\JJ	16g\JJ	.	.	.
8BB/	16BB\LL	16BB\LL	16BB\LL	8d#\L	8f#\L	8a\L	4r	4r	4r
.	16F#\	16F#\	16F#\	.	.	.	.	.	.
8BB/J)	16BB\	16BB\	16BB\	16d#\LL	16a\LL	16cc\LL	.	.	.
.	16G\JJ	16G\JJ	16G\JJ	16e\JJ	16g\JJ	16b\JJ	.	.	.
(8BB\L	(16BB/LL	(16BB/LL	(16BB/LL	8d#\L	8a\L	8cc\L	8r	8r	8r
.	16AA#/	16AA#/	16AA#/	.	.	.	.	.	.
8BB\	16BB/)	16BB/)	16BB/)	16d#\LL	16d#\LL	16d#\LL	16d#/LL	16d#/LL	16d#/LL
.	16C#/JJ	16C#/JJ	16C#/JJ	16c#\JJ	16c#\JJ	16c#\JJ	16c#/JJ	16c#/JJ	16c#/JJ
8BB\)	16BB\LL	16BB\LL	16BB\LL	8d#\L	8d#\L	8d#\L	8d#\L	8d#\L	8d#\L
.	16A\	16A\	16A\	.	.	.	.	.	.
8B\J	16BB\	16BB\	16BB\	8b\J	8b\J	8b\J	8bb\J	8bb\J	8bb\J
.	16B\JJ	16B\JJ	16B\JJ	.	.	.	.	.	.
=57	=57	=57	=57	=57	=57	=57	=57	=57	=57
8G\L	8G\L	8G\L	8G\L	8g\L	8g\L	8g\L	8gg\L	8gg\L	8gg\L
16F#\LL	16F#\LL	16F#\LL	16F#\LL	16f#\LL	16f#\LL	16f#\LL	16ff#\LL	16ff#\LL	16ff#\LL
16E\JJ	16E\JJ	16E\JJ	16E\JJ	16e\JJ	16e\JJ	16e\JJ	16ee\JJ	16ee\JJ	16ee\JJ
8F#\L	8F#\L	8F#\L	8F#\L	8f#\L	8f#\L	8f#\L	8ff#\L	8ff#\L	8ff#\L
16E\LL	16E\LL	16E\LL	16E\LL	16e\LL	16e\LL	16e\LL	16ee\LL	16ee\LL	16ee\LL
16D#\JJ	16D#\JJ	16D#\JJ	16D#\JJ	16d#\JJ	16d#\JJ	16d#\JJ	16dd#\JJ	16dd#\JJ	16dd#\JJ
8.c\L	8.c\L	8.c\L	8.c\L	8.cc\L	8.cc\L	8.cc\L	8.ccc\L	8.ccc\L	8.ccc\L
16B\Jk	16B\Jk	16B\Jk	16B\Jk	16b\Jk	16b\Jk	16b\Jk	16bb\Jk	16bb\Jk	16bb\Jk
16A\LL	16A\LL	16A\LL	16A\LL	16a\LL	16a\LL	16a\LL	16aa\LL	16aa\LL	16aa\LL
16G\	16G\	16G\	16G\	16g\	16g\	16g\	16gg\	16gg\	16gg\
16F#\	16F#\	16F#\	16F#\	16f#\	16f#\	16f#\	16ff#\	16ff#\	16ff#\
16E\JJ	16E\JJ	16E\JJ	16E\JJ	16e\JJ	16e\JJ	16e\JJ	16ee\JJ	16ee\JJ	16ee\JJ
=58	=58	=58	=58	=58	=58	=58	=58	=58	=58
8D#/L	8D#/L	8D#/L	8D#/L	8f#\L	8f#\L	8f#\L	8bb\L	8bb\L	8bb\L
8E/	8E/	8E/	8E/	8b\J	8b\J	8b\J	16aa\LL	16aa\LL	16aa\LL
.	.	.	.	.	.	.	16gg\JJ	16gg\JJ	16gg\JJ
8AA/	8AA/	8AA/	8AA/	8a\L	8a\L	8a\L	8ff#\L	8ff#\L	8ff#\L
8BB/J	8BB/J	8BB/J	8BB/J	16g\LL	16g\LL	16g\LL	16ee\LL	16ee\LL	16ee\LL
.	.	.	.	16f#\JJ	16f#\JJ	16f#\JJ	16dd#\JJ	16dd#\JJ	16dd#\JJ
4EE/	4EE/	4EE/	4EE/	4g\	4g\	16g\LL	8ee\	8ee\	8ee\
.	.	.	.	.	.	16b\	.	.	.
.	.	.	.	.	.	16e\	16g/LL	16b/LL	16ee\LL
.	.	.	.	.	.	16f#\JJ	16f#/JJ	16a/JJ	16dd#\JJ
8r	8r	8r	8r	8r	8r	16g\LL	8e/J	8b/J	8ee\J
.	.	.	.	.	.	16a\	.	.	.
8BB/	8BB/	8BB/	8BB/	8d#\	8f#\	16b\	8r	8r	8r
.	.	.	.	.	.	16a\JJ	.	.	.
=59	=59	=59	=59	=59	=59	=59	=59	=59	=59
4E\	4E\	4E\	4E\	8B\L	16g\LL	8g\L	8r	8r	8r
.	.	.	.	.	16b\	.	.	.	.
.	.	.	.	8g\J	16e\	8ee\J	16g/LL	16b/LL	16ee\LL
.	.	.	.	.	16f#\JJ	.	16f#/JJ	16a/JJ	16dd#\JJ
8r	8r	8r	8r	8r	16g\LL	8r	8e/J	8b/J	8ee\J
.	.	.	.	.	16a\	.	.	.	.
8B\	8B\	8B\	8B\	8f#\	16b\	8dd#\	8r	8r	8r
.	.	.	.	.	16a\JJ	.	.	.	.
4e\	4e\	4e\	4e\	16g\LL	8g\L	8ee\L	8r	8r	8r
.	.	.	.	16b\	.	.	.	.	.
.	.	.	.	16e\	8ee\J	8b\	16g/LL	16b/LL	16ee\LL
.	.	.	.	16f#\JJ	.	.	16f#/JJ	16a/JJ	16dd#\JJ
8r	8r	8r	8r	16g\LL	8r	8e\	8e/J	8b/J	8ee\J
.	.	.	.	16a\	.	.	.	.	.
8B\	8B\	8B\	8B\	16b\	8dd#\	8f#\J	8r	8r	8r
.	.	.	.	16a\JJ	.	.	.	.	.
=60	=60	=60	=60	=60	=60	=60	=60	=60	=60
16E\LL	16E\LL	16E\LL	16E\LL	8g\L	8ee\L	8g\L	8r	8r	8r
16F#\	16F#\	16F#\	16F#\	.	.	.	.	.	.
16G\	16G\	16G\	16G\	8ee\	8b\	8e\	16g/LL	16b/LL	16ee\LL
16F#\JJ	16F#\JJ	16F#\JJ	16F#\JJ	.	.	.	16a/JJ	16a/JJ	16ff#\JJ
16E\LL	16E\LL	16E\LL	16E\LL	8g\	8e\	8B\	8b\L	8g/L	16gg\LL
16D\	16D\	16D\	16D\	.	.	.	.	.	16ff#\
16C#\	16C#\	16C#\	16C#\	8b\J	8g#\J	8e\J	8b\J	8g#/J	16ee\
16BB\JJ	16BB\JJ	16BB\JJ	16BB\JJ	.	.	.	.	.	16dd\JJ
4AA/	4AA/	4AA/	4AA/	8e\	8c#\	8a\	4cc#\	4a/	16cc#\LL
.	.	.	.	.	.	.	.	.	16ee\
.	.	.	.	16c#/LL	16e\LL	16a\LL	.	.	16a\
.	.	.	.	16B/JJ	16d\JJ	16g#\JJ	.	.	16b\JJ
8r	8r	8r	8r	8A/J	8e\J	8a\J	8r	8r	16cc#\LL
.	.	.	.	.	.	.	.	.	16dd\
8EE/	8EE/	8EE/	8EE/	8r	8r	8r	8g#/	8b\	16ee\
.	.	.	.	.	.	.	.	.	16dd\JJ
=61	=61	=61	=61	=61	=61	=61	=61	=61	=61
4AA/	4AA/	4AA/	4AA/	8r	8r	8r	4e/	16cc#\LL	8cc#\L
.	.	.	.	.	.	.	.	16ee\	.
.	.	.	.	16c#/LL	16e\LL	16a\LL	.	16a\	8aa\J
.	.	.	.	16B/JJ	16d\JJ	16g#\JJ	.	16b\JJ	.
8r	8r	8r	8r	8A/J	8e\J	8a\J	8r	16cc#\LL	8r
.	.	.	.	.	.	.	.	16dd\	.
8E\	8E\	8E\	8E\	8r	8r	8r	8b\	16ee\	8gg#\
.	.	.	.	.	.	.	.	16dd\JJ	.
4A\	4A\	4A\	4A\	8r	8r	8r	16cc#\LL	8cc#\L	8aa\L
.	.	.	.	.	.	.	16ee\	.	.
.	.	.	.	16c#/LL	16e\LL	16a\LL	16a\	8aa\J	8ee\
.	.	.	.	16B/JJ	16d\JJ	16g#\JJ	16b\JJ	.	.
8r	8r	8r	8r	8A/J	8e\J	8a\J	16cc#\LL	8r	8a\
.	.	.	.	.	.	.	16dd\	.	.
8E\	8E\	8E\	8E\	8r	8r	8r	16ee\	8gg#\	8b\J
.	.	.	.	.	.	.	16dd\JJ	.	.
=62	=62	=62	=62	=62	=62	=62	=62	=62	=62
16AA/LL	16AA/LL	16AA/LL	16AA/LL	8r	8r	8r	8cc#\L	8aa\L	16cc#\LL
16BB/	16BB/	16BB/	16BB/	.	.	.	.	.	16dd\
16C#/	16C#/	16C#/	16C#/	16c#\LL	16e\LL	16a\LL	8aa\	8ee\	16ee\
16BB/JJ	16BB/JJ	16BB/JJ	16BB/JJ	16d\JJ	16f#\JJ	16b\JJ	.	.	16dd\JJ
16AA/LL	16AA/LL	16AA/LL	16AA/LL	8e\L	8g\L	8cc#\L	8ee\	8a\	16cc#\LL
16GG/	16GG/	16GG/	16GG/	.	.	.	.	.	16ee\
16FF#/	16FF#/	16FF#/	16FF#/	8A\J	8e\J	8ee\J	8cc#\J	8cc#\J	16aa\
16EE/JJ	16EE/JJ	16EE/JJ	16EE/JJ	.	.	.	.	.	16gg\JJ
4DD/	4DD/	4DD/	16DD/LL	4d\	4f#\	4a\	8a/	8dd\	8ff#\
.	.	.	16A/	.	.	.	.	.	.
.	.	.	16D/	.	.	.	16ff#\LL	16aa\LL	16ddd\LL
.	.	.	16E/JJ	.	.	.	16ee\JJ	16gg\JJ	16ccc#\JJ
8r	8r	8r	16F#\LL	8r	8r	8r	8dd\J	8aa\J	8ddd\J
.	.	.	16G\	.	.	.	.	.	.
8AA/	8AA/	8AA/	16A\	16d\LL	16f#\LL	16dd\LL	8r	8r	8r
.	.	.	16G\JJ	16e\JJ	16g\JJ	16cc#\JJ	.	.	.
=63	=63	=63	=63	=63	=63	=63	=63	=63	=63
4D\	4D\	16D\LL	8F#\L	8f#\	8a\	8dd\	8r	8r	8r
.	.	16A\	.	.	.	.	.	.	.
.	.	16D\	8d\J	8r	8r	8r	16ff#\LL	16aa\LL	16ddd\LL
.	.	16E\JJ	.	.	.	.	16ee\JJ	16gg\JJ	16ccc#\JJ
8r	8r	16F#\LL	8r	8r	8r	8r	8dd\J	8aa\J	8ddd\J
.	.	16G\	.	.	.	.	.	.	.
8A\	8A\	16A\	8A\	16d\LL	16f#\LL	16dd\LL	8r	8r	8r
.	.	16G\JJ	.	16e\JJ	16g\JJ	16cc#\JJ	.	.	.
4d\	16D\LL	8F#\L	8d\L	8f#\J	8a\J	8dd\J	8r	8r	8r
.	16A\	.	.	.	.	.	.	.	.
.	16D\	8d\J	8A\	8r	8r	8r	16ff#\LL	16aa\LL	16ddd\LL
.	16E\JJ	.	.	.	.	.	16ee\JJ	16gg\JJ	16ccc#\JJ
8r	16F#\LL	8r	8D\	8r	8r	8r	8dd\J	8aa\J	8ddd\J
.	16G\	.	.	.	.	.	.	.	.
8A\	16A\	8A\	8AA\J	16d\LL	16f#\LL	16dd\LL	8r	8r	8r
.	16G\JJ	.	.	16e\JJ	16g\JJ	16cc#\JJ	.	.	.
=64	=64	=64	=64	=64	=64	=64	=64	=64	=64
4D\	16F#\LL	16d\LL	16DD/	8f#\	8a\	8dd\	4r	4r	4r
.	16G\	16e\	16B\LL	.	.	.	.	.	.
.	16F#\	16d\	16A\	8r	8r	8r	.	.	.
.	16E\JJ	16c\JJ	16G\JJ	.	.	.	.	.	.
8r	16D/LL	16B\LL	16F#\LL	4r	4r	4r	8r	8r	8r
.	16C/	16A\	16E\	.	.	.	.	.	.
8DD/	16BB/	16G\	16D\	.	.	.	8dd\	8dd\	8dd\
.	16AA/JJ	16F#\JJ	16C\JJ	.	.	.	.	.	.
4GG/	8GG/L	8G\L	8D\L	4r	4r	4r	16b\LL	16b\LL	16b\LL
.	.	.	.	.	.	.	16dd\	16dd\	16dd\
.	16BB/LL	16D\LL	16G\LL	.	.	.	16g\	16g\	16g\
.	16AA/JJ	16C\JJ	16F#\JJ	.	.	.	16a\JJ	16a\JJ	16a\JJ
8r	8GG/L	8D/L	8G\L	8r	8r	8r	16b\LL	16b\LL	16b\LL
.	.	.	.	.	.	.	16cc\	16cc\	16cc\
8DD/	8DD/J	8DD/J	8D\J	8D/	8F#/	8A/	16dd\	16dd\	16dd\
.	.	.	.	.	.	.	16cc\JJ	16cc\JJ	16cc\JJ
=65	=65	=65	=65	=65	=65	=65	=65	=65	=65
4GG/	4GG/	4GG/	4GG/	16D/LL	16G/LL	16B/LL	8b/L	8b\L	8b\L
.	.	.	.	16d/	16d/	16d/	.	.	.
.	.	.	.	16G/	16G/	16G/	16b/LL	16dd\LL	16gg\LL
.	.	.	.	16A/JJ	16A/JJ	16A/JJ	16a/JJ	16cc\JJ	16ff#\JJ
8r	8r	8r	8r	16B/LL	16B/LL	16B/LL	8g/	8dd\	8gg\
.	.	.	.	16c/	16c/	16c/	.	.	.
8F#\	8F#\	8F#\	8F#\	16d/	16d/	16d/	8r	8r	8r
.	.	.	.	16c/JJ	16c/JJ	16c/JJ	.	.	.
16G/LL	16G/LL	16G/LL	16G/LL	8B/L	8B/L	8B\L	4r	4r	4r
16D/	16D/	16D/	16D/	.	.	.	.	.	.
16GG/	16GG/	16GG/	16GG/	16B/LL	16d/LL	16g\LL	.	.	.
16AA/JJ	16AA/JJ	16AA/JJ	16AA/JJ	16A/JJ	16c/JJ	16f#\JJ	.	.	.
16BB/LL	16BB/LL	16BB/LL	16BB/LL	8G/	8d\	8g\	8r	8r	8r
16C/	16C/	16C/	16C/	.	.	.	.	.	.
16D/	16D/	16D/	16D/	8r	8r	8r	16b/LL	16b\LL	16gg\LL
16C/JJ	16C/JJ	16C/JJ	16C/JJ	.	.	.	16a/JJ	16cc\JJ	16ff#\JJ
=66	=66	=66	=66	=66	=66	=66	=66	=66	=66
16BB/LL	16BB/LL	16BB/LL	16BB/LL	4r	4r	4r	8g/L	8dd\L	8gg\L
16D/	16D/	16D/	16D/	.	.	.	.	.	.
16GG/	16GG/	16GG/	16GG/	.	.	.	16b/LL	16b\LL	16dd\LL
16AA/JJ	16AA/JJ	16AA/JJ	16AA/JJ	.	.	.	16a/JJ	16cc\JJ	16cc\JJ
16BB/LL	16BB/LL	16BB/LL	16BB/LL	8r	8r	8r	8g/	8b\	8dd\
16C/	16C/	16C/	16C/	.	.	.	.	.	.
16D/	16D/	16D/	16D/	16B/LL	16g\LL	16b\LL	8r	8r	8r
16C/JJ	16C/JJ	16C/JJ	16C/JJ	16c/JJ	16f#\JJ	16a\JJ	.	.	.
16BB/LL	16BB/LL	16BB/LL	16BB/LL	8d/L	8g\L	8b\L	4r	2r	2r
16C/	16C/	16C/	16C/	.	.	.	.	.	.
16D/	16D/	16D/	16D/	16G/LL	16B\LL	16g\LL	.	.	.
16C/JJ	16C/JJ	16C/JJ	16C/JJ	16A/JJ	16c\JJ	16f#\JJ	.	.	.
16BB/LL	16BB/LL	16BB/LL	16BB/LL	16B\LL	16d\LL	16g\LL	16r	.	.
16AA/	16AA/	16AA/	16AA/	16a\	16a\	16a\	16d/LL	.	.
16GG/	16GG/	16GG/	16GG/	16g\	16g\	16g\	16e/	.	.
16FF#/JJ	16FF#/JJ	16FF#/JJ	16FF#/JJ	16f#\JJ	16f#\JJ	16f#\JJ	16f#/JJ	.	.
=67	=67	=67	=67	=67	=67	=67	=67	=67	=67
4EE/	4EE/	4EE/	4EE/	(8e\L	(8e\L	(8e\L	(16g/LL	(16ee\LL	(16ccc#\LL
.	.	.	.	.	.	.	16f#/	16dd\JJ	16bb\JJ
.	.	.	.	8e\	8e\	8e\	16g/)	8ee\J)	8ccc#\J)
.	.	.	.	.	.	.	16ee/JJ	.	.
4r	4r	4r	4r	8e\	8e\	8e\	16cc#/LL	4r	4r
.	.	.	.	.	.	.	16a#/	.	.
.	.	.	.	8e\J)	8e\J)	8e\J)	16g/	.	.
.	.	.	.	.	.	.	16e/JJ	.	.
4EE/	4EE/	4EE/	4EE/	(8e\L	(8e\L	(8e\L	(16g/LL	(16ee\LL	(16ccc#\LL
.	.	.	.	.	.	.	16f#/	16dd\JJ	16bb\JJ
.	.	.	.	8e\	8e\	8e\	16g/)	8ee\J)	8ccc#\J)
.	.	.	.	.	.	.	16ee/JJ	.	.
4r	4r	4r	4r	8e\	8e\	8e\	16cc#/LL	4r	4r
.	.	.	.	.	.	.	16a#/	.	.
.	.	.	.	8e\J)	8e\J)	8e\J)	16g/	.	.
.	.	.	.	.	.	.	16e/JJ	.	.
=68	=68	=68	=68	=68	=68	=68	=68	=68	=68
4E\	4E\	4E\	4E\	(8e\L	(8e\L	(8e\L	(16f#/LL	(16c#/LL	(16aa#\LL
.	.	.	.	.	.	.	16e/	16B/JJ	16gg#\JJ
.	.	.	.	8e\	8e\	8e\	16f#/)	8c#/J)	8aa#\J)
.	.	.	.	.	.	.	16ee/JJ	.	.
4r	4r	4r	4r	8e\	8e\	8e\	16cc#/LL	4r	4r
.	.	.	.	.	.	.	16a#/	.	.
.	.	.	.	8e\J)	8e\J)	8e\J)	16f#/	.	.
.	.	.	.	.	.	.	16c#/JJ	.	.
4E\	4E\	4E\	4E\	(8e\L	(8e\L	(8e\L	(16f#/LL	(16c#/LL	(16aa#\LL
.	.	.	.	.	.	.	16e/	16B/JJ	16gg#\JJ
.	.	.	.	8e\	8e\	8e\	16f#/)	8c#/J)	8aa#\J)
.	.	.	.	.	.	.	16ee/JJ	.	.
4r	4r	4r	4r	8e\	8e\	8e\	16cc#/LL	4r	4r
.	.	.	.	.	.	.	16a#/	.	.
.	.	.	.	8e\J)	8e\J)	8e\J)	16f#/	.	.
.	.	.	.	.	.	.	16c#/JJ	.	.
=69	=69	=69	=69	=69	=69	=69	=69	=69	=69
4AA#/	4AA#/	4AA#/	4AA#/	(8A#/L	(8A#/L	(8A#/L	(16e/LL	(16gg\LL	(16ccc#\LL
.	.	.	.	.	.	.	16d/	16ff#\JJ	16bb\JJ
.	.	.	.	8A#/	8A#/	8A#/	16e/)	8gg\J)	8ccc#\J)
.	.	.	.	.	.	.	16cc#/JJ	.	.
4r	4r	4r	4r	8A#/	8A#/	8A#/	16a#/LL	4r	4r
.	.	.	.	.	.	.	16f#/	.	.
.	.	.	.	8A#/J)	8A#/J)	8A#/J)	16e/	.	.
.	.	.	.	.	.	.	16c#/JJ	.	.
4FF#/	4FF#/	4FF#/	4FF#/	(8F#/L	(8F#/L	(8F#/L	(16e/LL	(16cc#\LL	(16aa#\LL
.	.	.	.	.	.	.	16d/	16b\JJ	16gg#\JJ
.	.	.	.	8F#/	8F#/	8F#/	16e/)	8cc#\J)	8aa#\J)
.	.	.	.	.	.	.	16cc#/JJ	.	.
4r	4r	4r	4r	8F#/	8F#/	8F#/	16a#/LL	8r	8r
.	.	.	.	.	.	.	16f#/	.	.
.	.	.	.	8F#/J)	8F#/J)	8F#/J)	16e/	16ff#\LL	16bb\LL
.	.	.	.	.	.	.	16c#/JJ	16ee\JJ	16aa#\JJ
=70	=70	=70	=70	=70	=70	=70	=70	=70	=70
8BB\L	8BB\L	8BB\L	8BB\L	8B\L	8B\L	8B\L	8d/L	8ff#\L	8bb\L
8B\	8B\	8B\	8B\	8f#\	8b\	8dd\	16b/LL	16dd\LL	16ff#\LL
.	.	.	.	.	.	.	16a#/JJ	16cc#\JJ	16ee\JJ
8B\	8B\	8B\	8B\	8d\	8f#\	8b\	8b\L	8dd\L	8ff#\L
8BB\J	8BB\J	8BB\J	8BB\J	8B\J	8d\J	8f#\J	16dd\LL	16ff#\LL	16bb\LL
.	.	.	.	.	.	.	16cc#\JJ	16ee\JJ	16aa#\JJ
8BB\L	8BB\L	8BB\L	8BB\L	8d\L	8f#\L	8b\L	8dd/L	8ff#\L	8bb\L
8B\	8B\	8B\	8B\	8f#\	8b\	8dd\	16f#/LL	16b\LL	16dd\LL
.	.	.	.	.	.	.	16e/JJ	16a#\JJ	16cc#\JJ
8B\	8B\	8B\	8B\	8d\	8f#\	8b\	8f#/L	8b\L	8dd\L
8BB\J	8BB\J	8BB\J	8BB\J	8B\J	8d\J	8f#\J	16dd/LL	16ff#\LL	16bb\LL
.	.	.	.	.	.	.	16cc#/JJ	16ee\JJ	16aa#\JJ
=71	=71	=71	=71	=71	=71	=71	=71	=71	=71
8BB\L	8BB\L	8BB\L	8BB\L	8d\L	8f#\L	8b\L	8dd\L	8ff#\L	8bb\L
16B\LL	16B\LL	16B\LL	16B\LL	16dd\LL	16dd\LL	16dd\LL	16b\LL	16b\LL	16b\LL
16A\JJ	16A\JJ	16A\JJ	16A\JJ	16cc#\JJ	16cc#\JJ	16cc#\JJ	16cc#\JJ	16cc#\JJ	16cc#\JJ
8G\L	8G\L	8G\L	8G\L	8b\L	8b\L	8b\L	8dd\L	8dd\L	8dd\L
16F#\LL	16F#\LL	16F#\LL	16F#\LL	16a\LL	16a\LL	16a\LL	8ee\J	8ee\J	8ee\J
16E\JJ	16E\JJ	16E\JJ	16E\JJ	16g\JJ	16g\JJ	16g\JJ	.	.	.
8D/L	8D/L	8D/L	8D/L	8f#\L	8f#\L	8f#\L	(16ff#\LL	(16ff#\LL	(16ff#\LL
.	.	.	.	.	.	.	16ee\	16ee\	16ee\
16C#/LL	16C#/LL	16C#/LL	16C#/LL	16e\LL	16e\LL	16e\LL	16ff#\)	16ff#\)	16ff#\)
16BB/JJ	16BB/JJ	16BB/JJ	16BB/JJ	16d\JJ	16d\JJ	16d\JJ	16gg\JJ	16gg\JJ	16gg\JJ
8AA#/L	8AA#/L	8AA#/L	8AA#/L	8c#\L	8c#\L	8c#\L	16ff#\LL	16ff#\LL	16ff#\LL
.	.	.	.	.	.	.	16ee\	16ee\	16ee\
8FF#/J	8FF#/J	8FF#/J	8FF#/J	8a#\J	8a#\J	8a#\J	16dd\	16dd\	16dd\
.	.	.	.	.	.	.	16cc#\JJ	16cc#\JJ	16cc#\JJ
=72	=72	=72	=72	=72	=72	=72	=72	=72	=72
8BB\L	8BB\L	8BB\L	8BB\L	8b\L	8b\L	8b\L	16dd\LL	16dd\LL	16dd\LL
.	.	.	.	.	.	.	16ee\	16ee\	16ee\
16B\LL	16B\LL	16B\LL	16B\LL	8B\	8B\	8B\	16dd\	16dd\	16dd\
16A\JJ	16A\JJ	16A\JJ	16A\JJ	.	.	.	16ee\JJ	16ee\JJ	16ee\JJ
8G\L	8G\L	8G\L	8G\L	8B\	8B\	8B\	8.eeT\L	8.eeT\L	8.eeT\L
16F#\LL	16F#\LL	16F#\LL	16F#\LL	8b\J	8b\J	8b\J	.	.	.
16E\JJ	16E\JJ	16E\JJ	16E\JJ	.	.	.	32dd\LLL	32dd\LLL	32dd\LLL
.	.	.	.	.	.	.	32ee\JJJ	32ee\JJJ	32ee\JJJ
16D\LL	16D\LL	16D\LL	16D\LL	8b\L	8b\L	8b\L	8ff#\L	8ff#\L	8ff#\L
16C#\	16C#\	16C#\	16C#\	.	.	.	.	.	.
16D\	16D\	16D\	16D\	8B\	8B\	8B\	16bb\LL	16bb\LL	16bb\LL
16E\JJ	16E\JJ	16E\JJ	16E\JJ	.	.	.	16aa#\JJ	16aa#\JJ	16aa#\JJ
16D\LL	16D\LL	16D\LL	16D\LL	8B\	8B\	8B\	8bb\L	8bb\L	8bb\L
16E\	16E\	16E\	16E\	.	.	.	.	.	.
16D\	16D\	16D\	16D\	8b\J	8b\J	8b\J	16ff#\LL	16ff#\LL	16ff#\LL
16C#\JJ	16C#\JJ	16C#\JJ	16C#\JJ	.	.	.	16ee\JJ	16ee\JJ	16ee\JJ
=73	=73	=73	=73	=73	=73	=73	=73	=73	=73
8BB\L	8BB\L	8BB\L	8BB\L	8f#\L	8f#\L	8f#\L	8dd\L	8dd\L	8dd\L
8G\	8G\	8G\	8G\	16e\LL	16e\LL	16e\LL	16cc#\LL	16cc#\LL	16cc#\LL
.	.	.	.	16d\JJ	16d\JJ	16d\JJ	16b\JJ	16b\JJ	16b\JJ
8E\	8E\	8E\	8E\	8e\L	8e\L	8e\L	8cc#\L	8cc#\L	8cc#\L
8F#\J	8F#\J	8F#\J	8F#\J	16d\LL	16d\LL	16d\LL	16b\LL	16b\LL	16b\LL
.	.	.	.	16c#\JJ	16c#\JJ	16c#\JJ	16a#\JJ	16a#\JJ	16a#\JJ
8.G\L	8.G\L	8.G\L	8.G\L	8.g\L	8.g\L	8.g\L	8.gg\L	8.gg\L	8.gg\L
16F#\Jk	16F#\Jk	16F#\Jk	16F#\Jk	16f#\Jk	16f#\Jk	16f#\Jk	16ff#\Jk	16ff#\Jk	16ff#\Jk
16E\LL	16E\LL	16E\LL	16E\LL	16e\LL	16e\LL	16e\LL	16ee\LL	16ee\LL	16ee\LL
16D\	16D\	16D\	16D\	16d\	16d\	16d\	16dd\	16dd\	16dd\
16C#\	16C#\	16C#\	16C#\	16c#\	16c#\	16c#\	16cc#\	16cc#\	16cc#\
16BB\JJ	16BB\JJ	16BB\JJ	16BB\JJ	16B\JJ	16B\JJ	16B\JJ	16b\JJ	16b\JJ	16b\JJ
=74	=74	=74	=74	=74	=74	=74	=74	=74	=74
8D/L	8D/L	8D/L	8D/L	8d/L	8f#\L	8b\L	8d/L	8f#/L	8.ff#\L
8E/	8E/	8E/	8E/	8c#/	16e\LL	8b\	8g/	8b/	.
.	.	.	.	.	16d\JJ	.	.	.	16gg\Jk
8F#/	8F#/	8F#/	8F#/	8c#/	8c#\L	8f#\	8f#/	8b/	8.cc#t\L
8FF#/J	8FF#/J	8FF#/J	8FF#/J	8F#/J	8c#\J	8f#\J	8f#/J	8a#/J	.
.	.	.	.	.	.	.	.	.	16b\Jk
(8BB/L	8BB/	8BB/	8BB/	4F#/	4d\	4f#\	4d/	4b/	4b\
8BB/	16D/LL	16F#\LL	16B\LL	.	.	.	.	.	.
.	16C#/JJ	16E\JJ	16A#\JJ	.	.	.	.	.	.
8BB/	8D\L	8F#\L	8B\L	4r	4r	4r	4r	4r	4r
8BB/J)	16F#\LL	16B\LL	16d\LL	.	.	.	.	.	.
.	16E\JJ	16A#\JJ	16c#\JJ	.	.	.	.	.	.
=75	=75	=75	=75	=75	=75	=75	=75	=75	=75
(8BB/L	8F#\	8B\	8d\	8r	8r	8r	2r	2r	2r
8BB/	8r	8r	8r	16B/LL	16d\LL	16f#\LL	.	.	.
.	.	.	.	16A#/JJ	16c#\JJ	16e\JJ	.	.	.
8BB/	4r	4r	4r	8B\L	8d\L	8f#\L	.	.	.
8BB/J)	.	.	.	16d\LL	16f#\LL	16b\LL	.	.	.
.	.	.	.	16c#\JJ	16e\JJ	16a#\JJ	.	.	.
(8BB/L	4r	4r	4r	8d\	8f#\	8b\	8r	8r	8r
8BB/	.	.	.	8r	8r	8r	16f#/LL	16b/LL	16dd\LL
.	.	.	.	.	.	.	16e/JJ	16a#/JJ	16cc#\JJ
8BB/J)	8r	8r	8r	4r	4r	4r	8f#/L	8b\L	8dd\L
16BB/LL	16BB/LL	16BB/LL	16BB/LL	.	.	.	16b/LL	16dd\LL	16ff#\LL
16C#/JJ	16C#/JJ	16C#/JJ	16C#/JJ	.	.	.	16a#/JJ	16cc#\JJ	16ee\JJ
=76	=76	=76	=76	=76	=76	=76	=76	=76	=76
8D\L	8D\L	8D\L	8D\L	8r	8r	8r	8b/L	8b\L	8ff#\L
16G\LL	16G\LL	16G\LL	16G\LL	16B\LL	16d\LL	16b\LL	8b/J	8dd\J	8ff#\J
16F#\JJ	16F#\JJ	16F#\JJ	16F#\JJ	16c#\JJ	16e\JJ	16a#\JJ	.	.	.
8G\L	8G\L	8G\L	8G\L	8B\L	8d\L	8b\L	8b/L	8dd\L	8ff#\L
16C#\LL	16C#\LL	16C#\LL	16C#\LL	8e\J	8g\J	8b\J	16g/LL	16cc#\LL	16ee\LL
16BB\JJ	16BB\JJ	16BB\JJ	16BB\JJ	.	.	.	16a/JJ	16dd\JJ	16dd\JJ
8C#\L	8C#\L	8C#\L	8C#\L	8e\L	8g\L	8b\L	8g/L	8cc#\L	8ee\L
16F#\LL	16F#\LL	16F#\LL	16F#\LL	16c#\LL	16f#\LL	16a#\LL	8f#/J	8cc#\J	8ee\J
16E\JJ	16E\JJ	16E\JJ	16E\JJ	16d\JJ	16g\JJ	16g#\JJ	.	.	.
8F#/L	8F#/L	8F#/L	8F#/L	8c#\L	8f#\L	8a#\L	8f#/L	8cc#\L	8ee\L
16BB/LL	16BB/LL	16BB/LL	16BB/LL	16d\LL	16f#\LL	16b\LL	16f#/LL	16b\LL	16dd\LL
16AA#/JJ	16AA#/JJ	16AA#/JJ	16AA#/JJ	16e\JJ	16c#\JJ	16e\JJ	16g/JJ	16cc#\JJ	16cc#\JJ
=77	=77	=77	=77	=77	=77	=77	=77	=77	=77
8BB/L	8BB/L	8BB/L	8BB/L	8d\L	8f#\L	8B\L	8f#/L	8.b\L	8.dd\L
8E/	8E/	8E/	8E/	8e\	8B\	8g\	8g/	.	.
.	.	.	.	.	.	.	.	16cc#\Jk	16cc#\Jk
8F#/	8F#/	8F#/	8F#/	8e\	8f#\	8c#\	8f#t/	8.a#t/L	8.cc#t\L
8FF#/J	8FF#/J	8FF#/J	8FF#/J	8A#\J	8c#\J	8f#\J	8f#/J	.	.
.	.	.	.	.	.	.	.	16b/Jk	16b\Jk
8BB/L	8BB/L	8BB/L	8BB/L	4F#/	4d\	4d\	4f#/	4b/	4b\
8C/	8C/	8C/	8C/	.	.	.	.	.	.
8BB/	8BB/	8BB/	8BB/	4r	4r	4r	4r	8r	4r
8AA/J	8AA/J	8AA/J	8AA/J	.	.	.	.	16g/LL	.
.	.	.	.	.	.	.	.	16f#/JJ	.
=78	=78	=78	=78	=78	=78	=78	=78	=78	=78
4GG/	4GG/	4GG/	4GG/	8G/L	8G/L	8G/L	1r	8g/L	4g/
.	.	.	.	8F#/	8F#/	8F#/	.	16d/LL	.
.	.	.	.	.	.	.	.	16c/JJ	.
4r	4r	4r	4r	8G/	8G/	8G/	.	8d/L	4b\
.	.	.	.	8A/J	8A/J	8A/J	.	16g/LL	.
.	.	.	.	.	.	.	.	16f#/JJ	.
2r	2r	2r	2r	8B/L	8B/L	8B/L	.	8g/L	4dd\
.	.	.	.	8c/	8c/	8c/	.	16B/LL	.
.	.	.	.	.	.	.	.	16A/JJ	.
.	.	.	.	8B/	8B/	8B/	.	8B/L	8r
.	.	.	.	8A/J	8A/J	8A/J	.	16g/LL	8dd\
.	.	.	.	.	.	.	.	16f#/JJ	.
=79	=79	=79	=79	=79	=79	=79	=79	=79	=79
1r	1r	1r	1r	8G/L	8G/L	8G/L	1r	8g/L	8b\L
.	.	.	.	8F#/	8F#/	8F#/	.	16G/LL	8dd\J
.	.	.	.	.	.	.	.	16A/JJ	.
.	.	.	.	8E/	8E/	8E/	.	8B/L	16gg\LL
.	.	.	.	.	.	.	.	.	16bb\
.	.	.	.	8A/J	8A/J	8A/J	.	8c#/J	16aa\
.	.	.	.	.	.	.	.	.	16gg\JJ
.	.	.	.	8d/L	8d/L	8d/L	.	4d/	(16ff#\LL
.	.	.	.	.	.	.	.	.	16gg\
.	.	.	.	8D/	8D/	8D/	.	.	16aa\)
.	.	.	.	.	.	.	.	.	16gg\JJ
.	.	.	.	8F#/	8F#/	8F#/	.	4r	16ff#\LL
.	.	.	.	.	.	.	.	.	16ee\
.	.	.	.	8A/J	8A/J	8A/J	.	.	16dd\
.	.	.	.	.	.	.	.	.	16cc#\JJ
=80	=80	=80	=80	=80	=80	=80	=80	=80	=80
8D\L	8D\L	8D\L	8D\L	4d\	4d\	4d\	1r	4d/	8dd\L
8C#\	8C#\	8C#\	8C#\	.	.	.	.	.	16a\LL
.	.	.	.	.	.	.	.	.	16g\JJ
8D\	8D\	8D\	8D\	4r	4r	4r	.	4f#/	8a\L
8E\J	8E\J	8E\J	8E\J	.	.	.	.	.	16dd\LL
.	.	.	.	.	.	.	.	.	16cc#\JJ
8F#\L	8F#\L	8F#\L	8F#\L	2r	2r	2r	.	4a/	8dd/L
8G\	8G\	8G\	8G\	.	.	.	.	.	16f#/LL
.	.	.	.	.	.	.	.	.	16e/JJ
8F#\	8F#\	8F#\	8F#\	.	.	.	.	8r	8f#/L
8E\J	8E\J	8E\J	8E\J	.	.	.	.	8a/	16dd/LL
.	.	.	.	.	.	.	.	.	16cc#/JJ
=81	=81	=81	=81	=81	=81	=81	=81	=81	=81
8D/L	8D/L	8D/L	8D/L	1r	1r	1r	1r	8f#/L	8dd/L
8C#/	8C#/	8C#/	8C#/	.	.	.	.	8a/J	16d/LL
.	.	.	.	.	.	.	.	.	16e/JJ
8BB/	8BB/	8BB/	8BB/	.	.	.	.	16dd\LL	8f#/L
.	.	.	.	.	.	.	.	16ff#\	.
8E/J	8E/J	8E/J	8E/J	.	.	.	.	16ee\	8g#/J
.	.	.	.	.	.	.	.	16dd\JJ	.
4AA/	4AA/	4AA/	4AA/	.	.	.	.	(16cc#\LL	4a/
.	.	.	.	.	.	.	.	16dd\	.
.	.	.	.	.	.	.	.	16ee\)	.
.	.	.	.	.	.	.	.	16dd\JJ	.
8r	8r	8r	8r	.	.	.	.	16cc#\LL	8r
.	.	.	.	.	.	.	.	16b\	.
8AA/	8AA/	8AA/	8AA/	.	.	.	.	16a\	8cc#\
.	.	.	.	.	.	.	.	16g\JJ	.
=82	=82	=82	=82	=82	=82	=82	=82	=82	=82
8D/L	8D/L	8D/L	8D/L	1r	1r	1r	1r	(16f#/LL	(16dd\LL
.	.	.	.	.	.	.	.	16e/	16cc#\
8DD/	8DD/	8DD/	8DD/	.	.	.	.	16f#/)	16dd\)
.	.	.	.	.	.	.	.	16g/JJ	16ee\JJ
8FF#/	8FF#/	8FF#/	8FF#/	.	.	.	.	16f#/LL	16dd\LL
.	.	.	.	.	.	.	.	16a/	16ff#\
8AA/J	8AA/J	8AA/J	8AA/J	.	.	.	.	16e/	16cc#\
.	.	.	.	.	.	.	.	16g/JJ	16ee\JJ
4D\	4D\	4D\	4D\	.	.	.	.	4f#/	(16dd\LL
.	.	.	.	.	.	.	.	.	16ee\
.	.	.	.	.	.	.	.	.	16ff#\)
.	.	.	.	.	.	.	.	.	16ee\JJ
8r	8r	8r	8r	.	.	.	.	8r	16dd\LL
.	.	.	.	.	.	.	.	.	16cc\
8D\	8D\	8D\	8D\	.	.	.	.	8f#/	16b\
.	.	.	.	.	.	.	.	.	16a\JJ
=83	=83	=83	=83	=83	=83	=83	=83	=83	=83
8G/L	8G/L	8G/L	8G/L	2r	2r	2r	1r	(16g/LL	(16b\LL
.	.	.	.	.	.	.	.	16f#/	16a\
8GG/	8GG/	8GG/	8GG/	.	.	.	.	16g/)	16b\)
.	.	.	.	.	.	.	.	16a/JJ	16cc\JJ
8BB/	8BB/	8BB/	8BB/	.	.	.	.	16g/LL	16b\LL
.	.	.	.	.	.	.	.	16b/	16dd\
8D/J	8D/J	8D/J	8D/J	.	.	.	.	16f#/	16a\
.	.	.	.	.	.	.	.	16a/JJ	16cc\JJ
4G\	4G\	4G\	4G\	8r	8r	8r	.	(16g/LL	(16b\LL
.	.	.	.	.	.	.	.	16a/	16cc\
.	.	.	.	16G/LL	16B/LL	16g\LL	.	16b/)	16dd\)
.	.	.	.	16A/JJ	16c/JJ	16f#\JJ	.	16a/JJ	16cc\JJ
8r	8r	8r	8r	8B/J	8d/J	8g\J	.	16g/LL	16b/LL
.	.	.	.	.	.	.	.	16f#/	16a/
8BB/	8BB/	8BB/	8BB/	8r	8r	8r	.	16e/	16g/
.	.	.	.	.	.	.	.	16d#/JJ	16f#/JJ
=84	=84	=84	=84	=84	=84	=84	=84	=84	=84
8E/L	8E/L	8E/L	8E/L	2r	2r	2r	1r	(16e/LL	(16g/LL
.	.	.	.	.	.	.	.	16d#/	16f#/
8EE/	8EE/	8EE/	8EE/	.	.	.	.	16e/)	16g/)
.	.	.	.	.	.	.	.	16f#/JJ	16a/JJ
8GG/	8GG/	8GG/	8GG/	.	.	.	.	16e/LL	16g/LL
.	.	.	.	.	.	.	.	16g/	16b/
8BB/J	8BB/J	8BB/J	8BB/J	.	.	.	.	16d#/	16f#/
.	.	.	.	.	.	.	.	16f#/JJ	16a/JJ
4E\	4E\	4E\	4E\	8r	8r	8r	.	(16e/LL	(16g/LL
.	.	.	.	.	.	.	.	16f#/	16a/
.	.	.	.	16E/LL	16G/LL	16e\LL	.	16g/)	16b/)
.	.	.	.	16F#/JJ	16A/JJ	16d#\JJ	.	16f#/JJ	16a/JJ
8r	8r	8r	8r	8G/J	8B/J	8e\J	.	16e/LL	16g/LL
.	.	.	.	.	.	.	.	16d/	16f#/
8GG/	8GG/	8GG/	8GG/	8r	8r	8r	.	16c/	16e/
.	.	.	.	.	.	.	.	16B/JJ	16d/JJ
=85	=85	=85	=85	=85	=85	=85	=85	=85	=85
8C/L	8C/L	8C/L	8C/L	1r	2r	2r	1r	16c/LL	16e/LL
.	.	.	.	.	.	.	.	16B/	16g/
8D/	8D/	8D/	8D/	.	.	.	.	16A/	16f#/
.	.	.	.	.	.	.	.	16c/JJ	16a/JJ
8GG/	8GG/	8GG/	8GG/	.	.	.	.	16B/LL	16g/LL
.	.	.	.	.	.	.	.	16d/	16b/
8C/J	8C/J	8C/J	8C/J	.	.	.	.	16c/	16a/
.	.	.	.	.	.	.	.	16B/JJ	16g/JJ
8D/L	8D/L	8D/L	8D/L	.	4r	4r	.	16A/LL	16f#/LL
.	.	.	.	.	.	.	.	16B/	16g/
8C/	8C/	8C/	8C/	.	.	.	.	16c/	16a/
.	.	.	.	.	.	.	.	16d/JJ	16b/JJ
8BB/	8BB/	8BB/	8BB/	.	8r	8r	.	16e/LL	16cc\LL
.	.	.	.	.	.	.	.	16f#/	16dd\
8AA/J	8AA/J	8AA/J	8AA/J	.	16g\LL	16g\LL	.	16g/	16cc\
.	.	.	.	.	16f#\JJ	16f#\JJ	.	16a/JJ	16dd\JJ
=86	=86	=86	=86	=86	=86	=86	=86	=86	=86
8GG/L	8GG/L	8GG/L	8GG/L	4G/	8g\L	8g\L	4G/	4d/	16b\LL
.	.	.	.	.	.	.	.	.	16gg\
8G/	8G/	8G/	8G/	.	16d\LL	16d\LL	.	.	16ff#\
.	.	.	.	.	16c\JJ	16c\JJ	.	.	16ee\JJ
8G/	8G/	8G/	8G/	4B/	8d\L	8d\L	4B/	8r	16dd\LL
.	.	.	.	.	.	.	.	.	16cc\
8GG/J	8GG/J	8GG/J	8GG/J	.	16g\LL	16g\LL	.	16g/LL	16b\
.	.	.	.	.	16f#\JJ	16f#\JJ	.	16a/JJ	16a\JJ
8GG/L	8GG/L	8GG/L	8GG/L	4d\	8g\L	8g\L	4d/	16b\LL	16g/LL
.	.	.	.	.	.	.	.	16cc\	16e/
8G/	8G/	8G/	8G/	.	16B\LL	16B\LL	.	16dd\	16d/
.	.	.	.	.	16A\JJ	16A\JJ	.	16ee\JJ	16c/JJ
8G/	8G/	8G/	8G/	8r	8B\L	8B\L	8r	16dd\LL	16B/LL
.	.	.	.	.	.	.	.	16cc\	16A/
8GG/J	8GG/J	8GG/J	8GG/J	8d\	16g\LL	16g\LL	8d/	16b\	16G/
.	.	.	.	.	16f#\JJ	16f#\JJ	.	16a\JJ	16A/JJ
=87	=87	=87	=87	=87	=87	=87	=87	=87	=87
8GG\L	8GG\L	8GG\L	8GG\L	8B\L	8g\L	8g\L	8B/L	8g/L	16B/LL
.	.	.	.	.	.	.	.	.	16c/
16G\LL	16G\LL	16G\LL	16G\LL	8d\J	16G\LL	16G\LL	8d/J	8b/J	16B/
16F#\JJ	16F#\JJ	16F#\JJ	16F#\JJ	.	16A\JJ	16A\JJ	.	.	16A/JJ
8E\L	8E\L	8E\L	8E\L	16g\LL	8B\L	8B\L	16g/LL	16ee\LL	8G/L
.	.	.	.	16b\	.	.	16b/	16gg\	.
8A\J	8A\J	8A\J	8A\J	16a\	8c#\J	8c#\J	16a/	16ff#\	8gg/J
.	.	.	.	16g\JJ	.	.	16g/JJ	16ee\JJ	.
8d\L	8d\L	8d\L	8d\L	16a\LL	16d\LL	16d\LL	16dd/LL	16dd\LL	16ff#\LL
.	.	.	.	16f#\	16a\	16cc\	16f#/	16a\	16dd\
8c\	8c\	8c\	8c\	16A\	16f#\	16d\	16a/	16dd\	16ff#\
.	.	.	.	16f#\JJ	16a\JJ	16cc\JJ	16f#/JJ	16a\JJ	16dd\JJ
8B\	8B\	8B\	8B\	16A\LL	16f#\LL	16d\LL	16a/LL	16dd\LL	16ff#\LL
.	.	.	.	16f#\	16a\	16cc\	16f#/	16a\	16dd\
8A\J	8A\J	8A\J	8A\J	16A\	16f#\	16d\	16a/	16dd\	16ff#\
.	.	.	.	16f#\JJ	16a\JJ	16cc\JJ	16f#/JJ	16a\JJ	16dd\JJ
=88	=88	=88	=88	=88	=88	=88	=88	=88	=88
8G\L	8G\L	8G\L	8G\L	16G/LL	16B\LL	16d\LL	16b/LL	16dd\LL	16ff\LL
.	.	.	.	16d/	16g\	16b\	16g/	16b\	16dd\
8F\	8F\	8F\	8F\	16G/	16B\	16d\	16b/	16dd\	16ff\
.	.	.	.	16d/JJ	16g\JJ	16b\JJ	16g/JJ	16b\JJ	16dd\JJ
8E\	8E\	8E\	8E\	16G/LL	16B\LL	16d\LL	16b/LL	16dd\LL	16ff\LL
.	.	.	.	16d/	16g\	16b\	16g/	16b\	16dd\
8D\J	8D\J	8D\J	8D\J	16G/	16B\	16d\	16b/	16dd\	16ff\
.	.	.	.	16d/JJ	16g\JJ	16b\JJ	16g/JJ	16b\JJ	16dd\JJ
8c\L	8c\L	8c\L	8c\L	16G/LL	16c\LL	16e\LL	16g/LL	16cc/LL	16ee\LL
.	.	.	.	16e/	16g\	16b-\	16e/	16g/	16cc\
8B-\	8B-\	8B-\	8B-\	16G/	16c\	16e\	16g/	16cc/	16ee\
.	.	.	.	16e/JJ	16g\JJ	16b-\JJ	16e/JJ	16g/JJ	16cc\JJ
8A\	8A\	8A\	8A\	16G/LL	16c\LL	16e\LL	16g/LL	16cc/LL	16ee\LL
.	.	.	.	16e/	16g\	16b-\	16e/	16g/	16cc\
8G\J	8G\J	8G\J	8G\J	16G/	16c\	16e\	16g/	16cc/	16ee\
.	.	.	.	16e/JJ	16g\JJ	16b-\JJ	16e/JJ	16g/JJ	16cc\JJ
=89	=89	=89	=89	=89	=89	=89	=89	=89	=89
8F#\L	8F#\L	8F#\L	8F#\L	16A#/LL	16c#\LL	16f#\LL	16a#/LL	16cc#/LL	16ee\LL
.	.	.	.	16c#/	16f#\	16a#\	16f#/	16a#/	16cc#\
8E\	8E\	8E\	8E\	16A#/	16c#\	16f#\	16a#/	16cc#/	16ee\
.	.	.	.	16c#/JJ	16f#\JJ	16a#\JJ	16f#/JJ	16a#/JJ	16cc#\JJ
8D\	8D\	8D\	8D\	16A#/LL	16c#\LL	16f#\LL	16a#/LL	16cc#/LL	16ee\LL
.	.	.	.	16c#/	16f#\	16a#\	16f#/	16a#/	16cc#\
8C#\J	8C#\J	8C#\J	8C#\J	16A#/	16c#\	16f#\	16a#/	16cc#/	16ee\
.	.	.	.	16c#/JJ	16f#\JJ	16a#\JJ	16f#/JJ	16a#/JJ	16cc#\JJ
8B\L	8B\L	8B\L	8B\L	16B/LL	16d#\LL	16f#\LL	16f#/LL	16b/LL	16dd#\LL
.	.	.	.	16d#/	16f#\	16a\	16d#/	16f#/	16b\
8A\	8A\	8A\	8A\	16B/	16d#\	16f#\	16f#/	16b/	16dd#\
.	.	.	.	16d#/JJ	16f#\JJ	16a\JJ	16d#/JJ	16f#/JJ	16b\JJ
8G\	8G\	8G\	8G\	16B/LL	16d#\LL	16f#\LL	16f#/LL	16b/LL	16dd#\LL
.	.	.	.	16d#/	16f#\	16a\	16d#/	16f#/	16b\
8F#\J	8F#\J	8F#\J	8F#\J	16B/	16d#\	16f#\	16f#/	16b/	16dd#\
.	.	.	.	16d#/JJ	16f#\JJ	16a\JJ	16d#/JJ	16f#/JJ	16b\JJ
=90	=90	=90	=90	=90	=90	=90	=90	=90	=90
8E/L	8E/L	8E/L	8E/L	16G#/LL	16B\LL	16e\LL	16g#/LL	16b/LL	16dd\LL
.	.	.	.	16B/	16e\	16g#\	16e/	16g#/	16b\
8D/	8D/	8D/	8D/	16G#/	16B\	16e\	16g#/	16b/	16dd\
.	.	.	.	16B/JJ	16e\JJ	16g#\JJ	16e/JJ	16g#/JJ	16b\JJ
8C/	8C/	8C/	8C/	16G#/LL	16B\LL	16e\LL	16g#/LL	16b/LL	16dd\LL
.	.	.	.	16B/	16e\	16g#\	16e/	16g#/	16b\
8BB/J	8BB/J	8BB/J	8BB/J	16G#/	16B\	16e\	16g#/	16b/	16dd\
.	.	.	.	16B/JJ	16e\JJ	16g#\JJ	16e/JJ	16g#/JJ	16b\JJ
8AA/L	8AA/L	8AA/L	8AA/L	16A/LL	16c\LL	16e\LL	16e/LL	16a/LL	16cc\LL
.	.	.	.	16c/	16e\	16a\	16c/	16e/	16a\
8GG/	8GG/	8GG/	8GG/	16A/	16c\	16e\	16e/	16a/	16cc\
.	.	.	.	16c/JJ	16e\JJ	16a\JJ	16c/JJ	16e/JJ	16a\JJ
8FF/	8FF/	8FF/	8FF/	16A/LL	16c\LL	16e\LL	16e/LL	16a/LL	16cc\LL
.	.	.	.	16c/	16e\	16a\	16c/	16e/	16a\
8EE/J	8EE/J	8EE/J	8EE/J	16A/	16c\	16e\	16e/	16a/	16cc\
.	.	.	.	16c/JJ	16e\JJ	16a\JJ	16c/JJ	16e/JJ	16a\JJ
=91	=91	=91	=91	=91	=91	=91	=91	=91	=91
4DD/	4DD/	4DD/	4DD/	(8d\L	(8d\L	(8d\L	(16d/LL	(16f/LL	(16b-\LL
.	.	.	.	.	.	.	16c/JJ	16e/JJ	16a\
.	.	.	.	8d\	8d\	8d\	8d/J)	8f/J)	16b-\)
.	.	.	.	.	.	.	.	.	16ff\JJ
4r	4r	4r	4r	8d\	8d\	8d\	4r	4r	16dd/LL
.	.	.	.	.	.	.	.	.	16b-/
.	.	.	.	8d\J)	8d\J)	8d\J)	.	.	16f/
.	.	.	.	.	.	.	.	.	16d/JJ
2r	2r	2r	2r	(8d\L	(8d\L	(8d\L	(16d/LL	(16f/LL	(16b-\LL
.	.	.	.	.	.	.	16c/JJ	16e/JJ	16a\
.	.	.	.	8d\	8d\	8d\	8d/J)	8f/J)	16b-\)
.	.	.	.	.	.	.	.	.	16ff\JJ
.	.	.	.	8d\	8d\	8d\	4r	4r	16dd/LL
.	.	.	.	.	.	.	.	.	16b-/
.	.	.	.	8d\J)	8d\J)	8d\J)	.	.	16f/
.	.	.	.	.	.	.	.	.	16d/JJ
=92	=92	=92	=92	=92	=92	=92	=92	=92	=92
4DD#/	4DD#/	4DD#/	4DD#/	(8d#\L	(8d#\L	(8d#\L	(16f#/LL	(16a/LL	(16cc\LL
.	.	.	.	.	.	.	16e/JJ	16g/JJ	16b\
.	.	.	.	8d#\	8d#\	8d#\	8f#/J)	8a/J)	16cc\)
.	.	.	.	.	.	.	.	.	16ff#\JJ
4r	4r	4r	4r	8d#\	8d#\	8d#\	4r	4r	16cc/LL
.	.	.	.	.	.	.	.	.	16a/
.	.	.	.	8d#\J)	8d#\J)	8d#\J)	.	.	16f#/
.	.	.	.	.	.	.	.	.	16d#/JJ
2r	2r	2r	2r	(8d#\L	(8d#\L	(8d#\L	(16f#/LL	(16a/LL	(16cc\LL
.	.	.	.	.	.	.	16e/JJ	16g/JJ	16b\
.	.	.	.	8d#\	8d#\	8d#\	8f#/J)	8a/J)	16cc\)
.	.	.	.	.	.	.	.	.	16ff#\JJ
.	.	.	.	8d#\	8d#\	8d#\	4r	4r	16cc/LL
.	.	.	.	.	.	.	.	.	16a/
.	.	.	.	8d#\J)	8d#\J)	8d#\J)	.	.	16f#/
.	.	.	.	.	.	.	.	.	16d#/JJ
=93	=93	=93	=93	=93	=93	=93	=93	=93	=93
4EE/	4EE/	4EE/	4EE/	(8e\L	(8e\L	(8e\L	(16g#/LL	(16b/LL	(16dd\LL
.	.	.	.	.	.	.	16f#/JJ	16a/JJ	16cc\
.	.	.	.	8e\	8e\	8e\	8g#/J)	8b/J)	16dd\)
.	.	.	.	.	.	.	.	.	16gg#\JJ
4r	4r	4r	4r	8e\	8e\	8e\	4r	4r	16dd/LL
.	.	.	.	.	.	.	.	.	16b/
.	.	.	.	8e\J)	8e\J)	8e\J)	.	.	16g#/
.	.	.	.	.	.	.	.	.	16e/JJ
2r	2r	2r	2r	(8e\L	(8e\L	(8e\L	(16g#/LL	(16b/LL	(16dd\LL
.	.	.	.	.	.	.	16f#/JJ	16a/JJ	16cc\
.	.	.	.	8e\	8e\	8e\	8g#/J)	8b/J)	16dd\)
.	.	.	.	.	.	.	.	.	16gg#\JJ
.	.	.	.	8e\	8e\	8e\	4r	4r	16dd/LL
.	.	.	.	.	.	.	.	.	16b/
.	.	.	.	8e\J)	8e\J)	8e\J)	.	.	16g#/
.	.	.	.	.	.	.	.	.	16e/JJ
=94	=94	=94	=94	=94	=94	=94	=94	=94	=94
4EE/	4EE/	4EE/	4EE/	(8d#\L	(8d#\L	(8d#\L	(16a/LL	(16ff#\LL	(16cc\LL
.	.	.	.	.	.	.	16g#/JJ	16ee\JJ	16b\
.	.	.	.	8d#\	8d#\	8d#\	8a/J)	8ff#\J)	16cc\)
.	.	.	.	.	.	.	.	.	16aa\JJ
4r	4r	4r	4r	8d#\	8d#\	8d#\	4r	4r	16ff#/LL
.	.	.	.	.	.	.	.	.	16cc/
.	.	.	.	8d#\J)	8d#\J)	8d#\J)	.	.	16a/
.	.	.	.	.	.	.	.	.	16d#/JJ
2r	2r	2r	2r	(8d#\L	(8d#\L	(8d#\L	(16a/LL	(16ff#\LL	(16cc\LL
.	.	.	.	.	.	.	16g#/JJ	16ee\JJ	16b\
.	.	.	.	8d#\	8d#\	8d#\	8a/J)	8ff#\J)	16cc\)
.	.	.	.	.	.	.	.	.	16aa\JJ
.	.	.	.	8d#\	8d#\	8d#\	4r	4r	16ff#/LL
.	.	.	.	.	.	.	.	.	16cc/
.	.	.	.	8d#\J)	8d#\J)	8d#\J)	.	.	16a/
.	.	.	.	.	.	.	.	.	16d#/JJ
=95	=95	=95	=95	=95	=95	=95	=95	=95	=95
4EE/	4EE/	4EE/	4EE/	(8e\L	(8e\L	(8e\L	(16dd\LL	(16ee\LL	(16b\LL
.	.	.	.	.	.	.	16cc\JJ	16ff\JJ	16a\
.	.	.	.	8e\	8e\	8e\	8dd\J)	8ee\J)	16b\)
.	.	.	.	.	.	.	.	.	16aa\JJ
4r	4r	4r	4r	8e\	8e\	8e\	4r	4r	16ff\LL
.	.	.	.	.	.	.	.	.	16dd\
.	.	.	.	8e\J)	8e\J)	8e\J)	.	.	16b\
.	.	.	.	.	.	.	.	.	16e\JJ
2r	2r	2r	2r	(8e\L	(8e\L	(8e\L	(16dd\LL	(16ee\LL	(16b\LL
.	.	.	.	.	.	.	16cc\JJ	16ff\JJ	16a\
.	.	.	.	8e\	8e\	8e\	8dd\J)	8ee\J)	16b\)
.	.	.	.	.	.	.	.	.	16aa\JJ
.	.	.	.	8e\	8e\	8e\	4r	4r	16ff\LL
.	.	.	.	.	.	.	.	.	16dd\
.	.	.	.	8e\J)	8e\J)	8e\J)	.	.	16b\
.	.	.	.	.	.	.	.	.	16e\JJ
=96	=96	=96	=96	=96	=96	=96	=96	=96	=96
4EE/	4EE/	4EE/	4EE/	(8e\L	(8e\L	(8e\L	(16dd\LL	(16gg#\LL	(16b\LL
.	.	.	.	.	.	.	16cc\JJ	16ff#\JJ	16a\
.	.	.	.	8e\	8e\	8e\	8dd\J)	8gg#\J)	16b\)
.	.	.	.	.	.	.	.	.	16gg#\JJ
4r	4r	4r	4r	8e\	8e\	8e\	4r	4r	16dd\LL
.	.	.	.	.	.	.	.	.	16b\
.	.	.	.	8e\J)	8e\J)	8e\J)	.	.	16g#\
.	.	.	.	.	.	.	.	.	16e\JJ
2r	2r	2r	2r	(8e\L	(8e\L	(8e\L	(16dd\LL	(16gg#\LL	(16b\LL
.	.	.	.	.	.	.	16cc\JJ	16ff#\JJ	16a\
.	.	.	.	8e\	8e\	8e\	8dd\J)	8gg#\J)	16b\)
.	.	.	.	.	.	.	.	.	16gg#\JJ
.	.	.	.	8e\	8e\	8e\	4r	4r	16dd\LL
.	.	.	.	.	.	.	.	.	16b\
.	.	.	.	8e\J)	8e\J)	8e\J)	.	.	16e\
.	.	.	.	.	.	.	.	.	16gg#\JJ
=97	=97	=97	=97	=97	=97	=97	=97	=97	=97
8AA\L	8AA/	8AA/	8AA/	8c\	8e\	8e\	8cc\	8aa\	8aa\
8A\	8r	8r	8r	8r	8r	16a\LL	8r	8r	16ff\LL
.	.	.	.	.	.	16g#\JJ	.	.	16ee\JJ
8A\	4r	4r	4r	4r	8r	8a\J	4r	8r	8ff\J
8AA\J	.	.	.	.	16A/LL	8r	.	16cc\LL	8r
.	.	.	.	.	16G#/JJ	.	.	16b\JJ	.
8AA\L	4r	4r	4r	8r	8A/J	4r	8r	8cc\J	4r
8A\	.	.	.	16F/LL	8r	.	16a/LL	8r	.
.	.	.	.	16E/JJ	.	.	16g#/JJ	.	.
8A\	8r	8r	8r	8F/J	8r	8r	8a/J	8r	8r
8AA\J	8A\	8A\	8A\	8c\	8a\	8a\	8cc\	8ff\	8ccc\
=98	=98	=98	=98	=98	=98	=98	=98	=98	=98
8GG/L	8GG/	8GG/	8GG/	8g\	8d\	8b\	8dd\	8ff\	8bb\
8G/	8r	8r	8r	8r	8r	16g\LL	8r	8r	16ee\LL
.	.	.	.	.	.	16f#\JJ	.	.	16dd\JJ
8G/	4r	4r	4r	4r	8r	8g\J	4r	8r	8ee\J
8GG/J	.	.	.	.	16G/LL	8r	.	16b\LL	8r
.	.	.	.	.	16F#/JJ	.	.	16a\JJ	.
8GG/L	4r	4r	4r	8r	8G/J	4r	8r	8b\J	4r
8G/	.	.	.	16E/LL	8r	.	16g/LL	8r	.
.	.	.	.	16D/JJ	.	.	16f#/JJ	.	.
8G/	8r	8r	8r	8E/J	8r	8r	8g/J	8r	8r
8GG/J	8G\	8G\	8G\	8B/	8g\	8g\	8b\	8ee\	8bb\
=99	=99	=99	=99	=99	=99	=99	=99	=99	=99
8FF/L	8FF/	8FF/	8FF/	8f\	8c\	8a\	8cc\	8ee\	8aa\
8F/	8r	8r	8r	8r	8r	16f\LL	8r	8r	16dd\LL
.	.	.	.	.	.	16e\JJ	.	.	16cc#\JJ
8F/	4r	4r	4r	4r	8r	8f\J	4r	8r	8dd\J
8FF/J	.	.	.	.	16F/LL	8r	.	16a/LL	8r
.	.	.	.	.	16E/JJ	.	.	16g#/JJ	.
8FF/L	4r	4r	4r	8r	8F/J	4r	8r	8a/J	4r
8F/	.	.	.	16D/LL	8r	.	16f/LL	8r	.
.	.	.	.	16C#/JJ	.	.	16e/JJ	.	.
8F/	8r	8r	8r	8D/J	8r	8r	8f/J	8r	8r
8FF/J	8F\	8F\	8F\	8A/	8f\	8a\	8a/	8dd\	8aa\
=100	=100	=100	=100	=100	=100	=100	=100	=100	=100
8EE/L	8EE/L	8EE/L	8EE/L	8e\L	8B\L	8e\L	8b/L	8dd\L	8gg#\L
8E/	8E/	8E/	8E/	16B\LL	16d\LL	16g#\LL	16g#/LL	16b\LL	16dd\LL
.	.	.	.	16c\JJ	16e\JJ	16a\JJ	16f#/JJ	16a\JJ	16cc\JJ
8E/	8E/	8E/	8E/	8B\L	8d\L	8g#\L	8g#/L	8b/L	8dd\L
8EE/J	8EE/J	8EE/J	8EE/J	16d\LL	16g#\LL	16b\LL	16d/LL	16g#/LL	16b\LL
.	.	.	.	16e\JJ	16a\JJ	16cc\JJ	16c/JJ	16f#/JJ	16a\JJ
8EE/L	8EE/L	8EE/L	8EE/L	8d\L	8g#\L	8b\L	8d/L	8g#/L	8b/L
8E/	8E/	8E/	8E/	16g#\LL	16b\LL	16dd\LL	16B/LL	16d/LL	16g#/LL
.	.	.	.	16a\JJ	16cc\JJ	16ee\JJ	16A/JJ	16c/JJ	16f#/JJ
8E/	8E/	8E/	8E/	8g#\L	8b\L	8dd\L	8B/L	8d/L	8g#\L
8D/J	8D/J	8D/J	8D/J	8B\J	8e\J	8g#\J	8g#/J	8b/J	8ee\J
=101	=101	=101	=101	=101	=101	=101	=101	=101	=101
8C/L	8C/L	8C/L	8C/L	8A\L	8e\L	8a\L	8e/L	8ee\L	8.a/L
8D/	8D/	8D/	8D/	8A\	8d\	8f\	8f/	8a\J	.
.	.	.	.	.	.	.	.	.	16b/Jk
8E/	8E/	8E/	8E/	8e\	8d\	8B\	8e/	8.g#t/L	8.bt/L
8EE/J	8EE/J	8EE/J	8EE/J	8e\J	8d\J	8B\J	8e/J	.	.
.	.	.	.	.	.	.	.	16a/Jk	16a/Jk
4AA/	4AA/	4AA/	4AA/	(16e\LL	(16c\LL	(16a\LL	4e/	4a/	4a/
.	.	.	.	16B\	16d\	16g#\	.	.	.
.	.	.	.	16c\)	16e\)	16a\)	.	.	.
.	.	.	.	16d\JJ	16f\JJ	16b\JJ	.	.	.
8r	8r	8r	8r	16c\LL	16e\LL	16a\LL	8r	8r	8r
.	.	.	.	16e\	16a\	16cc\	.	.	.
16A\LL	16A\LL	16A\LL	16A\LL	16d\	16g#\	16b\	8A/	8A/	8A/
16G#\JJ	16G#\JJ	16G#\JJ	16G#\JJ	16f\JJ	16b\JJ	16dd\JJ	.	.	.
=102	=102	=102	=102	=102	=102	=102	=102	=102	=102
8A\L	8A\L	8A\L	8A\L	(16e\LL	(16a\LL	(16cc\LL	8c/L	8c/L	8c/L
.	.	.	.	16d\	16g#\	16b\	.	.	.
16E\LL	16E\LL	16E\LL	16E\LL	16e\)	16a\)	16cc\)	8e/	8e/	8e/
16D\JJ	16D\JJ	16D\JJ	16D\JJ	16f\JJ	16b\JJ	16dd\JJ	.	.	.
8E\L	8E\L	8E\L	8E\L	16e\LL	16a\LL	16cc\LL	8c/	8c/	8c/
.	.	.	.	16a\	16cc\	16ee\	.	.	.
16A\LL	16A\LL	16A\LL	16A\LL	16e\	16b\	16dd\	8A/J	8A/J	8A/J
16G#\JJ	16G#\JJ	16G#\JJ	16G#\JJ	16b\JJ	16dd\JJ	16ff\JJ	.	.	.
8A\L	8A\L	8A\L	8A\L	16e\LL	(16cc\LL	(16ee\LL	8c/L	8c/L	8c/L
.	.	.	.	16a\	16b\	16dd\	.	.	.
16C\LL	16C\LL	16C\LL	16C\LL	16e\	16cc\)	16ee\)	8e/	8e/	8e/
16BB\JJ	16BB\JJ	16BB\JJ	16BB\JJ	16g#\JJ	16dd\JJ	16ff\JJ	.	.	.
8C\L	8C\L	8C\L	8C\L	16e\LL	16cc\LL	16ee\LL	8c/	8c/	8c/
.	.	.	.	16a\	16dd\	16ff\	.	.	.
16A\LL	16A\LL	16A\LL	16A\LL	16e\	16cc\	16ee\	8A/J	8A/J	8A/J
16G#\JJ	16G#\JJ	16G#\JJ	16G#\JJ	16g#\JJ	16b\JJ	16dd\JJ	.	.	.
=103	=103	=103	=103	=103	=103	=103	=103	=103	=103
8A\L	8A\L	8A\L	8A\L	16e\LL	16a\LL	16cc\LL	8e/L	8e/L	8e/L
.	.	.	.	16f\	16b\	16dd\	.	.	.
16AA\LL	16AA\LL	16AA\LL	16AA\LL	16e\	16a\	16cc\	16e/LL	16e/LL	16e/LL
16BB\JJ	16BB\JJ	16BB\JJ	16BB\JJ	16d\JJ	16g#\JJ	16b\JJ	16e/JJ	16e/JJ	16e/JJ
8C#\L	8C#\L	8C#\L	8C#\L	8e\L	8a\L	16a\LL	8e/	8e/	8e/
.	.	.	.	.	.	16cc\	.	.	.
8D#\J	8D#\J	8D#\J	8D#\J	8B\J	8f#\J	16b\	8r	8r	8r
.	.	.	.	.	.	16a\JJ	.	.	.
8E/L	8E/L	8E/L	8E/L	8B/L	8e\L	8g\L	(16g/LL	(16b\LL	(16ee\LL
.	.	.	.	.	.	.	16f#/	16a\	16dd#\
8EE/J	8EE/J	8EE/J	8EE/J	8G/J	8B\J	8e\J	16g/)	16b\)	16ee\)
.	.	.	.	.	.	.	16a/JJ	16cc\JJ	16ff#\JJ
8r	8r	8r	8r	8r	8r	8r	16g/LL	16b\LL	16ee\LL
.	.	.	.	.	.	.	16b/	16ee\	16gg\
16E\LL	16E\LL	16E\LL	16E\LL	8e\	8e\	8e\	16a/	16dd#\	16ff#\
16D#\JJ	16D#\JJ	16D#\JJ	16D#\JJ	.	.	.	16cc/JJ	16ff#\JJ	16aa\JJ
=104	=104	=104	=104	=104	=104	=104	=104	=104	=104
8E/L	8E/L	8E/L	8E/L	8g\L	8g\L	8g\L	(16b\LL	(16ee\LL	(16gg\LL
.	.	.	.	.	.	.	16a\	16dd#\	16ff#\
16BB/LL	16BB/LL	16BB/LL	16BB/LL	8b\	8b\	8b\	16b\)	16ee\)	16gg\)
16AA/JJ	16AA/JJ	16AA/JJ	16AA/JJ	.	.	.	16cc\JJ	16ff#\JJ	16aa\JJ
8BB/L	8BB/L	8BB/L	8BB/L	8g\	8g\	8g\	16b\LL	16ee\LL	16gg\LL
.	.	.	.	.	.	.	16ee\	16gg\	16bb\
16E/LL	16E/LL	16E/LL	16E/LL	8e\J	8e\J	8e\J	16b\	16ff#\	16aa\
16D#/JJ	16D#/JJ	16D#/JJ	16D#/JJ	.	.	.	16ff#\JJ	16aa\JJ	16ccc\JJ
8E/L	8E/L	8E/L	8E/L	8g\L	8g\L	8g\L	16b\LL	(16gg\LL	(16bb\LL
.	.	.	.	.	.	.	16ee\	16ff#\	16aa\
16GG/LL	16GG/LL	16GG/LL	16GG/LL	8b\	8b\	8b\	16b\	16gg\)	16bb\)
16FF#/JJ	16FF#/JJ	16FF#/JJ	16FF#/JJ	.	.	.	16dd#\JJ	16aa\JJ	16ccc\JJ
8GG/L	8GG/L	8GG/L	8GG/L	8g\	8g\	8g\	16b\LL	16gg\LL	16bb\LL
.	.	.	.	.	.	.	16ee\	16aa\	16ccc\
16E/LL	16E/LL	16E/LL	16E/LL	8e\J	8e\J	8e\J	16b\	16gg\	16bb\
16D#/JJ	16D#/JJ	16D#/JJ	16D#/JJ	.	.	.	16dd#\JJ	16ff#\JJ	16aa\JJ
=105	=105	=105	=105	=105	=105	=105	=105	=105	=105
8E/L	8E/L	8E/L	8E/L	8b\L	8b\L	8b\L	16b/LL	16ee\LL	16gg\LL
.	.	.	.	.	.	.	16cc/	16ff#\	16aa\
16EE/LL	16EE/LL	16EE/LL	16EE/LL	16b\LL	16b\LL	16b\LL	16b/	16ee\	16gg\
16FF#/JJ	16FF#/JJ	16FF#/JJ	16FF#/JJ	16b\JJ	16b\JJ	16b\JJ	16a/JJ	16dd#\JJ	16ff#\JJ
8GG/L	8GG/L	8GG/L	8GG/L	8b\	8b\	8b\	8b/L	8ee\L	16ee\LL
.	.	.	.	.	.	.	.	.	16gg\
8AA/J	8AA/J	8AA/J	8AA/J	8r	8r	8r	8f#/J	8cc\J	16ff#\
.	.	.	.	.	.	.	.	.	16ee\JJ
16BB/LL	16BB/LL	16BB/LL	16BB/LL	8r	8r	8r	8f#/L	8b/L	8dd#\L
16AA/	16AA/	16AA/	16AA/	.	.	.	.	.	.
16BB/	16BB/	16BB/	16BB/	16B/LL	16B/LL	16B/LL	8d#/J	8f#/J	8b\J
16C/JJ	16C/JJ	16C/JJ	16C/JJ	16A/JJ	16A/JJ	16A/JJ	.	.	.
16BB/LL	16BB/LL	16BB/LL	16BB/LL	16B/LL	16B/LL	16B/LL	8r	8r	8r
16C/	16C/	16C/	16C/	16c/	16c/	16c/	.	.	.
16BB/	16BB/	16BB/	16BB/	16B/	16B/	16B/	16gg\LL	16gg\LL	16gg\LL
16AA/JJ	16AA/JJ	16AA/JJ	16AA/JJ	16A/JJ	16A/JJ	16A/JJ	16ff#\JJ	16ff#\JJ	16ff#\JJ
=106	=106	=106	=106	=106	=106	=106	=106	=106	=106
4GG/	4GG/	4GG/	4GG/	(16G/LL	(16G/LL	(16G/LL	8gg\L	8gg\L	8gg\L
.	.	.	.	16F#/	16F#/	16F#/	.	.	.
.	.	.	.	16G/)	16G/)	16G/)	16dd\LL	16dd\LL	16dd\LL
.	.	.	.	16A/JJ	16A/JJ	16A/JJ	16cc\JJ	16cc\JJ	16cc\JJ
8r	8r	8r	8r	16G/LL	16G/LL	16G/LL	8dd\L	8dd\L	8dd\L
.	.	.	.	16B/	16B/	16B/	.	.	.
8D\	8D\	8D\	8D\	16A/	16A/	16A/	16gg\LL	16gg\LL	16gg\LL
.	.	.	.	16c/JJ	16c/JJ	16c/JJ	16ff#\JJ	16ff#\JJ	16ff#\JJ
(16G\LL	(16G\LL	(16G\LL	(16G\LL	(16B/LL	(16B/LL	(16B/LL	8gg\L	8gg\L	8gg\L
16F#\	16F#\	16F#\	16F#\	16A/	16A/	16A/	.	.	.
16G\)	16G\)	16G\)	16G\)	16B/)	16B/)	16B/)	16b\LL	16b\LL	16b\LL
16A\JJ	16A\JJ	16A\JJ	16A\JJ	16c/JJ	16c/JJ	16c/JJ	16a\JJ	16a\JJ	16a\JJ
16G\LL	16G\LL	16G\LL	16G\LL	16B/LL	16B/LL	16B/LL	8b\L	8b\L	8b\L
16B\	16B\	16B\	16B\	16d/	16d/	16d/	.	.	.
16A\	16A\	16A\	16A\	16c/	16c/	16c/	16gg\LL	16gg\LL	16gg\LL
16c\JJ	16c\JJ	16c\JJ	16c\JJ	16e/JJ	16e/JJ	16e/JJ	16ff#\JJ	16ff#\JJ	16ff#\JJ
=107	=107	=107	=107	=107	=107	=107	=107	=107	=107
16B\LL	16B\LL	16B\LL	16B\LL	16d\LL	16d\LL	16d\LL	8gg\L	8gg\L	8gg\L
16c\	16c\	16c\	16c\	16e\	16e\	16e\	.	.	.
16B\	16B\	16B\	16B\	16d\	16d\	16d\	16g\LL	16g\LL	16g\LL
16A\JJ	16A\JJ	16A\JJ	16A\JJ	16c\JJ	16c\JJ	16c\JJ	16a\JJ	16a\JJ	16a\JJ
16G\LL	16G\LL	16G\LL	16G\LL	16B\LL	16B\LL	16B\LL	8b\L	8b\L	8b\L
16B\	16B\	16B\	16B\	16g\	16g\	16g\	.	.	.
16A\	16A\	16A\	16A\	16f#\	16f#\	16f#\	8cc#\J	8cc#\J	8cc#\J
16G\JJ	16G\JJ	16G\JJ	16G\JJ	16e\JJ	16e\JJ	16e\JJ	.	.	.
16F#\LL	16F#\LL	16F#\LL	16F#\LL	16d\LL	16d\LL	16d\LL	8dd/L	8dd/L	8dd/L
16B\	16B\	16B\	16B\	16dd\	16dd\	16dd\	.	.	.
16A\	16A\	16A\	16A\	16cc#\	16cc#\	16cc#\	8d/J	8d/J	8d/J
16G\JJ	16G\JJ	16G\JJ	16G\JJ	16b\JJ	16b\JJ	16b\JJ	.	.	.
16F#\LL	16F#\LL	16F#\LL	16F#\LL	16a\LL	16a\LL	16a\LL	4r	16r	4r
16G\	16G\	16G\	16G\	16b\	16b\	16b\	.	16dd\LL	.
16F#\	16F#\	16F#\	16F#\	16a\	16a\	16a\	.	16a\	.
16E\JJ	16E\JJ	16E\JJ	16E\JJ	16g\JJ	16g\JJ	16g\JJ	.	16b\JJ	.
=108	=108	=108	=108	=108	=108	=108	=108	=108	=108
4D\	4D\	4D\	4D\	8f#\L	(8f#\L	(8a\L	(16a/LL	(16cc\LL	(16ff#\LL
.	.	.	.	.	.	.	16g/JJ	16b\	16ee\JJ
.	.	.	.	(8d\	8f#\	8a\	8a/J)	16cc\)	8ff#\J)
.	.	.	.	.	.	.	.	16aa\JJ	.
4r	4r	4r	4r	8d\	8f#\	8a\	4r	16ff#/LL	4r
.	.	.	.	.	.	.	.	16cc/	.
.	.	.	.	8d\J)	8f#\J)	8a\J)	.	16a/	.
.	.	.	.	.	.	.	.	16d/JJ	.
4D\	4D\	4D\	4D\	(8d\L	(8f#\L	(8a\L	(16a/LL	(16cc\LL	(16ff#\LL
.	.	.	.	.	.	.	16g/JJ	16b\	16ee\JJ
.	.	.	.	8d\	8f#\	8a\	8a/J)	16cc\)	8ff#\J)
.	.	.	.	.	.	.	.	16aa\JJ	.
4r	4r	4r	4r	8d\	8f#\	8a\	4r	16ff#/LL	4r
.	.	.	.	.	.	.	.	16cc/	.
.	.	.	.	8d\J)	8f#\J)	8a\J)	.	16a/	.
.	.	.	.	.	.	.	.	16d/JJ	.
=109	=109	=109	=109	=109	=109	=109	=109	=109	=109
4GG/	4GG/	4GG/	4GG/	8d/L	8g\L	(8b\L	(16dd\LL	(16b/LL	(16ff\LL
.	.	.	.	.	.	.	16cc\JJ	16a/JJ	16ee\
.	.	.	.	(8G/	(8d\	8b\	8dd\J)	8b/J)	16ff\)
.	.	.	.	.	.	.	.	.	16ddd\JJ
4r	4r	4r	4r	8G/	8d\	8b\	4r	4r	16bb\LL
.	.	.	.	.	.	.	.	.	16ff\
.	.	.	.	8G/J)	8d\J)	8b\J)	.	.	16dd\
.	.	.	.	.	.	.	.	.	16g\JJ
4GG/	4GG/	4GG/	4GG/	(8G/L	(8d\L	(8b\L	(16dd\LL	(16b/LL	(16ff\LL
.	.	.	.	.	.	.	16cc\JJ	16a/JJ	16ee\
.	.	.	.	8G/	8d\	8b\	8dd\J)	8b/J)	16ff\)
.	.	.	.	.	.	.	.	.	16ddd\JJ
4r	4r	4r	4r	8G/	8d\	8b\	4r	4r	16bb\LL
.	.	.	.	.	.	.	.	.	16ff\
.	.	.	.	8G/J)	8d\J)	8b\J)	.	.	16dd\
.	.	.	.	.	.	.	.	.	16g\JJ
=110	=110	=110	=110	=110	=110	=110	=110	=110	=110
4GG#/	4GG#/	4GG#/	4GG#/	8B/L	(8e\L	(8b\L	(16dd\LL	(16b/LL	(16ee\LL
.	.	.	.	.	.	.	16cc\	16a/JJ	16ff\JJ
.	.	.	.	(8G#/	8e\	8b\	16dd\)	8b/J)	8ee\J)
.	.	.	.	.	.	.	16bb\JJ	.	.
4r	4r	4r	4r	8G#/	8e\	8b\	16gg#\LL	4r	4r
.	.	.	.	.	.	.	16dd\	.	.
.	.	.	.	8G#/J)	8e\J)	8b\J)	16b\	.	.
.	.	.	.	.	.	.	16e\JJ	.	.
4GG#/	4GG#/	4GG#/	4GG#/	(8G#/L	(8e\L	(8b\L	(16dd\LL	(16b/LL	(16ee\LL
.	.	.	.	.	.	.	16cc\	16a/JJ	16ff\JJ
.	.	.	.	8G#/	8e\	8b\	16dd\)	8b/J)	8ee\J)
.	.	.	.	.	.	.	16bb\JJ	.	.
4r	4r	4r	4r	8G#/	8e\	8b\	16gg#\LL	4r	4r
.	.	.	.	.	.	.	16dd\	.	.
.	.	.	.	8G#/J)	8e\J)	8b\J)	16b\	.	.
.	.	.	.	.	.	.	16e\JJ	.	.
=111	=111	=111	=111	=111	=111	=111	=111	=111	=111
4AA/	4AA/	4AA/	4AA/	(16e\LL	(16cc#\LL	(16g\LL	(8cc#\L	(8a/L	(8ee\L
.	.	.	.	16d\JJ	16b\JJ	16f#\	.	.	.
.	.	.	.	8e\J)	8cc#\J)	16g\)	8cc#\	8a/	8ee\
.	.	.	.	.	.	16ee\JJ	.	.	.
4r	4r	4r	4r	4r	4r	16cc#\LL	8cc#\	8a/	8ee\
.	.	.	.	.	.	16g\	.	.	.
.	.	.	.	.	.	16e\	8cc#\J)	8a/J)	8ee\J)
.	.	.	.	.	.	16A\JJ	.	.	.
4AA/	4AA/	4AA/	4AA/	(16e\LL	(16cc#\LL	(16g\LL	(8cc#\L	(8a/L	(8ee\L
.	.	.	.	16d\JJ	16b\JJ	16f#\	.	.	.
.	.	.	.	8e\J)	8cc#\J)	16g\)	8cc#\	8a/	8ee\
.	.	.	.	.	.	16ee\JJ	.	.	.
4r	4r	4r	4r	4r	4r	16cc#\LL	8cc#\	8a/	8ee\
.	.	.	.	.	.	16g\	.	.	.
.	.	.	.	.	.	16e\	8cc#\J)	8a/J)	8ee\J)
.	.	.	.	.	.	16A\JJ	.	.	.
=112	=112	=112	=112	=112	=112	=112	=112	=112	=112
4FF#/	4FF#/	4FF#/	4FF#/	(16cc\LL	(16e-\LL	(16a\LL	(8a/L	(8cc\L	(8aa\L
.	.	.	.	16b\JJ	16d\	16g\JJ	.	.	.
.	.	.	.	8cc\J)	16e-\)	8a\J)	8a/	8cc\	8aa\
.	.	.	.	.	16cc\JJ	.	.	.	.
4r	4r	4r	4r	4r	16a\LL	4r	8a/	8cc\	8aa\
.	.	.	.	.	16f#\	.	.	.	.
.	.	.	.	.	16e-\	.	8a/J)	8cc\J)	8aa\J)
.	.	.	.	.	16c\JJ	.	.	.	.
4FF#/	4FF#/	4FF#/	4FF#/	(16cc\LL	(16e-\LL	(16a\LL	(8a/L	(8cc\L	(8aa\L
.	.	.	.	16b\JJ	16d\	16g\JJ	.	.	.
.	.	.	.	8cc\J)	16e-\)	8a\J)	8a/	8cc\	8aa\
.	.	.	.	.	16cc\JJ	.	.	.	.
4r	4r	4r	4r	4r	16a\LL	4r	8a/	8cc\	8aa\
.	.	.	.	.	16f#\	.	.	.	.
.	.	.	.	.	16e-\	.	8a/J)	8cc\J)	8aa\J)
.	.	.	.	.	16c\JJ	.	.	.	.
=113	=113	=113	=113	=113	=113	=113	=113	=113	=113
4FF/	4FF/	4FF/	4FF/	(16B\LL	(16f\LL	(16dd\LL	(8b\L	(8dd\L	(8aa-\L
.	.	.	.	16A\	16g\JJ	16cc\JJ	.	.	.
.	.	.	.	16B\)	8f\J)	8dd\J)	8b\	8dd\	8aa-\
.	.	.	.	16a-\JJ	.	.	.	.	.
4r	4r	4r	4r	16f\LL	4r	4r	8b\	8dd\	8aa-\
.	.	.	.	16d\	.	.	.	.	.
.	.	.	.	16B\	.	.	8b\J)	8dd\J)	8aa-\J)
.	.	.	.	16F\JJ	.	.	.	.	.
4FF/	4FF/	4FF/	4FF/	(16B\LL	(16f\LL	(16dd\LL	(8b\L	(8dd\L	(8aa-\L
.	.	.	.	16A\	16g\JJ	16cc\JJ	.	.	.
.	.	.	.	16B\)	8f\J)	8dd\J)	8b\	8dd\	8aa-\
.	.	.	.	16a-\JJ	.	.	.	.	.
4r	4r	4r	4r	16f\LL	4r	4r	8b\	8dd\	8aa-\
.	.	.	.	16d\	.	.	.	.	.
.	.	.	.	16B\	.	.	8b\J)	8dd\J)	8aa-\J)
.	.	.	.	16F\JJ	.	.	.	.	.
=114	=114	=114	=114	=114	=114	=114	=114	=114	=114
(8CC#/L	(16CC#/LL	(16CC#/LL	(16CC#/LL	8E/	4r	4r	(16b-/LL	(16ee\LL	(16gg\LL
.	16DD/	16DD/	16DD/	.	.	.	16a/JJ	16dd\JJ	16ff#\JJ
8CC#/	16CC#/JJ)	16CC#/JJ)	16CC#/JJ)	8r	.	.	8b-/J)	8ee\J)	8gg\J)
.	16B-\	16B-\	16B-\	.	.	.	.	.	.
8CC#/	16G/LL	16G/LL	16G/LL	(16e\LL	(16g\LL	(16b-\LL	4r	4r	4r
.	16E/	16E/	16E/	16f#\JJ	16a\JJ	16cc\JJ	.	.	.
8CC#/J)	16C#/	16C#/	16C#/	8e\J)	8g\J)	8b-\J)	.	.	.
.	16GG/JJ	16GG/JJ	16GG/JJ	.	.	.	.	.	.
(8CC#/L	(16CC#/LL	(16CC#/LL	(16CC#/LL	4r	4r	4r	(16b-/LL	(16ee\LL	(16gg\LL
.	16DD/	16DD/	16DD/	.	.	.	16a/JJ	16dd\JJ	16ff#\JJ
8CC#/	16CC#/JJ)	16CC#/JJ)	16CC#/JJ)	.	.	.	8b-/J)	8ee\J)	8gg\J)
.	16B-\	16B-\	16B-\	.	.	.	.	.	.
8CC#/	16G/LL	16G/LL	16G/LL	(16e\LL	(16g\LL	(16b-\LL	4r	4r	4r
.	16E/	16E/	16E/	16f#\JJ	16a\JJ	16cc\JJ	.	.	.
8CC#/J)	16C#/	16C#/	16C#/	8e\J)	8g\J)	8b-\J)	.	.	.
.	16GG/JJ	16GG/JJ	16GG/JJ	.	.	.	.	.	.
=115	=115	=115	=115	=115	=115	=115	=115	=115	=115
(8DD/L	(16DD/LL	(16DD/LL	(16DD/LL	4r	4r	4r	(16b-/LL	(16dd\LL	(16gg\LL
.	16EE-/	16EE-/	16EE-/	.	.	.	16a/JJ	16cc\JJ	16ff#\JJ
8DD/	16DD/JJ)	16DD/JJ)	16DD/JJ)	.	.	.	8b-/J)	8dd\J)	8gg\J)
.	16B-\	16B-\	16B-\	.	.	.	.	.	.
8DD/	16G/LL	16G/LL	16G/LL	(16d\LL	(16g\LL	(16b-\LL	4r	4r	4r
.	16D/	16D/	16D/	16e-\JJ	16a\JJ	16cc\JJ	.	.	.
8DD/J)	16BB-/	16BB-/	16BB-/	8d\J)	8g\J)	8b-\J)	.	.	.
.	16GG/JJ	16GG/JJ	16GG/JJ	.	.	.	.	.	.
(8DD/L	(16DD/LL	(16DD/LL	(16DD/LL	4r	4r	4r	(16b-/LL	(16dd\LL	(16gg\LL
.	16EE-/	16EE-/	16EE-/	.	.	.	16a/JJ	16cc\JJ	16ff#\JJ
8DD/	16DD/JJ)	16DD/JJ)	16DD/JJ)	.	.	.	8b-/J)	8dd\J)	8gg\J)
.	16B-\	16B-\	16B-\	.	.	.	.	.	.
8DD/	16G/LL	16G/LL	16G/LL	(16d\LL	(16g\LL	(16b-\LL	4r	4r	4r
.	16D/	16D/	16D/	16e-\JJ	16a\JJ	16cc\JJ	.	.	.
8DD/J)	16BB-/	16BB-/	16BB-/	8d\J)	8g\J)	8b-\J)	.	.	.
.	16GG/JJ	16GG/JJ	16GG/JJ	.	.	.	.	.	.
=116	=116	=116	=116	=116	=116	=116	=116	=116	=116
(8DD/L	(16DD/LL	(16DD/LL	(16DD/LL	4r	4r	4r	(16cc#\LL	(16ee\LL	(16gg\LL
.	16EE-/	16EE-/	16EE-/	.	.	.	16b-\JJ	16dd#\JJ	16ff#\JJ
8DD/	16DD/JJ)	16DD/JJ)	16DD/JJ)	.	.	.	8cc#\J)	8ee\J)	8gg\J)
.	16c#\	16c#\	16c#\	.	.	.	.	.	.
8DD/	16B-\LL	16B-\LL	16B-\LL	(16e\LL	(16g\LL	(16b-\LL	4r	4r	4r
.	16G\	16G\	16G\	16d\JJ	16a\JJ	16cc\JJ	.	.	.
8DD/J)	16E\	16E\	16E\	8e\J)	8g\J)	8b-\J)	.	.	.
.	16C#\JJ	16C#\JJ	16C#\JJ	.	.	.	.	.	.
(8DD/L	(16DD/LL	(16DD/LL	(16DD/LL	4r	4r	4r	(16cc#\LL	(16ee\LL	(16gg\LL
.	16EE-/	16EE-/	16EE-/	.	.	.	16b-\JJ	16dd#\JJ	16ff#\JJ
8DD/	16DD/JJ)	16DD/JJ)	16DD/JJ)	.	.	.	8cc#\J)	8ee\J)	8gg\J)
.	16c#\	16c#\	16c#\	.	.	.	.	.	.
8DD/	16B-\LL	16B-\LL	16B-\LL	(16e\LL	(16g\LL	(16b-\LL	4r	4r	4r
.	16G\	16G\	16G\	16d\JJ	16a\JJ	16cc\JJ	.	.	.
8DD/J)	16E\	16E\	16E\	8e\J)	8g\J)	8b-\J)	.	.	.
.	16C#\JJ	16C#\JJ	16C#\JJ	.	.	.	.	.	.
=117	=117	=117	=117	=117	=117	=117	=117	=117	=117
(8DD/L	(16DD/LL	(16DD/LL	(16DD/LL	4r	4r	4r	(16b-/LL	(16dd\LL	(16gg\LL
.	16EE-/	16EE-/	16EE-/	.	.	.	16a/JJ	16cc\JJ	16ff#\JJ
8DD/	16DD/JJ)	16DD/JJ)	16DD/JJ)	.	.	.	8b-/J)	8dd\J)	8gg\J)
.	16d\	16d\	16d\	.	.	.	.	.	.
8DD/	16B-\LL	16B-\LL	16B-\LL	(16d\LL	(16g\LL	(16b-\LL	4r	4r	4r
.	16G\	16G\	16G\	16e-\JJ	16a\JJ	16cc\JJ	.	.	.
8DD/J)	16D\	16D\	16D\	8d\J)	8g\J)	8b-\J)	.	.	.
.	16BB-\JJ	16BB-\JJ	16BB-\JJ	.	.	.	.	.	.
(8DD/L	(16DD/LL	(16DD/LL	(16DD/LL	4r	4r	4r	(16b-/LL	(16dd\LL	(16gg\LL
.	16EE-/	16EE-/	16EE-/	.	.	.	16a/JJ	16cc\JJ	16ff#\JJ
8DD/	16DD/JJ)	16DD/JJ)	16DD/JJ)	.	.	.	8b-/J)	8dd\J)	8gg\J)
.	16d\	16d\	16d\	.	.	.	.	.	.
8DD/	16B-\LL	16B-\LL	16B-\LL	(16d\LL	(16g\LL	(16b-\LL	4r	4r	4r
.	16G\	16G\	16G\	16e-\JJ	16a\JJ	16cc\JJ	.	.	.
8DD/J)	16D\	16D\	16D\	8d\J)	8g\J)	8b-\J)	.	.	.
.	16BB-\JJ	16BB-\JJ	16BB-\JJ	.	.	.	.	.	.
=118	=118	=118	=118	=118	=118	=118	=118	=118	=118
(8DD/L	(16DD/LL	(16DD/LL	(16DD/LL	4r	4r	4r	(16a/LL	(16cc\LL	(16ff#\LL
.	16EE-/	16EE-/	16EE-/	.	.	.	16g/JJ	16b\JJ	16gg\JJ
8DD/	16DD/JJ)	16DD/JJ)	16DD/JJ)	.	.	.	8a/J)	8cc\J)	8ff#\J)
.	16e-\	16e-\	16e-\	.	.	.	.	.	.
8DD/	16c\LL	16c\LL	16c\LL	(16c\LL	(16f#\LL	(16a\LL	4r	4r	4r
.	16A\	16A\	16A\	16d\JJ	16g\JJ	16b-\JJ	.	.	.
8DD/J)	16F#\	16F#\	16F#\	8c\J)	8f#\J)	8a\J)	.	.	.
.	16D\JJ	16D\JJ	16D\JJ	.	.	.	.	.	.
(8DD/L	(16DD/LL	(16DD/LL	(16DD/LL	4r	4r	4r	(16a/LL	(16cc\LL	(16ff#\LL
.	16EE-/	16EE-/	16EE-/	.	.	.	16g/JJ	16b\JJ	16gg\JJ
8DD/	16DD/JJ)	16DD/JJ)	16DD/JJ)	.	.	.	8a/J)	8cc\J)	8ff#\J)
.	16e-\	16e-\	16e-\	.	.	.	.	.	.
8DD/	16c\LL	16c\LL	16c\LL	(16c\LL	(16f#\LL	(16a\LL	4r	4r	4r
.	16A\	16A\	16A\	16d\JJ	16g\JJ	16b-\JJ	.	.	.
8DD/J)	16F#\	16F#\	16F#\	8c\J)	8f#\J)	8a\J)	.	.	.
.	16D\JJ	16D\JJ	16D\JJ	.	.	.	.	.	.
=119	=119	=119	=119	=119	=119	=119	=119	=119	=119
8GG/L	8GG/	8GG/	8GG/	8d\	8d\	8b-\	8g/	8b-\	8gg\
8G/	8r	8r	8r	8r	8r	16g\LL	8r	8r	16ee-\LL
.	.	.	.	.	.	16f#\JJ	.	.	16dd\JJ
8G/	4r	4r	4r	4r	8r	8g\J	4r	8r	8ee-\J
8GG/J	.	.	.	.	16G/LL	8r	.	16b-\LL	8r
.	.	.	.	.	16F#/JJ	.	.	16a\JJ	.
8GG/L	4r	4r	4r	8r	8G/J	4r	8r	8b-\J	4r
8G/	.	.	.	16E-/LL	8r	.	16g/LL	8r	.
.	.	.	.	16D/JJ	.	.	16f#/JJ	.	.
8G/	8r	8r	8r	8E-/J	8r	8r	8g/J	8r	8r
8GG/J	8G\	8G\	8G\	8B-/	8g\	8g\	8b-\	8ee-\	8bb-\
=120	=120	=120	=120	=120	=120	=120	=120	=120	=120
8FF/L	8FF/	8FF/	8FF/	8f\	8c\	8a\	8cc\	8ee-\	8aa\
8F/	8r	8r	8r	8r	8r	16f\LL	8r	8r	16dd\LL
.	.	.	.	.	.	16e\JJ	.	.	16cc#\JJ
8F/	4r	4r	4r	4r	8r	8f\J	4r	8r	8dd\J
8FF/J	.	.	.	.	16F/LL	8r	.	16a/LL	8r
.	.	.	.	.	16E/JJ	.	.	16g/JJ	.
8FF/L	4r	4r	4r	8r	8F/J	4r	8r	8a/J	4r
8F/	.	.	.	16D/LL	8r	.	16f/LL	8r	.
.	.	.	.	16C/JJ	.	.	16e/JJ	.	.
8F/	8r	8r	8r	8D/J	8r	8r	8f/J	8r	8r
8FF/J	8F\	8F\	8F\	8A/	8f\	8f\	8a/	8dd\	8aa\
=121	=121	=121	=121	=121	=121	=121	=121	=121	=121
8EE-/L	8EE-/	8EE-/	8EE-/	8e-\	8B-/	8g\	8b-/	8dd\	8gg\
8E-/	8r	8r	8r	8r	8r	16e-\LL	8r	8r	16cc\LL
.	.	.	.	.	.	16d\JJ	.	.	16b\JJ
8E-/	4r	4r	4r	4r	8r	8e-\J	4r	8r	8cc\J
8EE-/J	.	.	.	.	16E-/LL	8r	.	16g/LL	8r
.	.	.	.	.	16D/JJ	.	.	16f#/JJ	.
8EE-/L	4r	4r	4r	8r	8E-/J	4r	8r	8g/J	4r
8E-/	.	.	.	16C/LL	8r	.	16e-/LL	8r	.
.	.	.	.	16D/JJ	.	.	16d/JJ	.	.
8E-/	8r	8r	8r	8C/J	8r	8r	8e-/J	8r	8r
8EE-/J	8E-\	8E-\	8E-\	8G/	8e-\	8g\	8g/	8cc\	8gg\
=122	=122	=122	=122	=122	=122	=122	=122	=122	=122
4DD/	4DD/	4DD/	4DD/	4d\	4A/	16a\LL	8d/	8cc\	8ff#\
.	.	.	.	.	.	16f#\	.	.	.
.	.	.	.	.	.	16d\	16cc\LL	16ff#\LL	16aa\LL
.	.	.	.	.	.	16e\JJ	16b-\JJ	16gg\JJ	16gg\JJ
8r	8r	8r	8r	8r	8r	16f#\LL	8cc\J	8ff#\J	8aa\J
.	.	.	.	.	.	16g\	.	.	.
8D\	8D\	8D\	8D\	8f#\	8d\	16a\	8r	8r	8r
.	.	.	.	.	.	16b-\JJ	.	.	.
4DD/	4DD/	4DD/	4DD/	4f#\	16A/LL	4cc\	8r	8r	8r
.	.	.	.	.	16c/	.	.	.	.
.	.	.	.	.	16F#/	.	16ff#\LL	16aa\LL	16ccc\LL
.	.	.	.	.	16G/JJ	.	16ee\JJ	16gg\JJ	16bb-\JJ
8r	8r	8r	8r	8r	16A/LL	8r	8dd\J	8ff#\J	8ccc\J
.	.	.	.	.	16B-/	.	.	.	.
8D\	8D\	8D\	8D\	8f#\	16c/	8a\	8r	8r	8r
.	.	.	.	.	16d/JJ	.	.	.	.
=123	=123	=123	=123	=123	=123	=123	=123	=123	=123
4CC/	4CC/	4CC/	4CC/	16a\LL	4e-\	4f#\	8r	8r	8r
.	.	.	.	16c\	.	.	.	.	.
.	.	.	.	16A\	.	.	16aa\LL	16ccc\LL	16eee-\LL
.	.	.	.	16B-\JJ	.	.	16gg\JJ	16bb-\JJ	16ddd\JJ
8r	8r	8r	8r	16c\LL	8r	8r	8ff#\J	8aa\J	8eee-\J
.	.	.	.	16d\	.	.	.	.	.
8C/	8C/	8C/	8C/	16e\	8A/	8a\	8r	8r	8r
.	.	.	.	16f#\JJ	.	.	.	.	.
16BB-/LL	16BB-/LL	16BB-/LL	16BB-/LL	4g\	4B-/	4d\	8r	8r	8r
16D/	16D/	16D/	16D/	.	.	.	.	.	.
16GG/	16GG/	16GG/	16GG/	.	.	.	16gg\LL	16bb-\LL	16ddd\LL
16AA/JJ	16AA/JJ	16AA/JJ	16AA/JJ	.	.	.	16ff#\JJ	16ccc\JJ	16ccc\JJ
16BB-/LL	16BB-/LL	16BB-/LL	16BB-/LL	8r	8r	8r	8gg\J	8bb-\J	8ddd\J
16C/	16C/	16C/	16C/	.	.	.	.	.	.
16D/	16D/	16D/	16D/	16f#\LL	16a\LL	16cc\LL	8r	8r	8r
16E/JJ	16E/JJ	16E/JJ	16E/JJ	16e\JJ	16g\JJ	16b-\JJ	.	.	.
=124	=124	=124	=124	=124	=124	=124	=124	=124	=124
16F#\LL	16F#\LL	16F#\LL	16F#\LL	8d\	8a\	8cc\	8r	8r	8r
16A\	16A\	16A\	16A\	.	.	.	.	.	.
16D\	16D\	16D\	16D\	8r	8r	8r	16ff#\LL	16aa\LL	16ccc\LL
16E\JJ	16E\JJ	16E\JJ	16E\JJ	.	.	.	16ee\JJ	16gg\JJ	16bb-\JJ
16F#\LL	16F#\LL	16F#\LL	16F#\LL	8r	8r	8r	8dd\J	8aa\J	8ccc\J
16G\	16G\	16G\	16G\	.	.	.	.	.	.
16A\	16A\	16A\	16A\	16c/LL	16f#\LL	16a\LL	8r	8r	8r
16B-\JJ	16B-\JJ	16B-\JJ	16B-\JJ	16B-/JJ	16e\JJ	16g\JJ	.	.	.
16c\LL	16c\LL	16c\LL	16c\LL	8A/J	8d\J	8f#\J	8r	8r	8r
16A\	16A\	16A\	16A\	.	.	.	.	.	.
16F#\	16F#\	16F#\	16F#\	8r	8r	8r	16cc\LL	16ee-\LL	16aa\LL
16G\JJ	16G\JJ	16G\JJ	16G\JJ	.	.	.	16b-\JJ	16dd\JJ	16gg\JJ
16A\LL	16A\LL	16A\LL	16A\LL	8r	8r	8r	8a\J	8cc\J	8ff#\J
16B-\	16B-\	16B-\	16B-\	.	.	.	.	.	.
16c\	16c\	16c\	16c\	8dd\	8dd\	8dd\	8dd\	8dd\	8dd\
16d\JJ	16d\JJ	16d\JJ	16d\JJ	.	.	.	.	.	.
=125	=125	=125	=125	=125	=125	=125	=125	=125	=125
8.e-\L	8.e-\L	8.e-\L	8.e-\L	8.ee-\L	8.ee-\L	8.ee-\L	8.ee-\L	8.ee-\L	8.ee-\L
16d\Jk	16d\Jk	16d\Jk	16d\Jk	16dd\Jk	16dd\Jk	16dd\Jk	16dd\Jk	16dd\Jk	16dd\Jk
16c\LL	16c\LL	16c\LL	16c\LL	16cc\LL	16cc\LL	16cc\LL	16cc\LL	16cc\LL	16cc\LL
16B-\	16B-\	16B-\	16B-\	16b-\	16b-\	16b-\	16b-\	16b-\	16b-\
16A\	16A\	16A\	16A\	16a\	16a\	16a\	16a\	16a\	16a\
16G\JJ	16G\JJ	16G\JJ	16G\JJ	16g\JJ	16g\JJ	16g\JJ	16g\JJ	16g\JJ	16g\JJ
8F#/L	8F#\L	8F#\L	8F#\L	8a\L	8a\L	8a\L	8dd\L	8dd\L	8dd\L
8G/	8G\	8G\	8G\	8d\J	8d\J	8d\J	16cc\LL	16cc\LL	16cc\LL
.	.	.	.	.	.	.	16b-\JJ	16b-\JJ	16b-\JJ
8D/	8d\	8d\	8d\	8c/L	8c/L	8c/L	8a/L	8a/L	8a/L
8DD/J	8D\J	8D\J	8D\J	16B/LL	16B/LL	16B/LL	16g/LL	16g/LL	16g/LL
.	.	.	.	16A/JJ	16A/JJ	16A/JJ	16f#/JJ	16f#/JJ	16f#/JJ
=126	=126	=126	=126	=126	=126	=126	=126	=126	=126
8GG/L	8GG/L	8GG/L	8GG/L	8B/L	8B/L	8B/L	8g/L	8g/L	8g/L
8G/	8G/	8G/	8G/	8d/	8d/	8d/	16d/LL	16d/LL	16d/LL
.	.	.	.	.	.	.	16c/JJ	16c/JJ	16c/JJ
8G/	8G/	8G/	8G/	8B/	8B/	8B/	8d/L	8d/L	8d/L
8GG/J	8GG/J	8GG/J	8GG/J	8G/J	8G/J	8G/J	16g/LL	16g/LL	16g/LL
.	.	.	.	.	.	.	16f#/JJ	16f#/JJ	16f#/JJ
8GG/L	8GG/L	8GG/L	8GG/L	8B/L	8B/L	8B/L	8g/L	8g/L	8g/L
8G/	8G/	8G/	8G/	8d/	8d/	8d/	16B/LL	16B/LL	16B/LL
.	.	.	.	.	.	.	16A/JJ	16A/JJ	16A/JJ
8G/	8G/	8G/	8G/	8B/	8B/	8B/	8B/L	8B/L	8B/L
8GG/J	8GG/J	8GG/J	8GG/J	8G/J	8G/J	8G/J	16g/LL	16g/LL	16g/LL
.	.	.	.	.	.	.	16f#/JJ	16f#/JJ	16f#/JJ
=127	=127	=127	=127	=127	=127	=127	=127	=127	=127
8GG\L	8GG\L	8GG\L	8GG\L	8B\L	8B\L	8B\L	8g/L	8g/L	8g/L
16G\LL	16G\LL	16G\LL	16G\LL	8d\J	8d\J	8d\J	16G/LL	16G/LL	16G/LL
16F#\JJ	16F#\JJ	16F#\JJ	16F#\JJ	.	.	.	16A/JJ	16A/JJ	16A/JJ
8E\L	8E\L	8E\L	8E\L	16g\LL	16g\LL	16g\LL	8B/L	8B/L	8B/L
.	.	.	.	16b\	16b\	16b\	.	.	.
8A\J	8A\J	8A\J	8A\J	16a\	16a\	16a\	8c#/J	8c#/J	8c#/J
.	.	.	.	16g\JJ	16g\JJ	16g\JJ	.	.	.
8D\L	8D\L	8D\L	8D\L	8f#\L	8f#\L	8f#\L	(16d/LL	(16d/LL	(16d/LL
.	.	.	.	.	.	.	16c#/	16c#/	16c#/
16d\LL	16d\LL	16d\LL	16d\LL	8d\J	8d\J	8d\J	16d/)	16d/)	16d/)
16c#\JJ	16c#\JJ	16c#\JJ	16c#\JJ	.	.	.	16e/JJ	16e/JJ	16e/JJ
8d\L	8d\L	8d\L	8d\L	8r	8r	8r	16d/LL	16d/LL	16d/LL
.	.	.	.	.	.	.	16f#/	16f#/	16f#/
8D\J	8D\J	8D\J	8D\J	8b\	8b\	8b\	16d/	16d/	16d/
.	.	.	.	.	.	.	16g/JJ	16g/JJ	16g/JJ
=128	=128	=128	=128	=128	=128	=128	=128	=128	=128
8D\L	8D\L	8D\L	8D\L	8f#\L	8f#\L	8f#\L	(16d/LL	(16d/LL	(16d/LL
.	.	.	.	.	.	.	16c#/	16c#/	16c#/
16d\LL	16d\LL	16d\LL	16d\LL	8d\J	8d\J	8d\J	16d/)	16d/)	16d/)
16c#\JJ	16c#\JJ	16c#\JJ	16c#\JJ	.	.	.	16e/JJ	16e/JJ	16e/JJ
8d\L	8d\L	8d\L	8d\L	8r	8r	8r	16d/LL	16d/LL	16d/LL
.	.	.	.	.	.	.	16a/	16a/	16a/
8D\J	8D\J	8D\J	8D\J	8g\	8g\	8g\	16d/	16d/	16d/
.	.	.	.	.	.	.	16b/JJ	16b/JJ	16b/JJ
8D\L	8D\L	8D\L	8D\L	8f#\L	8f#\L	8f#\L	(16d/LL	(16d/LL	(16d/LL
.	.	.	.	.	.	.	16c#/	16c#/	16c#/
16d\LL	16d\LL	16d\LL	16d\LL	8d\J	8d\J	8d\J	16d/)	16d/)	16d/)
16c#\JJ	16c#\JJ	16c#\JJ	16c#\JJ	.	.	.	16e/JJ	16e/JJ	16e/JJ
8d\L	8d\L	8d\L	8d\L	8r	8r	8r	16d/LL	16d/LL	16d/LL
.	.	.	.	.	.	.	16cc/	16cc/	16cc/
8F#\J	8F#\J	8F#\J	8F#\J	8a\	8a\	8a\	16d/	16d/	16d/
.	.	.	.	.	.	.	16dd/JJ	16dd/JJ	16dd/JJ
=129	=129	=129	=129	=129	=129	=129	=129	=129	=129
8G\L	8G\L	8G\L	8G\L	8d/L	8d/L	8d/L	8b/L	8b/L	8b/L
8E\	8E\	8E\	8E\	16c/LL	16c/LL	16c/LL	16a/LL	16a/LL	16a/LL
.	.	.	.	16B/JJ	16B/JJ	16B/JJ	16g/JJ	16g/JJ	16g/JJ
8C\	8C\	8C\	8C\	8c/L	8c/L	8c/L	8a/L	8a/L	8a/L
8D\J	8D\J	8D\J	8D\J	16B/LL	16B/LL	16B/LL	16g/LL	16g/LL	16g/LL
.	.	.	.	16A/JJ	16A/JJ	16A/JJ	16f#/JJ	16f#/JJ	16f#/JJ
8E/L	8E/L	8E/L	8E/L	8G\L	8G\L	8G\L	8g/L	8g/L	8g/L
16D/LL	16D/LL	16D/LL	16D/LL	8g\	8g\	8g\	16f#/LL	16f#/LL	16f#/LL
16C/JJ	16C/JJ	16C/JJ	16C/JJ	.	.	.	16e/JJ	16e/JJ	16e/JJ
8BB/L	8BB/L	8BB/L	8BB/L	8g\	8g\	8g\	16d/LL	16d/LL	16d/LL
.	.	.	.	.	.	.	16g/	16g/	16g/
16AA/LL	16AA/LL	16AA/LL	16AA/LL	8G\J	8G\J	8G\J	16d/	16d/	16d/
16GG/JJ	16GG/JJ	16GG/JJ	16GG/JJ	.	.	.	16g/JJ	16g/JJ	16g/JJ
=130	=130	=130	=130	=130	=130	=130	=130	=130	=130
8C/L	8C/L	8C/L	8C/L	8G\L	8G\L	8G\L	8e/L	8e/L	8e/L
16BB/LL	16BB/LL	16BB/LL	16BB/LL	8g\	8g\	8g\	16d/LL	16d/LL	16d/LL
16AA/JJ	16AA/JJ	16AA/JJ	16AA/JJ	.	.	.	16c/JJ	16c/JJ	16c/JJ
8GG/L	8GG/L	8GG/L	8GG/L	8g\	8g\	8g\	16B/LL	16B/LL	16B/LL
.	.	.	.	.	.	.	16g/	16g/	16g/
16G/LL	16G/LL	16G/LL	16G/LL	8G\J	8G\J	8G\J	16B/	16B/	16B/
16F#/JJ	16F#/JJ	16F#/JJ	16F#/JJ	.	.	.	16g/JJ	16g/JJ	16g/JJ
8E/L	8E/L	8E/L	8E/L	8G\L	8G\L	8G\L	8c/L	8c/L	8c/L
16D/LL	16D/LL	16D/LL	16D/LL	8g\	8g\	8g\	16B/LL	16B/LL	16B/LL
16C/JJ	16C/JJ	16C/JJ	16C/JJ	.	.	.	16A/JJ	16A/JJ	16A/JJ
8BB/L	8BB/L	8BB/L	8BB/L	8g\	8g\	8g\	16G/LL	16G/LL	16G/LL
.	.	.	.	.	.	.	16g/	16g/	16g/
8C#/J	8C#/J	8C#/J	8C#/J	8G\J	8G\J	8G\J	16A/	16A/	16A/
.	.	.	.	.	.	.	16g/JJ	16g/JJ	16g/JJ
=131	=131	=131	=131	=131	=131	=131	=131	=131	=131
8D/L	8D/L	8D/L	8D/L	8G\L	8G\L	8G\L	16B/LL	16B/LL	16B/LL
.	.	.	.	.	.	.	16g/	16g/	16g/
8DD/J	8DD/J	8DD/J	8DD/J	8g\	8g\	8g\	16c#/	16c#/	16c#/
.	.	.	.	.	.	.	16g/JJ	16g/JJ	16g/JJ
8DD/L	8DD/L	8DD/L	8DD/L	8f#\	8f#\	8f#\	16d/LL	16d/LL	16d/LL
.	.	.	.	.	.	.	16f#/	16f#/	16f#/
16D/LL	16D/LL	16D/LL	16D/LL	8g\J	8g\J	8g\J	16d/	16d/	16d/
16E/JJ	16E/JJ	16E/JJ	16E/JJ	.	.	.	16g/JJ	16g/JJ	16g/JJ
8F#\L	8F#\L	8F#\L	8F#\L	8a\L	8a\L	8a\L	16d/LL	16d/LL	16d/LL
.	.	.	.	.	.	.	16a/	16a/	16a/
8G\	8G\	8G\	8G\	8b\	8b\	8b\	16d/	16d/	16d/
.	.	.	.	.	.	.	16b/JJ	16b/JJ	16b/JJ
8A\	8A\	8A\	8A\	8cc\	8cc\	8cc\	16d/LL	16d/LL	16d/LL
.	.	.	.	.	.	.	16cc/	16cc/	16cc/
8F#\J	8F#\J	8F#\J	8F#\J	8dd\J	8dd\J	8dd\J	16d/	16d/	16d/
.	.	.	.	.	.	.	16dd/JJ	16dd/JJ	16dd/JJ
=132	=132	=132	=132	=132	=132	=132	=132	=132	=132
8G\L	8G\L	8G\L	8G\L	8b\L	8b\L	8b\L	8b/L	8b/L	8b/L
8c\	8c\	8c\	8c\	16a\LL	16a\LL	16a\LL	16a/LL	16a/LL	16a/LL
.	.	.	.	16g\JJ	16g\JJ	16g\JJ	16g/JJ	16g/JJ	16g/JJ
8d\	8d\	8d\	8d\	8d\L	8d\L	8d\L	8d/L	8d/L	8d/L
8D\J	8D\J	8D\J	8D\J	8f#\J	8f#\J	8f#\J	8f#/J	8f#/J	8f#/J
(8GG/L	8GG/	8GG/	8G\	8g\	8g\	8g\	8g/	8g/	8g/
8GG/	16BB/LL	16D/LL	16G\LL	8r	8r	8r	8r	8r	8r
.	16AA/JJ	16C/JJ	16F#\JJ	.	.	.	.	.	.
8GG/	8BB/L	8D\L	8G\L	4r	4r	4r	4r	4r	4r
8GG/J)	16D/LL	16G\LL	16B\LL	.	.	.	.	.	.
.	16C/JJ	16F#\JJ	16A\JJ	.	.	.	.	.	.
=133	=133	=133	=133	=133	=133	=133	=133	=133	=133
(8GG/L	8D\	8G\	8B\	8r	8r	8r	2r	2r	2r
8GG/	8r	8r	8r	16G/LL	16B/LL	16d\LL	.	.	.
.	.	.	.	16F#/JJ	16A/JJ	16c\JJ	.	.	.
8GG/	4r	4r	4r	8G/L	8B\L	8d\L	.	.	.
8GG/J)	.	.	.	16B/LL	16d\LL	16g\LL	.	.	.
.	.	.	.	16A/JJ	16c\JJ	16f#\JJ	.	.	.
(8GG/L	2r	2r	2r	8B/	8d\	8g\	8r	8r	8r
8GG/	.	.	.	8r	8r	8r	16d/LL	16g/LL	16b/LL
.	.	.	.	.	.	.	16c/JJ	16f#/JJ	16a/JJ
8GG/	.	.	.	4r	4r	4r	8d/L	8g/L	8b\L
8GG/J)	.	.	.	.	.	.	16g/LL	16b/LL	16dd\LL
.	.	.	.	.	.	.	16f#/JJ	16a/JJ	16cc\JJ
=134	=134	=134	=134	=134	=134	=134	=134	=134	=134
(8GG/L	1r	1r	1r	4r	4r	4r	8g/L	8b\L	8dd\L
8GG/	.	.	.	.	.	.	16b/LL	16dd\LL	16gg\LL
.	.	.	.	.	.	.	16a/JJ	16cc\JJ	16ff#\JJ
8GG/	.	.	.	8r	8r	8r	8b\L	8dd\L	8gg\L
8GG/J)	.	.	.	8d\	8d\	8d\	16dd\LL	16gg\LL	16bb\LL
.	.	.	.	.	.	.	16cc\JJ	16ff#\JJ	16aa\JJ
(8GG/L	.	.	.	8g\L	8g\L	8g\L	4dd\	4gg\	8bb\L
8GG/	.	.	.	16f#\LL	16f#\LL	16f#\LL	.	.	16aa\LL
.	.	.	.	16e\JJ	16e\JJ	16e\JJ	.	.	16gg\JJ
8GG/	.	.	.	16d\LL	16d\LL	16d\LL	8r	8r	16ff#\LL
.	.	.	.	16c\	16c\	16c\	.	.	16ee\
8GG/J)	.	.	.	16B\	16B\	16B\	8g/	8dd\	16dd\
.	.	.	.	16A\JJ	16A\JJ	16A\JJ	.	.	16cc\JJ
=135	=135	=135	=135	=135	=135	=135	=135	=135	=135
(8GG/L	4r	4r	4r	16G/LL	8G/L	16G/LL	8b/L	8gg\L	16b\LL
.	.	.	.	16D/	.	16B/	.	.	16dd\
8GG/	.	.	.	16E/	16A/LL	16c/	16a/LL	16ff#\LL	16cc\
.	.	.	.	16F#/JJ	16B/JJ	16d/JJ	16g/JJ	16ee\JJ	16b\JJ
8GG/)	8r	8r	8r	16G/LL	16c\LL	16e\LL	16f#/LL	16dd\LL	16a/LL
.	.	.	.	16A/	16d\	16f#\	16e/	16cc\	16g/
8D/J	8D\	8D\	8D\	16B/	16e\	16g\	16d/	16b\	16f#/
.	.	.	.	16c/JJ	16f#\JJ	16a\JJ	16c/JJ	16a\JJ	16e/JJ
8G\L	8G\L	8G\L	8G\L	16d\LL	8g\L	16b\LL	16B/LL	8g/L	16d/LL
.	.	.	.	16g\	.	16g\	16g/	.	16g/
16F#\LL	16F#\LL	16F#\LL	16F#\LL	16f#\	16f#\LL	16f#\	16f#/	16f#/LL	16f#/
16E\JJ	16E\JJ	16E\JJ	16E\JJ	16e\JJ	16e\JJ	16e\JJ	16e/JJ	16e/JJ	16e/JJ
16D/LL	16D/LL	16D/LL	16D/LL	16d\LL	16d\LL	16d\LL	16d/LL	16d/LL	16d/LL
16C/	16C/	16C/	16C/	16c\	16c\	16c\	16c/	16c/	16c/
16BB/	16BB/	16BB/	16BB/	16B\	16B\	16B\	16B/	16B/	16B/
16AA/JJ	16AA/JJ	16AA/JJ	16AA/JJ	16A\JJ	16A\JJ	16A\JJ	16A/JJ	16A/JJ	16A/JJ
=136	=136	=136	=136	=136	=136	=136	=136	=136	=136
8BB/L	8BB/L	8BB/L	8BB/L	8B/L	8B/L	8B/L	8B/L	8B/L	8B/L
16AA/LL	16AA/LL	16AA/LL	16AA/LL	16A/LL	16A/LL	16A/LL	16A/LL	16A/LL	16A/LL
16GG/JJ	16GG/JJ	16GG/JJ	16GG/JJ	16G/JJ	16G/JJ	16G/JJ	16G/JJ	16G/JJ	16G/JJ
8D/L	8D/L	8D/L	8D/L	8d/L	8d/L	8d/L	8d/L	8d/L	8d/L
8DD/J	8DD/J	8DD/J	8DD/J	8D/J	8D/J	8D/J	8d/J	8d/J	8d/J
4.GG;/	4.GG;/	4.GG;/	4.GG;/	4.G;/	4.G;/	4.G;/	4.G;/	4.G;/	4.G;/
!! Adagio
=	=	=	=	=	=	=	=	=	=
*M4/4	*M4/4	*M4/4	*M4/4	*M4/4	*M4/4	*M4/4	*M4/4	*M4/4	*M4/4
2C/	2C/	2C/	2C/	2E/	2c/	2a\	2e/	2e/	2a/
2BB;/	2BB;/	2BB;/	2BB;/	2B;/	2F#;/	2d#;\	2d#;/	2f#;/	2b;/
==	==	==	==	==	==	==	==	==	==
*-	*-	*-	*-	*-	*-	*-	*-	*-	*-
!!!CDT: 1685/3//-1750/7/28
!!!OCY: Deutschland
!!!ODE: His Royal Highness Christian Ludwig, Margrave of Brandenburg.
!!!ODT: 1711//-1713//
!!!OPC: ?Weimar
!!!PPR: Peters
!!!PDT: 1850
!!!PPP: Leipzig
!!!AGN: concerto grosso
!!!AST: baroque, orchestral
!!!AMT: simple duple
!!!SCA: Bach-Werke-Verzeichnis
!!!YOR: Bach Gesellschaft, xix,59
!!!YOY: 1871; although imprint says 1869
!!!AIN: cbass; cemba; cello; viola; violn
!!!EEV: 1.0
!!!RDT: 1994 March 5
!!!YER: 1994 October 22
!!!YEN: United States of America
!!!EFL: 1/2
!!!EED: W.B. Hewlett
!!!VTS: 2898920148
